; generated by Slic3r 1.2.9 on 2016-05-16 at 08:32:52

; external perimeters extrusion width = 0.40mm
; perimeters extrusion width = 0.67mm
; infill extrusion width = 0.67mm
; solid infill extrusion width = 0.67mm
; top infill extrusion width = 0.67mm

M190 S60 ; set bed temperature
M104 S210 ; set temperature
G28 ; home all axes
G1 Z5 F5000 ; lift nozzle

M109 S210 ; wait for temperature to be reached
G21 ; set units to millimeters
G90 ; use absolute coordinates
M82 ; use absolute distances for extrusion
G92 E0
M106 S255
G1 E-2.00000 F2400.00000
G92 E0
G1 Z0.200 F7800.000
G1 Z0.400 F7800.000
G1 Z0.600 F7800.000
G1 X73.401 Y71.871 F7800.000
G1 Z0.400 F7800.000
G1 E2.00000 F2400.00000
G1 X75.699 Y70.587 E2.31268 F1200.000
G1 X78.750 Y70.036 E2.68087
G1 X141.250 Y70.036 E10.10369
G1 X143.853 Y70.434 E10.41637
G1 X146.218 Y71.590 E10.72905 F1200.000
G1 X148.129 Y73.401 E11.04173
G1 X149.413 Y75.699 E11.35440
G1 X149.960 Y79.024 E11.75453
G1 X149.837 Y82.948 E12.22085
G1 X149.802 Y83.494 E12.28587
G1 X149.433 Y87.403 E12.75218
G1 X149.364 Y87.947 E12.81720
G1 X148.750 Y91.825 E13.28351
G1 X148.647 Y92.362 E13.34855
G1 X147.791 Y96.194 E13.81487
G1 X147.655 Y96.724 E13.87983
G1 X146.607 Y100.312 E14.32378
G1 X146.212 Y101.509 E14.47347
G1 X145.060 Y104.710 E14.87746
G1 X144.858 Y105.219 E14.94246
G1 X143.299 Y108.822 E15.40877
G1 X143.066 Y109.317 E15.47377
G1 X141.283 Y112.816 E15.94012
G1 X141.020 Y113.295 E16.00512
G1 X139.021 Y116.675 E16.47144
G1 X138.728 Y117.137 E16.53646
G1 X136.560 Y120.316 E16.99344
G1 X135.834 Y121.298 E17.13846
G1 X133.793 Y123.930 E17.53402
G1 X133.444 Y124.352 E17.59906
G1 X130.847 Y127.297 E18.06538
G1 X130.473 Y127.696 E18.13034
G1 X129.335 Y128.834 E18.32150
G1 X127.696 Y130.473 E18.59675
G1 X127.297 Y130.847 E18.66170
G1 X124.352 Y133.444 E19.12801
G1 X123.930 Y133.793 E19.19306
G1 X120.749 Y136.249 E19.67032
G1 X119.801 Y136.918 E19.80819
G1 X117.137 Y138.728 E20.19061
G1 X116.675 Y139.021 E20.25564
G1 X113.295 Y141.020 E20.72196
G1 X112.816 Y141.284 E20.78697
G1 X109.317 Y143.066 E21.25333
G1 X108.822 Y143.299 E21.31831
G1 X105.219 Y144.858 E21.78462
G1 X104.710 Y145.060 E21.84962
G1 X101.161 Y146.338 E22.29758
G1 X99.682 Y146.795 E22.48139
G1 X96.724 Y147.655 E22.84724
G1 X96.194 Y147.791 E22.91223
G1 X92.362 Y148.647 E23.37855
G1 X91.824 Y148.750 E23.44359
G1 X87.946 Y149.364 E23.90990
G1 X87.403 Y149.433 E23.97491
G1 X83.494 Y149.802 E24.44123
G1 X82.948 Y149.837 E24.50625
G1 X79.024 Y149.960 E24.97256
G1 X76.410 Y149.644 E25.28524
G1 X74.010 Y148.562 E25.59792
G1 X72.042 Y146.813 E25.91060
G1 X70.687 Y144.556 E26.22327
G1 X70.036 Y141.250 E26.62340
G1 X70.036 Y78.750 E34.04623
G1 X70.434 Y76.147 E34.35891
G1 X71.590 Y73.782 E34.67158
G1 X73.359 Y71.915 E34.97714
G1 E32.97714 F2400.00000
G92 E0
G1 Z0.600 F7800.000
G1 X129.457 Y85.186 F7800.000
G1 Z0.400 F7800.000
G1 E2.00000 F2400.00000
G1 X128.959 Y88.328 E2.37782 F1200.000
G1 X128.259 Y91.462 E2.75919
G1 X127.363 Y94.545 E3.14056
G1 X126.275 Y97.567 E3.52192
G1 X125.000 Y100.514 E3.90329
G1 X123.542 Y103.375 E4.28467
G1 X121.908 Y106.139 E4.66602
G1 X120.103 Y108.795 E5.04739
G1 X118.135 Y111.332 E5.42876
G1 X116.011 Y113.740 E5.81014
G1 X113.740 Y116.011 E6.19149
G1 X111.332 Y118.135 E6.57287
G1 X108.795 Y120.103 E6.95423
G1 X106.139 Y121.908 E7.33561
G1 X103.375 Y123.542 E7.71696
G1 X100.514 Y125.000 E8.09833
G1 X97.567 Y126.275 E8.47971
G1 X94.545 Y127.363 E8.86107
G1 X91.462 Y128.259 E9.24244
G1 X88.328 Y128.959 E9.62381
G1 X85.186 Y129.457 E10.00163
G1 X85.186 Y85.186 E15.25950
G1 X129.397 Y85.186 E20.51025
G1 X128.621 Y85.900 F7800.000
G1 X128.258 Y88.194 E20.78610 F1200.000
G1 X127.567 Y91.284 E21.16213
G1 X126.683 Y94.324 E21.53817
G1 X125.611 Y97.304 E21.91420
G1 X124.354 Y100.209 E22.29025
G1 X122.916 Y103.031 E22.66628
G1 X121.304 Y105.756 E23.04231
G1 X119.525 Y108.375 E23.41835
G1 X117.584 Y110.876 E23.79439
G1 X115.490 Y113.251 E24.17043
G1 X113.251 Y115.490 E24.54646
G1 X110.876 Y117.584 E24.92250
G1 X108.375 Y119.525 E25.29854
G1 X105.756 Y121.304 E25.67458
G1 X103.031 Y122.916 E26.05060
G1 X100.209 Y124.354 E26.42664
G1 X97.304 Y125.611 E26.80268
G1 X94.324 Y126.683 E27.17872
G1 X91.284 Y127.567 E27.55475
G1 X88.194 Y128.258 E27.93079
G1 X85.900 Y128.621 E28.20664
G1 X85.900 Y85.900 E33.28039
G1 X128.561 Y85.900 E38.34701
G1 X129.019 Y85.942 F7800.000
G1 X127.636 Y80.864 F7800.000
G1 X130.864 Y80.864 E38.73042 F1200.000
G1 X130.864 Y79.864 E38.84919
G1 X137.836 Y79.864 E39.67718
G1 X137.836 Y80.864 E39.79594
G1 X140.069 Y80.864 E40.06115
G1 X140.014 Y82.604 E40.26793
G1 X139.651 Y86.444 E40.72593
G1 X139.601 Y86.760 E40.76395
G1 X138.614 Y86.603 E40.88267
G1 X138.109 Y89.792 E41.26607
G1 X139.096 Y89.948 E41.38478
G1 X139.048 Y90.252 E41.42133
G1 X138.207 Y94.016 E41.87934
G1 X137.575 Y96.192 E42.14844
G1 X136.624 Y95.883 E42.26721
G1 X136.180 Y97.410 E42.45609
G1 X135.624 Y98.953 E42.65082
G1 X136.576 Y99.262 E42.76959
G1 X135.825 Y101.347 E43.03287
G1 X134.293 Y104.887 E43.49087
G1 X134.126 Y105.215 E43.53463
G1 X133.235 Y104.761 E43.65334
G1 X131.770 Y107.638 E44.03675
G1 X132.660 Y108.091 E44.15547
G1 X132.542 Y108.323 E44.18628
G1 X130.579 Y111.642 E44.64428
G1 X129.266 Y113.575 E44.92183
G1 X128.457 Y112.987 E45.04058
G1 X127.603 Y114.244 E45.22104
G1 X126.554 Y115.595 E45.42419
G1 X127.363 Y116.183 E45.54294
G1 X126.048 Y117.878 E45.79778
G1 X123.498 Y120.771 E46.25578
G1 X123.172 Y121.097 E46.31046
G1 X122.466 Y120.390 E46.42917
G1 X120.183 Y122.673 E46.81258
G1 X120.897 Y123.387 E46.93254
G1 X117.878 Y126.048 E47.41047
G1 X115.944 Y127.548 E47.70116
G1 X115.357 Y126.739 E47.81993
G1 X114.244 Y127.603 E47.98724
G1 X112.737 Y128.626 E48.20353
G1 X113.325 Y129.435 E48.32229
G1 X111.642 Y130.579 E48.56400
G1 X108.323 Y132.542 E49.02200
G1 X107.800 Y132.809 E49.09171
G1 X107.346 Y131.918 E49.21042
G1 X104.469 Y133.384 E49.59384
G1 X104.924 Y134.277 E49.71285
G1 X101.347 Y135.825 E50.17572
G1 X98.913 Y136.701 E50.48297
G1 X98.623 Y135.806 E50.59467
G1 X95.531 Y136.737 E50.97819
G1 X95.836 Y137.678 E51.09562
G1 X94.016 Y138.207 E51.32076
G1 X90.252 Y139.048 E51.77876
G1 X89.526 Y139.163 E51.86614
G1 X89.369 Y138.176 E51.98486
G1 X86.181 Y138.681 E52.36827
G1 X86.336 Y139.661 E52.48617
G1 X82.604 Y140.014 E52.93134
G1 X80.864 Y140.069 E53.13812
G1 X80.864 Y137.836 E53.40333
G1 X79.864 Y137.836 E53.52209
G1 X79.864 Y130.864 E54.35008
G1 X80.864 Y130.864 E54.46885
G1 X80.864 Y127.636 E54.85226
G1 X79.864 Y127.636 E54.97103
G1 X79.864 Y120.664 E55.79902
G1 X80.864 Y120.664 E55.91778
G1 X80.864 Y118.265 E56.20276
G1 X80.178 Y117.436 E56.33058
G1 X79.864 Y117.436 E56.36781
G1 X79.864 Y110.464 E57.19580
G1 X80.864 Y110.464 E57.31456
G1 X80.864 Y107.236 E57.69798
G1 X79.864 Y107.236 E57.81674
G1 X79.864 Y100.264 E58.64473
G1 X80.864 Y100.264 E58.76350
G1 X80.864 Y97.036 E59.14691
G1 X79.864 Y97.036 E59.26568
G1 X79.864 Y90.064 E60.09367
G1 X80.178 Y90.064 E60.13090
G1 X80.864 Y89.235 E60.25872
G1 X80.864 Y86.836 E60.54369
G1 X79.864 Y86.836 E60.66246
G1 X79.864 Y79.864 E61.49045
G1 X86.836 Y79.864 E62.31844
G1 X86.836 Y80.864 E62.43721
G1 X89.235 Y80.864 E62.72218
G1 X90.064 Y80.178 E62.85001
G1 X90.064 Y79.864 E62.88723
G1 X97.036 Y79.864 E63.71523
G1 X97.036 Y80.864 E63.83399
G1 X100.264 Y80.864 E64.21740
G1 X100.264 Y79.864 E64.33617
G1 X107.236 Y79.864 E65.16416
G1 X107.236 Y80.864 E65.28293
G1 X110.464 Y80.864 E65.66634
G1 X110.464 Y79.864 E65.78510
G1 X117.436 Y79.864 E66.61310
G1 X117.436 Y80.178 E66.65032
G1 X118.265 Y80.864 E66.77814
G1 X120.664 Y80.864 E67.06312
G1 X120.664 Y79.864 E67.18188
G1 X127.636 Y79.864 E68.00988
G1 X127.636 Y80.804 E68.12152
G1 X128.350 Y80.150 F7800.000
G1 X130.150 Y80.150 E68.33529 F1200.000
G1 X130.150 Y79.150 E68.45406
G1 X138.550 Y79.150 E69.45169
G1 X138.550 Y80.150 E69.57045
G1 X140.350 Y80.150 E69.78423
G1 X140.350 Y79.150 E69.90299
G1 X140.837 Y79.150 E69.96086
G1 X140.727 Y82.649 E70.37666
G1 X140.360 Y86.533 E70.83998
G1 X140.195 Y87.577 E70.96549
G1 X139.208 Y87.421 E71.08420
G1 X138.926 Y89.198 E71.29798
G1 X139.913 Y89.355 E71.41668
G1 X139.750 Y90.386 E71.54072
G1 X138.899 Y94.194 E72.00405
G1 X138.055 Y97.099 E72.36334
G1 X137.104 Y96.790 E72.48211
G1 X136.859 Y97.631 E72.58614
G1 X136.546 Y98.501 E72.69600
G1 X137.497 Y98.810 E72.81477
G1 X136.489 Y101.610 E73.16825
G1 X134.940 Y105.191 E73.63157
G1 X134.438 Y106.175 E73.76282
G1 X133.547 Y105.722 E73.88153
G1 X132.730 Y107.325 E74.09531
G1 X133.621 Y107.779 E74.21402
G1 X133.169 Y108.667 E74.33232
G1 X131.183 Y112.025 E74.79565
G1 X129.442 Y114.586 E75.16339
G1 X128.633 Y113.998 E75.28215
G1 X128.181 Y114.664 E75.37774
G1 X127.570 Y115.451 E75.49603
G1 X128.379 Y116.038 E75.61479
G1 X126.599 Y118.334 E75.95982
G1 X124.019 Y121.260 E76.42316
G1 X123.172 Y122.107 E76.56532
G1 X122.466 Y121.400 E76.68403
G1 X121.193 Y122.673 E76.89781
G1 X121.900 Y123.379 E77.01652
G1 X121.260 Y124.019 E77.12390
G1 X118.334 Y126.599 E77.58723
G1 X115.800 Y128.564 E77.96810
G1 X115.212 Y127.755 E78.08687
G1 X114.664 Y128.181 E78.16932
G1 X113.748 Y128.803 E78.30075
G1 X114.336 Y129.612 E78.41952
G1 X112.025 Y131.183 E78.75141
G1 X108.667 Y133.169 E79.21475
G1 X107.487 Y133.769 E79.37194
G1 X107.034 Y132.879 E79.49065
G1 X105.430 Y133.696 E79.70443
G1 X105.884 Y134.587 E79.82314
G1 X105.191 Y134.940 E79.91549
G1 X101.610 Y136.489 E80.37882
G1 X98.462 Y137.623 E80.77626
G1 X98.159 Y136.692 E80.89249
G1 X96.435 Y137.211 E81.10633
G1 X96.743 Y138.158 E81.22461
G1 X94.194 Y138.899 E81.53994
G1 X90.386 Y139.750 E82.00327
G1 X88.932 Y139.980 E82.17813
G1 X88.776 Y138.993 E82.29684
G1 X86.998 Y139.275 E82.51062
G1 X87.154 Y140.262 E82.62933
G1 X86.533 Y140.360 E82.70401
G1 X82.649 Y140.727 E83.16733
G1 X79.150 Y140.837 E83.58313
G1 X79.150 Y140.350 E83.64100
G1 X80.150 Y140.350 E83.75976
G1 X80.150 Y138.550 E83.97354
G1 X79.150 Y138.550 E84.09231
G1 X79.150 Y130.150 E85.08993
G1 X80.150 Y130.150 E85.20870
G1 X80.150 Y128.350 E85.42248
G1 X79.150 Y128.350 E85.54124
G1 X79.150 Y119.950 E86.53887
G1 X80.150 Y119.950 E86.65763
G1 X80.150 Y118.522 E86.82723
G1 X79.842 Y118.150 E86.88460
G1 X79.150 Y118.150 E86.96677
G1 X79.150 Y109.750 E87.96439
G1 X80.150 Y109.750 E88.08316
G1 X80.150 Y107.950 E88.29694
G1 X79.150 Y107.950 E88.41570
G1 X79.150 Y99.550 E89.41333
G1 X80.150 Y99.550 E89.53209
G1 X80.150 Y97.750 E89.74587
G1 X79.150 Y97.750 E89.86464
G1 X79.150 Y89.350 E90.86226
G1 X79.842 Y89.350 E90.94443
G1 X80.150 Y88.978 E91.00181
G1 X80.150 Y87.550 E91.17140
G1 X79.150 Y87.550 E91.29016
G1 X79.150 Y79.150 E92.28779
G1 X87.550 Y79.150 E93.28542
G1 X87.550 Y80.150 E93.40418
G1 X88.978 Y80.150 E93.57377
G1 X89.350 Y79.842 E93.63115
G1 X89.350 Y79.150 E93.71331
G1 X97.750 Y79.150 E94.71094
G1 X97.750 Y80.150 E94.82971
G1 X99.550 Y80.150 E95.04348
G1 X99.550 Y79.150 E95.16225
G1 X107.950 Y79.150 E96.15988
G1 X107.950 Y80.150 E96.27864
G1 X109.750 Y80.150 E96.49242
G1 X109.750 Y79.150 E96.61118
G1 X118.150 Y79.150 E97.60881
G1 X118.150 Y79.842 E97.69097
G1 X118.522 Y80.150 E97.74835
G1 X119.950 Y80.150 E97.91794
G1 X119.950 Y79.150 E98.03671
G1 X128.350 Y79.150 E99.03434
G1 X128.350 Y80.090 E99.14597
G1 X128.350 Y80.550 F7800.000
G1 X128.788 Y84.822 F7800.000
G1 X124.195 Y80.228 E99.91806 F1199.113
G1 X123.184 Y80.228 E100.03819
G1 X127.777 Y84.822 E100.81028
G1 X126.767 Y84.822 E100.93040
G1 X122.173 Y80.228 E101.70249
G1 X121.162 Y80.228 E101.82262
G1 X125.756 Y84.822 E102.59471
G1 X124.745 Y84.822 E102.71483
G1 X121.028 Y81.105 E103.33959
G1 X120.141 Y81.228 E103.44606
G1 X123.734 Y84.822 E104.05006
G1 X122.724 Y84.822 E104.17019
G1 X119.130 Y81.228 E104.77419
G1 X118.120 Y81.228 E104.89432
G1 X121.713 Y84.822 E105.49832
G1 X120.702 Y84.822 E105.61845
G1 X116.109 Y80.228 E106.39054
G1 X115.098 Y80.228 E106.51066
G1 X119.692 Y84.822 E107.28275
G1 X118.681 Y84.822 E107.40288
G1 X114.087 Y80.228 E108.17497
G1 X113.077 Y80.228 E108.29509
G1 X117.670 Y84.822 E109.06718
G1 X116.659 Y84.822 E109.18731
G1 X112.066 Y80.228 E109.95940
G1 X111.055 Y80.228 E110.07952
G1 X115.649 Y84.822 E110.85161
G1 X114.638 Y84.822 E110.97174
G1 X110.828 Y81.012 E111.61209
G1 X110.034 Y81.228 E111.70995
G1 X113.627 Y84.822 E112.31395
G1 X112.617 Y84.822 E112.43408
G1 X109.023 Y81.228 E113.03808
G1 X108.012 Y81.228 E113.15821
G1 X111.606 Y84.822 E113.76222
G1 X110.595 Y84.822 E113.88234
G1 X106.002 Y80.228 E114.65443
G1 X104.991 Y80.228 E114.77456
G1 X109.584 Y84.822 E115.54664
G1 X108.574 Y84.822 E115.66677
G1 X103.980 Y80.228 E116.43886
G1 X102.969 Y80.228 E116.55899
G1 X107.563 Y84.822 E117.33107
G1 X106.552 Y84.822 E117.45120
G1 X101.959 Y80.228 E118.22329
G1 X100.948 Y80.228 E118.34342
G1 X105.541 Y84.822 E119.11550
G1 X104.531 Y84.822 E119.23563
G1 X100.628 Y80.919 E119.89158
G1 X99.927 Y81.228 F7800.000
G1 X103.520 Y84.822 E120.49558 F1199.113
G1 X102.509 Y84.822 E120.61571
G1 X98.916 Y81.228 E121.21971
G1 X97.905 Y81.228 E121.33984
G1 X101.499 Y84.822 E121.94384
G1 X100.488 Y84.822 E122.06397
G1 X95.894 Y80.228 E122.83606
G1 X94.884 Y80.228 E122.95619
G1 X99.477 Y84.822 E123.72827
G1 X98.466 Y84.822 E123.84840
G1 X93.873 Y80.228 E124.62049
G1 X92.862 Y80.228 E124.74061
G1 X97.456 Y84.822 E125.51270
G1 X96.445 Y84.822 E125.63283
G1 X91.852 Y80.228 E126.40492
G1 X90.841 Y80.228 E126.52504
G1 X95.434 Y84.822 E127.29713
G1 X94.424 Y84.822 E127.41726
G1 X90.123 Y80.521 E128.14009
G1 X89.570 Y80.979 E128.22541
G1 X93.413 Y84.822 E128.87128
G1 X92.402 Y84.822 E128.99140
G1 X88.809 Y81.228 E129.59541
G1 X87.798 Y81.228 E129.71553
G1 X91.391 Y84.822 E130.31954
G1 X90.381 Y84.822 E130.43966
G1 X85.787 Y80.228 E131.21175
G1 X84.776 Y80.228 E131.33188
G1 X89.370 Y84.822 E132.10397
G1 X88.359 Y84.822 E132.22409
G1 X83.766 Y80.228 E132.99618
G1 X82.755 Y80.228 E133.11631
G1 X87.349 Y84.822 E133.88840
G1 X86.338 Y84.822 E134.00852
G1 X81.744 Y80.228 E134.78061
G1 X80.734 Y80.228 E134.90074
G1 X85.327 Y84.822 E135.67283
G1 X84.822 Y85.327 F7800.000
G1 X80.228 Y80.734 E136.44491 F1199.113
G1 X80.228 Y81.744 E136.56504
G1 X84.822 Y86.338 E137.33713
G1 X84.822 Y87.349 E137.45726
G1 X80.228 Y82.755 E138.22934
G1 X80.228 Y83.766 E138.34947
G1 X84.822 Y88.359 E139.12156
G1 X84.822 Y89.370 E139.24169
G1 X80.228 Y84.777 E140.01377
G1 X80.228 Y85.787 E140.13390
G1 X84.822 Y90.381 E140.90599
G1 X84.822 Y91.391 E141.02611
G1 X81.228 Y87.798 E141.63012
G1 X81.228 Y88.809 E141.75025
G1 X84.822 Y92.402 E142.35425
G1 X84.822 Y93.413 E142.47438
G1 X80.979 Y89.570 E143.12025
G1 X80.521 Y90.123 E143.20556
G1 X84.822 Y94.424 E143.92840
G1 X84.822 Y95.434 E144.04853
G1 X80.228 Y90.841 E144.82061
G1 X80.228 Y91.852 E144.94074
G1 X84.822 Y96.445 E145.71283
G1 X84.822 Y97.456 E145.83296
G1 X80.228 Y92.862 E146.60504
G1 X80.228 Y93.873 E146.72517
G1 X84.822 Y98.466 E147.49726
G1 X84.822 Y99.477 E147.61739
G1 X80.228 Y94.884 E148.38947
G1 X80.228 Y95.894 E148.50960
G1 X84.822 Y100.488 E149.28169
G1 X84.822 Y101.499 E149.40181
G1 X81.228 Y97.905 E150.00582
G1 X81.228 Y98.916 E150.12595
G1 X84.822 Y102.509 E150.72995
G1 X84.822 Y103.520 E150.85008
G1 X81.228 Y99.927 E151.45408
G1 X80.919 Y100.628 F7800.000
G1 X84.822 Y104.531 E152.11003 F1199.113
G1 X84.822 Y105.542 E152.23016
G1 X80.228 Y100.948 E153.00225
G1 X80.228 Y101.959 E153.12238
G1 X84.822 Y106.552 E153.89446
G1 X84.822 Y107.563 E154.01459
G1 X80.228 Y102.969 E154.78668
G1 X80.228 Y103.980 E154.90681
G1 X84.822 Y108.574 E155.67889
G1 X84.822 Y109.584 E155.79902
G1 X80.228 Y104.991 E156.57111
G1 X80.228 Y106.002 E156.69123
G1 X84.822 Y110.595 E157.46332
G1 X84.822 Y111.606 E157.58345
G1 X81.228 Y108.012 E158.18745
G1 X81.228 Y109.023 E158.30758
G1 X84.822 Y112.617 E158.91158
G1 X84.822 Y113.627 E159.03171
G1 X81.228 Y110.034 E159.63572
G1 X81.012 Y110.828 E159.73357
G1 X84.822 Y114.638 E160.37393
G1 X84.822 Y115.649 E160.49406
G1 X80.228 Y111.055 E161.26614
G1 X80.228 Y112.066 E161.38627
G1 X84.822 Y116.659 E162.15836
G1 X84.822 Y117.670 E162.27849
G1 X80.228 Y113.077 E163.05057
G1 X80.228 Y114.087 E163.17070
G1 X84.822 Y118.681 E163.94279
G1 X84.822 Y119.692 E164.06292
G1 X80.228 Y115.098 E164.83500
