; generated by Slic3r 1.2.9 on 2016-04-03 at 13:00:38

; external perimeters extrusion width = 0.40mm
; perimeters extrusion width = 0.67mm
; infill extrusion width = 0.67mm
; solid infill extrusion width = 0.67mm
; top infill extrusion width = 0.67mm

M190 S60 ; set bed temperature
M104 S210 ; set temperature
G28 ; home all axes
G1 Z5 F5000 ; lift nozzle

M109 S210 ; wait for temperature to be reached
G21 ; set units to millimeters
G90 ; use absolute coordinates
M82 ; use absolute distances for extrusion
G92 E0
M106 S255
G1 E-2.00000 F2400.00000
G92 E0
G1 Z0.200 F7800.000
G1 Z0.400 F7800.000
G1 Z0.600 F7800.000
G1 X73.401 Y71.871 F7800.000
G1 Z0.400 F7800.000
G1 E2.00000 F2400.00000
G1 X75.699 Y70.587 E2.31268 F1200.000
G1 X78.750 Y70.036 E2.68087
G1 X141.250 Y70.036 E10.10369
G1 X143.853 Y70.434 E10.41637
G1 X146.218 Y71.590 E10.72905 F1200.000
G1 X148.129 Y73.401 E11.04173
G1 X149.413 Y75.699 E11.35440
G1 X149.964 Y78.750 E11.72259
G1 X149.964 Y141.250 E19.14542
G1 X149.566 Y143.853 E19.45809
G1 X148.410 Y146.218 E19.77077
G1 X146.599 Y148.129 E20.08345
G1 X144.301 Y149.413 E20.39613
G1 X141.250 Y149.964 E20.76432
G1 X78.750 Y149.964 E28.18714
G1 X76.147 Y149.566 E28.49982
G1 X73.782 Y148.410 E28.81250
G1 X71.871 Y146.599 E29.12518
G1 X70.587 Y144.301 E29.43785
G1 X70.036 Y141.250 E29.80604
G1 X70.036 Y78.750 E37.22887
G1 X70.434 Y76.147 E37.54154
G1 X71.590 Y73.782 E37.85422
G1 X73.359 Y71.915 E38.15977
G1 E36.15977 F2400.00000
G92 E0
G1 Z0.600 F7800.000
G1 X140.850 Y140.850 F7800.000
G1 Z0.400 F7800.000
G1 E2.00000 F2400.00000
G1 X140.350 Y140.850 E2.05938 F1200.000
G1 X140.350 Y140.350 E2.11877
G1 X140.850 Y140.350 E2.17815
G1 X140.850 Y140.790 E2.23040
G1 E0.23040 F2400.00000
G92 E0
G1 Z0.600 F7800.000
G1 X127.750 Y140.250 F7800.000
G1 X120.360 Y136.987 F7800.000
G1 X119.415 Y137.969 F7800.000
G1 X119.024 Y138.301 F7800.000
G1 X118.092 Y138.123 F7800.000
G1 X117.540 Y137.826 F7800.000
G1 Z0.400 F7800.000
G1 E2.00000 F2400.00000
G1 X117.465 Y138.117 E2.03577 F1200.000
G1 X117.385 Y138.288 E2.05817
G1 X117.207 Y138.532 E2.09395
G1 X117.070 Y138.661 E2.11637
G1 X116.816 Y138.822 E2.15212
G1 X116.640 Y138.892 E2.17453
G1 X116.332 Y138.951 E2.21183
G1 X116.019 Y138.931 E2.24909
G1 X115.836 Y138.884 E2.27151
G1 X115.563 Y138.756 E2.30728
G1 X115.421 Y138.652 E2.32818
G1 X115.293 Y138.532 E2.34910
G1 X115.108 Y138.278 E2.38639
G1 X114.988 Y137.974 E2.42518
G1 X114.948 Y137.663 E2.46246
G1 X114.960 Y137.474 E2.48487
G1 X115.035 Y137.183 E2.52063
G1 X115.115 Y137.012 E2.54304
G1 X115.293 Y136.768 E2.57882
G1 X115.430 Y136.639 E2.60123
G1 X115.684 Y136.478 E2.63699
G1 X115.860 Y136.408 E2.65940
G1 X116.168 Y136.349 E2.69669 F1200.000
G1 X116.481 Y136.369 E2.73396
G1 X116.664 Y136.416 E2.75638
G1 X116.937 Y136.544 E2.79215
G1 X117.079 Y136.648 E2.81305
G1 X117.207 Y136.768 E2.83397
G1 X117.392 Y137.022 E2.87126
G1 X117.512 Y137.326 E2.91005
G1 X117.552 Y137.637 E2.94733
G1 X117.544 Y137.766 E2.96261
G1 E0.96261 F2400.00000
G92 E0
G1 Z0.600 F7800.000
G1 X114.348 Y137.650 F7800.000
G1 X105.217 Y137.475 F7800.000
G1 X95.652 Y137.222 F7800.000
G1 X95.531 Y137.500 F7800.000
G1 X93.152 Y137.650 F7800.000
G1 X92.552 Y137.637 F7800.000
G1 Z0.400 F7800.000
G1 E2.00000 F2400.00000
G1 X92.540 Y137.826 E2.02241 F1200.000
G1 X92.465 Y138.117 E2.05817
G1 X92.385 Y138.288 E2.08058
G1 X92.207 Y138.532 E2.11636
G1 X92.070 Y138.661 E2.13877
G1 X91.816 Y138.822 E2.17453
G1 X91.640 Y138.892 E2.19694
G1 X91.332 Y138.951 E2.23423
G1 X91.019 Y138.931 E2.27150
G1 X90.836 Y138.884 E2.29392
G1 X90.563 Y138.756 E2.32968
G1 X90.421 Y138.652 E2.35059
G1 X90.293 Y138.532 E2.37151
G1 X90.108 Y138.278 E2.40879
G1 X89.988 Y137.974 E2.44759
G1 X89.948 Y137.663 E2.48487
G1 X89.960 Y137.474 E2.50728
G1 X90.035 Y137.183 E2.54304
G1 X90.115 Y137.012 E2.56545
G1 X90.293 Y136.768 E2.60123
G1 X90.430 Y136.639 E2.62364
G1 X90.684 Y136.478 E2.65940
G1 X90.860 Y136.408 E2.68181
G1 X91.168 Y136.349 E2.71910 F1200.000
G1 X91.481 Y136.369 E2.75637
G1 X91.664 Y136.416 E2.77879
G1 X91.937 Y136.544 E2.81455
G1 X92.207 Y136.768 E2.85629
G1 X92.392 Y137.022 E2.89358
G1 X92.512 Y137.326 E2.93238
G1 X92.544 Y137.578 E2.96253
G1 X90.662 Y135.841 F7800.000
G1 X87.359 Y136.786 F7800.000
G1 X83.677 Y137.238 F7800.000
G1 X82.525 Y122.683 F7800.000
G1 X83.410 Y119.889 F7800.000
G1 X83.735 Y119.426 F7800.000
G1 X83.160 Y117.971 F7800.000
G1 X82.905 Y117.429 F7800.000
G1 X82.606 Y117.526 E2.99982 F1200.000
G1 X82.419 Y117.550 E3.02223
G1 X82.118 Y117.531 E3.05801
G1 X81.936 Y117.484 E3.08042
G1 X81.663 Y117.356 E3.11616
G1 X81.393 Y117.132 E3.15790
G1 X81.208 Y116.878 E3.19518
G1 X81.088 Y116.574 E3.23398
G1 X81.047 Y116.250 E3.27277
G1 X81.086 Y115.939 E3.31006
G1 X81.215 Y115.612 E3.35178
G1 X81.393 Y115.368 E3.38756
G1 X81.530 Y115.239 E3.40997
G1 X81.795 Y115.071 E3.44725
G1 X82.094 Y114.974 E3.48454
G1 X82.281 Y114.950 E3.50694 F1200.000
G1 X82.582 Y114.969 E3.54272
G1 X82.764 Y115.016 E3.56513
G1 X83.037 Y115.144 E3.60088
G1 X83.307 Y115.368 E3.64262
G1 X83.492 Y115.622 E3.67990
G1 X83.612 Y115.926 E3.71870
G1 X83.652 Y116.237 E3.75598
G1 X83.640 Y116.426 E3.77839
G1 X83.565 Y116.717 E3.81416
G1 X83.485 Y116.888 E3.83657
G1 X83.307 Y117.132 E3.87234
G1 X83.170 Y117.261 E3.89475
G1 X82.956 Y117.397 E3.92490
G1 E1.92490 F2400.00000
G92 E0
G1 Z0.600 F7800.000
G1 X82.469 Y114.352 F7800.000
G1 X82.525 Y105.217 F7800.000
G1 X83.025 Y97.150 F7800.000
G1 X82.783 Y95.645 F7800.000
G1 X82.469 Y93.148 F7800.000
G1 X82.432 Y92.551 F7800.000
G1 Z0.400 F7800.000
G1 E2.00000 F2400.00000
G1 X82.119 Y92.531 E2.03728 F1200.000
G1 X81.936 Y92.484 E2.05969
G1 X81.663 Y92.356 E2.09546
G1 X81.521 Y92.252 E2.11636
G1 X81.393 Y92.132 E2.13727
G1 X81.208 Y91.878 E2.17456
G1 X81.088 Y91.574 E2.21336
G1 X81.047 Y91.250 E2.25215
G1 X81.086 Y90.939 E2.28943
G1 X81.215 Y90.612 E2.33116
G1 X81.393 Y90.368 E2.36693
G1 X81.530 Y90.239 E2.38934
G1 X81.784 Y90.078 E2.42510
G1 X81.960 Y90.008 E2.44751
G1 X82.268 Y89.949 E2.48480 F1200.000
G1 X82.581 Y89.969 E2.52208
G1 X82.764 Y90.016 E2.54449
G1 X83.037 Y90.144 E2.58027
G1 X83.307 Y90.368 E2.62199
G1 X83.492 Y90.622 E2.65928
G1 X83.612 Y90.926 E2.69808
G1 X83.652 Y91.237 E2.73536
G1 X83.640 Y91.426 E2.75776
G1 X83.565 Y91.717 E2.79353
G1 X83.485 Y91.888 E2.81594
G1 X83.307 Y92.132 E2.85172
G1 X83.170 Y92.261 E2.87413
G1 X82.916 Y92.422 E2.90988
G1 X82.740 Y92.492 E2.93229
G1 X82.491 Y92.539 E2.96246
G1 E0.96246 F2400.00000
G92 E0
G1 Z0.600 F7800.000
G1 X83.562 Y89.784 F7800.000
G1 X83.737 Y88.076 F7800.000
G1 X83.025 Y87.129 F7800.000
G1 X82.726 Y85.300 F7800.000
G1 X85.300 Y85.300 F7800.000
G1 X85.900 Y85.900 F7800.000
G1 Z0.400 F7800.000
G1 E2.00000 F2400.00000
G1 X134.100 Y85.900 E7.72448 F1200.000
G1 X134.100 Y134.100 E13.44896
G1 X85.900 Y134.100 E19.17344
G1 X85.900 Y85.960 E24.89080
G1 X90.115 Y82.988 F7800.000
G1 X90.035 Y82.817 E24.91320 F1200.000
G1 X89.960 Y82.526 E24.94897
G1 X89.960 Y82.174 E24.99070
G1 X90.035 Y81.883 E25.02647
G1 X90.115 Y81.712 E25.04887
G1 X90.293 Y81.468 E25.08465
G1 X90.430 Y81.339 E25.10706
G1 X90.684 Y81.178 E25.14283
G1 X90.860 Y81.108 E25.16524
G1 X91.168 Y81.049 E25.20252 F1200.000
G1 X91.481 Y81.069 E25.23980
G1 X91.652 Y81.113 E25.26070
G1 X91.816 Y81.178 E25.28161
G1 X92.070 Y81.339 E25.31738
G1 X92.207 Y81.468 E25.33979
G1 X92.392 Y81.722 E25.37708
G1 X92.512 Y82.025 E25.41571
G1 X92.552 Y82.328 E25.45207
G1 X92.540 Y82.526 E25.47558
G1 X92.465 Y82.817 E25.51135
G1 X92.385 Y82.988 E25.53375
G1 X92.207 Y83.232 E25.56953
G1 X92.070 Y83.361 E25.59194
G1 X91.816 Y83.522 E25.62771
G1 X91.640 Y83.592 E25.65012
G1 X91.332 Y83.651 E25.68740
G1 X91.006 Y83.630 E25.72619
G1 X90.695 Y83.529 E25.76499
G1 X90.430 Y83.361 E25.80228
G1 X90.293 Y83.232 E25.82468
G1 X90.151 Y83.037 E25.85334
G1 E23.85334 F2400.00000
G92 E0
G1 Z0.600 F7800.000
G1 X93.137 Y82.588 F7800.000
G1 X102.283 Y82.525 F7800.000
G1 X111.848 Y82.778 F7800.000
G1 X111.969 Y82.500 F7800.000
G1 X114.348 Y82.350 F7800.000
G1 X114.949 Y82.350 F7800.000
G1 Z0.400 F7800.000
G1 E2.00000 F2400.00000
G1 X114.960 Y82.174 E2.02090 F1200.000
G1 X115.035 Y81.883 E2.05667
G1 X115.115 Y81.712 E2.07908
G1 X115.293 Y81.468 E2.11486
G1 X115.430 Y81.339 E2.13726
G1 X115.684 Y81.178 E2.17304
G1 X115.860 Y81.108 E2.19544
G1 X116.168 Y81.049 E2.23273 F1200.000
G1 X116.481 Y81.069 E2.27001
G1 X116.652 Y81.113 E2.29091
G1 X116.816 Y81.178 E2.31182
G1 X117.070 Y81.339 E2.34759
G1 X117.207 Y81.468 E2.37000
G1 X117.392 Y81.722 E2.40729
G1 X117.512 Y82.025 E2.44592
G1 X117.552 Y82.328 E2.48227
G1 X117.540 Y82.526 E2.50578
G1 X117.465 Y82.817 E2.54155
G1 X117.385 Y82.988 E2.56396
G1 X117.207 Y83.232 E2.59974
G1 X117.070 Y83.361 E2.62214
G1 X116.816 Y83.522 E2.65792
G1 X116.640 Y83.592 E2.68032
G1 X116.332 Y83.651 E2.71761
G1 X116.006 Y83.630 E2.75640
G1 X115.695 Y83.529 E2.79520
G1 X115.430 Y83.361 E2.83248
G1 X115.293 Y83.232 E2.85489
G1 X115.115 Y82.988 E2.89067
G1 X115.035 Y82.817 E2.91308
G1 X114.960 Y82.526 E2.94884
G1 X114.953 Y82.410 E2.96262
G1 E0.96262 F2400.00000
G92 E0
G1 Z0.600 F7800.000
G1 X118.018 Y83.050 F7800.000
G1 X125.617 Y82.525 F7800.000
G1 X137.453 Y84.807 F7800.000
G1 X135.917 Y88.659 F7800.000
G1 X135.497 Y89.624 F7800.000
G1 X135.374 Y90.047 F7800.000
G1 X135.320 Y90.286 F7800.000
G1 X135.881 Y90.550 F7800.000
G1 X136.435 Y90.783 F7800.000
G1 Z0.400 F7800.000
G1 E2.00000 F2400.00000
G1 X136.515 Y90.612 E2.02241 F1200.000
G1 X136.693 Y90.368 E2.05818
G1 X136.830 Y90.239 E2.08060
G1 X137.084 Y90.078 E2.11636
G1 X137.260 Y90.008 E2.13877
G1 X137.568 Y89.949 E2.17606 F1200.000
G1 X137.881 Y89.969 E2.21333
G1 X138.064 Y90.016 E2.23575
G1 X138.337 Y90.144 E2.27151
G1 X138.479 Y90.248 E2.29242
G1 X138.607 Y90.368 E2.31334
G1 X138.792 Y90.622 E2.35062
G1 X138.912 Y90.926 E2.38942
G1 X138.952 Y91.237 E2.42670
G1 X138.940 Y91.426 E2.44910
G1 X138.865 Y91.717 E2.48487
G1 X138.785 Y91.888 E2.50728
G1 X138.607 Y92.132 E2.54305
G1 X138.470 Y92.261 E2.56547
G1 X138.216 Y92.422 E2.60123
G1 X138.040 Y92.492 E2.62364
G1 X137.732 Y92.551 E2.66093
G1 X137.419 Y92.531 E2.69820
G1 X137.236 Y92.484 E2.72062
G1 X136.963 Y92.356 E2.75638
G1 X136.693 Y92.132 E2.79812
G1 X136.508 Y91.878 E2.83541
G1 X136.388 Y91.574 E2.87420
G1 X136.348 Y91.263 E2.91148
G1 X136.360 Y91.074 E2.93389
G1 X136.420 Y90.841 E2.96253
G1 X137.581 Y114.950 F7800.000
G1 X137.882 Y114.969 E2.99830 F1200.000
G1 X138.052 Y115.013 E3.01921
G1 X138.216 Y115.078 E3.04009
G1 X138.470 Y115.239 E3.07587
G1 X138.607 Y115.368 E3.09828
G1 X138.792 Y115.622 E3.13557
G1 X138.912 Y115.926 E3.17437
G1 X138.952 Y116.237 E3.21164
G1 X138.940 Y116.426 E3.23405
G1 X138.865 Y116.717 E3.26982
G1 X138.785 Y116.888 E3.29222
G1 X138.607 Y117.132 E3.32800
G1 X138.470 Y117.261 E3.35042
G1 X138.205 Y117.429 E3.38770
G1 X137.906 Y117.526 E3.42499
G1 X137.719 Y117.550 E3.44739
G1 X137.418 Y117.531 E3.48317
G1 X137.248 Y117.487 E3.50408
G1 X137.084 Y117.422 E3.52496
G1 X136.830 Y117.261 E3.56073
G1 X136.693 Y117.132 E3.58315
G1 X136.508 Y116.878 E3.62044
G1 X136.388 Y116.574 E3.65923
G1 X136.348 Y116.263 E3.69651
G1 X136.360 Y116.074 E3.71892
G1 X136.435 Y115.783 E3.75468
G1 X136.515 Y115.612 E3.77709
G1 X136.693 Y115.368 E3.81287
G1 X136.830 Y115.239 E3.83528
G1 X137.095 Y115.071 E3.87256
G1 X137.394 Y114.974 E3.90986
G1 X137.521 Y114.958 E3.92513 F1200.000
G1 E1.92513 F2400.00000
G92 E0
G1 Z0.600 F7800.000
G1 X138.862 Y117.716 F7800.000
G1 X139.061 Y117.990 F7800.000
G1 X138.988 Y118.057 F7800.000
G1 X139.250 Y118.288 F7800.000
G1 X139.850 Y119.950 F7800.000
G1 Z0.400 F7800.000
G1 E2.00000 F2400.00000
G1 X140.850 Y119.950 E2.11877 F1200.000
G1 X140.850 Y128.350 E3.11639
G1 X139.850 Y128.350 E3.23516
G1 X139.850 Y130.150 E3.44894
G1 X140.850 Y130.150 E3.56770
G1 X140.850 Y138.550 E4.56533
G1 X139.850 Y138.550 E4.68409
G1 X139.850 Y139.850 E4.83849
G1 X138.550 Y139.850 E4.99288
G1 X138.550 Y140.850 E5.11165
G1 X130.150 Y140.850 E6.10928
G1 X130.150 Y139.850 E6.22804
G1 X128.350 Y139.850 E6.44182
G1 X128.350 Y140.850 E6.56058
G1 X119.950 Y140.850 E7.55821
G1 X119.950 Y139.850 E7.67698
G1 X118.522 Y139.850 E7.84657
G1 X118.150 Y140.158 E7.90395
G1 X118.150 Y140.850 E7.98610
G1 X109.750 Y140.850 E8.98373
G1 X109.750 Y139.850 E9.10250
G1 X107.950 Y139.850 E9.31627
G1 X107.950 Y140.850 E9.43504
G1 X99.550 Y140.850 E10.43267
G1 X99.550 Y139.850 E10.55143
G1 X97.750 Y139.850 E10.76521
G1 X97.750 Y140.850 E10.88397
G1 X89.350 Y140.850 E11.88160
G1 X89.350 Y140.158 E11.96375
G1 X88.978 Y139.850 E12.02113
G1 X87.550 Y139.850 E12.19073
G1 X87.550 Y140.850 E12.30950
G1 X79.150 Y140.850 E13.30712
G1 X79.150 Y140.350 E13.36651
G1 X80.150 Y140.350 E13.48527
G1 X80.150 Y138.550 E13.69905
G1 X79.150 Y138.550 E13.81781
G1 X79.150 Y130.150 E14.81544
G1 X80.150 Y130.150 E14.93421
G1 X80.150 Y128.350 E15.14798
G1 X79.150 Y128.350 E15.26675
G1 X79.150 Y119.950 E16.26438
G1 X80.150 Y119.950 E16.38314
G1 X80.150 Y118.522 E16.55273
G1 X79.842 Y118.150 E16.61011
G1 X79.150 Y118.150 E16.69227
G1 X79.150 Y109.750 E17.68990
G1 X80.150 Y109.750 E17.80867
G1 X80.150 Y107.950 E18.02244
G1 X79.150 Y107.950 E18.14121
G1 X79.150 Y99.550 E19.13884
G1 X80.150 Y99.550 E19.25760
G1 X80.150 Y97.750 E19.47138
G1 X79.150 Y97.750 E19.59014
G1 X79.150 Y89.350 E20.58777
G1 X79.842 Y89.350 E20.66994
G1 X80.150 Y88.978 E20.72731
G1 X80.150 Y87.550 E20.89690
G1 X79.150 Y87.550 E21.01567
G1 X79.150 Y79.150 E22.01330
G1 X87.550 Y79.150 E23.01092
G1 X87.550 Y80.150 E23.12969
G1 X88.978 Y80.150 E23.29928
G1 X89.350 Y79.842 E23.35666
G1 X89.350 Y79.150 E23.43882
G1 X97.750 Y79.150 E24.43645
G1 X97.750 Y80.150 E24.55521
G1 X99.550 Y80.150 E24.76899
G1 X99.550 Y79.150 E24.88775
G1 X107.950 Y79.150 E25.88538
G1 X107.950 Y80.150 E26.00415
G1 X109.750 Y80.150 E26.21792
G1 X109.750 Y79.150 E26.33669
G1 X118.150 Y79.150 E27.33432
G1 X118.150 Y79.842 E27.41648
G1 X118.522 Y80.150 E27.47386
G1 X119.950 Y80.150 E27.64345
G1 X119.950 Y79.150 E27.76221
G1 X128.350 Y79.150 E28.75984
G1 X128.350 Y80.150 E28.87861
G1 X130.150 Y80.150 E29.09238
G1 X130.150 Y79.150 E29.21115
G1 X138.550 Y79.150 E30.20878
G1 X138.550 Y80.150 E30.32754
G1 X140.350 Y80.150 E30.54132
G1 X140.350 Y79.150 E30.66008
G1 X140.850 Y79.150 E30.71947
G1 X140.850 Y87.550 E31.71709
G1 X139.850 Y87.550 E31.83586
G1 X139.850 Y88.978 E32.00546
G1 X140.158 Y89.350 E32.06284
G1 X140.850 Y89.350 E32.14499
G1 X140.850 Y97.750 E33.14262
G1 X139.850 Y97.750 E33.26138
G1 X139.850 Y99.550 E33.47516
G1 X140.850 Y99.550 E33.59392
G1 X140.850 Y107.950 E34.59155
G1 X139.850 Y107.950 E34.71032
G1 X139.850 Y109.750 E34.92409
G1 X140.850 Y109.750 E35.04286
G1 X140.850 Y118.150 E36.04049
G1 X140.158 Y118.150 E36.12264
G1 X139.850 Y118.522 E36.18002
G1 X139.850 Y119.890 E36.34249
G1 X137.791 Y117.962 F7800.000
G1 X139.414 Y119.586 E36.61711 F1191.880
G1 X139.414 Y118.569 E36.73870
G1 X138.521 Y117.676 E36.88972
G1 X139.039 Y117.177 E36.97571
G1 X139.827 Y117.964 E37.10893
G1 X140.414 Y117.535 E37.19595
G1 X139.345 Y116.466 E37.37679
G1 X137.196 Y92.963 F7800.000
G1 X140.414 Y96.181 E37.92099 F1191.880
G1 X140.414 Y95.164 E38.04258
G1 X138.127 Y92.877 E38.42936
G1 X138.764 Y92.497 E38.51801
G1 X140.414 Y94.148 E38.79718
G1 X140.414 Y93.131 E38.91877
G1 X139.198 Y91.914 E39.12446
G1 X139.388 Y91.088 E39.22591
G1 X140.414 Y92.114 E39.39946
G1 X140.414 Y91.097 E39.52105
G1 X134.536 Y85.218 E40.51521
G1 X133.765 Y85.464 E40.61193
G1 X128.886 Y80.586 E41.43698
G1 X129.903 Y80.586 E41.55857
G1 X134.782 Y85.464 E42.38362
G1 X134.536 Y86.235 E42.48034
G1 X137.820 Y89.519 E43.03569
G1 X139.414 Y89.080 F7800.000
G1 X130.586 Y80.251 E44.52870 F1191.880
G1 X130.937 Y79.586 E44.61870
G1 X139.414 Y88.063 E46.05233
G1 X139.482 Y87.114 E46.16608
G1 X131.954 Y79.586 E47.43926
G1 X132.970 Y79.586 E47.56085
G1 X140.414 Y87.030 E48.81967
G1 X140.414 Y86.013 E48.94126
G1 X133.987 Y79.586 E50.02814
G1 X135.004 Y79.586 E50.14973
G1 X140.414 Y84.996 E51.06465
G1 X140.414 Y83.979 E51.18624
G1 X136.021 Y79.586 E51.92920
G1 X137.038 Y79.586 E52.05079
G1 X140.414 Y82.962 E52.62181
G1 X140.414 Y81.945 E52.74340
G1 X139.055 Y80.586 E52.97335
G1 X140.071 Y80.586 E53.09494
