; generated by Slic3r 1.2.9 on 2017-01-27 at 18:05:33

; external perimeters extrusion width = 0.40mm
; perimeters extrusion width = 0.67mm
; infill extrusion width = 0.67mm
; solid infill extrusion width = 0.67mm
; top infill extrusion width = 0.67mm

M190 S60 ; set bed temperature
M104 S210 ; set temperature
G28 ; home all axes
G1 Z5 F5000 ; lift nozzle

M109 S210 ; wait for temperature to be reached
G21 ; set units to millimeters
G90 ; use absolute coordinates
M82 ; use absolute distances for extrusion
G92 E0
M106 S255
G1 E-2.00000 F2400.00000
G92 E0
G1 Z1.000 F7800.000
G1 X63.851 Y77.721 F7800.000
G1 Z0.400 F7800.000
G1 E2.00000 F2400.00000
G1 X66.149 Y76.437 E2.31268 F1080.000
G1 X69.200 Y75.886 E2.68087
G1 X170.800 Y75.886 E14.74741
G1 X173.403 Y76.284 E15.06009
G1 X175.768 Y77.440 E15.37277 F1080.000
G1 X177.679 Y79.251 E15.68544
G1 X178.963 Y81.549 E15.99812
G1 X179.514 Y84.600 E16.36631
G1 X179.514 Y135.400 E22.39958
G1 X179.116 Y138.003 E22.71226
G1 X177.960 Y140.368 E23.02494
G1 X176.149 Y142.279 E23.33762
G1 X173.851 Y143.563 E23.65029
G1 X170.800 Y144.114 E24.01848
G1 X69.200 Y144.114 E36.08503
G1 X66.597 Y143.716 E36.39770
G1 X64.232 Y142.560 E36.71038
G1 X62.321 Y140.749 E37.02306
G1 X61.037 Y138.451 E37.33574
G1 X60.486 Y135.400 E37.70393
G1 X60.486 Y84.600 E43.73720
G1 X60.884 Y81.997 E44.04988
G1 X62.040 Y79.632 E44.36255
G1 X63.809 Y77.765 E44.66811
G1 E42.66811 F2400.00000
G92 E0
G1 Z1.400 F7800.000
G1 X165.078 Y129.678 F7800.000
G1 Z0.400 F7800.000
G1 E2.00000 F2400.00000
G1 X74.922 Y129.678 E12.70747 F540.000
G1 X74.922 Y90.322 E17.38167
G1 X165.078 Y90.322 E28.08914
G1 X165.078 Y129.618 E32.75621
G1 X164.364 Y128.964 F7800.000
G1 X75.636 Y128.964 E43.29404 F540.000
G1 X75.636 Y91.036 E47.79860
G1 X164.364 Y91.036 E58.33644
G1 X164.364 Y128.904 E62.83388
G1 X163.650 Y128.250 F7800.000
G1 X76.350 Y128.250 E73.20208 F378.000
G1 X76.350 Y91.750 E77.53700
G1 X163.650 Y91.750 E87.90520
G1 X163.650 Y128.190 E92.23301
G1 X163.650 Y128.650 F7800.000
G1 X162.828 Y132.572 F7800.000
G1 X158.172 Y132.572 E92.78605 F540.000
G1 X158.172 Y133.572 E92.90482
G1 X132.228 Y133.572 E95.98599
G1 X132.228 Y132.572 E96.10475
G1 X127.572 Y132.572 E96.65780
G1 X127.572 Y133.572 E96.77656
G1 X122.028 Y133.572 E97.43492
G1 X122.028 Y132.572 E97.55369
G1 X117.372 Y132.572 E98.10673
G1 X117.372 Y133.572 E98.22550
G1 X111.828 Y133.572 E98.88386
G1 X111.828 Y132.572 E99.00262
G1 X107.172 Y132.572 E99.55567
G1 X107.172 Y133.572 E99.67443
G1 X81.228 Y133.572 E102.75560
G1 X81.228 Y132.572 E102.87437
G1 X76.572 Y132.572 E103.42741
G1 X76.572 Y133.572 E103.54618
G1 X71.028 Y133.572 E104.20454
G1 X71.028 Y127.228 E104.95791
G1 X72.028 Y127.228 E105.07667
G1 X72.028 Y122.572 E105.62972
G1 X71.028 Y122.572 E105.74848
G1 X71.028 Y96.628 E108.82965
G1 X72.028 Y96.628 E108.94842
G1 X72.028 Y91.972 E109.50146
G1 X71.028 Y91.972 E109.62023
G1 X71.028 Y86.428 E110.27859
G1 X76.572 Y86.428 E110.93695
G1 X76.572 Y87.428 E111.05571
G1 X81.228 Y87.428 E111.60876
G1 X81.228 Y86.428 E111.72752
G1 X107.172 Y86.428 E114.80869
G1 X107.172 Y87.428 E114.92746
G1 X111.828 Y87.428 E115.48050
G1 X111.828 Y86.428 E115.59927
G1 X117.372 Y86.428 E116.25763
G1 X117.372 Y87.428 E116.37639
G1 X122.028 Y87.428 E116.92944
G1 X122.028 Y86.428 E117.04820
G1 X127.572 Y86.428 E117.70656
G1 X127.572 Y87.428 E117.82533
G1 X132.228 Y87.428 E118.37837
G1 X132.228 Y86.428 E118.49714
G1 X158.172 Y86.428 E121.57831
G1 X158.172 Y87.428 E121.69707
G1 X162.828 Y87.428 E122.25012
G1 X162.828 Y86.428 E122.36888
G1 X168.972 Y86.428 E123.09850
G1 X168.972 Y91.972 E123.75686
G1 X167.972 Y91.972 E123.87562
G1 X167.972 Y96.628 E124.42867
G1 X168.972 Y96.628 E124.54744
G1 X168.972 Y122.572 E127.62860
G1 X167.972 Y122.572 E127.74737
G1 X167.972 Y127.228 E128.30042
G1 X168.972 Y127.228 E128.41918
G1 X168.972 Y133.572 E129.17255
G1 X162.828 Y133.572 E129.90217
G1 X162.828 Y132.632 E130.01381
G1 X162.114 Y133.286 F7800.000
G1 X158.886 Y133.286 E130.39722 F540.000
G1 X158.886 Y134.286 E130.51599
G1 X131.514 Y134.286 E133.76679
G1 X131.514 Y133.286 E133.88555
G1 X128.286 Y133.286 E134.26897
G1 X128.286 Y134.286 E134.38773
G1 X121.314 Y134.286 E135.21572
G1 X121.314 Y133.286 E135.33449
G1 X118.086 Y133.286 E135.71790
G1 X118.086 Y134.286 E135.83667
G1 X111.114 Y134.286 E136.66466
G1 X111.114 Y133.286 E136.78342
G1 X107.886 Y133.286 E137.16684
G1 X107.886 Y134.286 E137.28560
G1 X80.514 Y134.286 E140.53640
G1 X80.514 Y133.286 E140.65517
G1 X77.286 Y133.286 E141.03858
G1 X77.286 Y134.286 E141.15735
G1 X70.314 Y134.286 E141.98534
G1 X70.314 Y126.514 E142.90834
G1 X71.314 Y126.514 E143.02711
G1 X71.314 Y123.286 E143.41052
G1 X70.314 Y123.286 E143.52929
G1 X70.314 Y95.914 E146.78009
G1 X71.314 Y95.914 E146.89885
G1 X71.314 Y92.686 E147.28227
G1 X70.314 Y92.686 E147.40103
G1 X70.314 Y85.714 E148.22902
G1 X77.286 Y85.714 E149.05702
G1 X77.286 Y86.714 E149.17578
G1 X80.514 Y86.714 E149.55919
G1 X80.514 Y85.714 E149.67796
G1 X107.886 Y85.714 E152.92876
G1 X107.886 Y86.714 E153.04753
G1 X111.114 Y86.714 E153.43094
G1 X111.114 Y85.714 E153.54970
G1 X118.086 Y85.714 E154.37770
G1 X118.086 Y86.714 E154.49646
G1 X121.314 Y86.714 E154.87987
G1 X121.314 Y85.714 E154.99864
G1 X128.286 Y85.714 E155.82663
G1 X128.286 Y86.714 E155.94540
G1 X131.514 Y86.714 E156.32881
G1 X131.514 Y85.714 E156.44757
G1 X158.886 Y85.714 E159.69838
G1 X158.886 Y86.714 E159.81714
G1 X162.114 Y86.714 E160.20055
G1 X162.114 Y85.714 E160.31932
G1 X169.686 Y85.714 E161.21857
G1 X169.686 Y92.686 E162.04656
G1 X168.686 Y92.686 E162.16533
G1 X168.686 Y95.914 E162.54874
G1 X169.686 Y95.914 E162.66751
G1 X169.686 Y123.286 E165.91831
G1 X168.686 Y123.286 E166.03707
G1 X168.686 Y126.514 E166.42049
G1 X169.686 Y126.514 E166.53925
G1 X169.686 Y134.286 E167.46226
G1 X162.114 Y134.286 E168.36151
G1 X162.114 Y133.346 E168.47315
G1 X161.400 Y134.000 F7800.000
G1 X159.600 Y134.000 E168.68692 F378.000
G1 X159.600 Y135.000 E168.80569
G1 X130.800 Y135.000 E172.22613
G1 X130.800 Y134.000 E172.34489
G1 X129.000 Y134.000 E172.55867
G1 X129.000 Y135.000 E172.67743
G1 X120.600 Y135.000 E173.67506
G1 X120.600 Y134.000 E173.79383
G1 X118.800 Y134.000 E174.00760
G1 X118.800 Y135.000 E174.12637
G1 X110.400 Y135.000 E175.12400
G1 X110.400 Y134.000 E175.24276
G1 X108.600 Y134.000 E175.45654
G1 X108.600 Y135.000 E175.57530
G1 X79.800 Y135.000 E178.99574
G1 X79.800 Y134.000 E179.11451
G1 X78.000 Y134.000 E179.32828
G1 X78.000 Y135.000 E179.44705
G1 X69.600 Y135.000 E180.44468
G1 X69.600 Y125.800 E181.53732
G1 X70.600 Y125.800 E181.65608
G1 X70.600 Y124.000 E181.86986
G1 X69.600 Y124.000 E181.98862
G1 X69.600 Y95.200 E185.40906
G1 X70.600 Y95.200 E185.52783
G1 X70.600 Y93.400 E185.74160
G1 X69.600 Y93.400 E185.86037
G1 X69.600 Y85.000 E186.85800
G1 X78.000 Y85.000 E187.85562
G1 X78.000 Y86.000 E187.97439
G1 X79.800 Y86.000 E188.18817
G1 X79.800 Y85.000 E188.30693
G1 X108.600 Y85.000 E191.72737
G1 X108.600 Y86.000 E191.84613
G1 X110.400 Y86.000 E192.05991
G1 X110.400 Y85.000 E192.17868
G1 X118.800 Y85.000 E193.17630
G1 X118.800 Y86.000 E193.29507
G1 X120.600 Y86.000 E193.50885
G1 X120.600 Y85.000 E193.62761
G1 X129.000 Y85.000 E194.62524
G1 X129.000 Y86.000 E194.74400
G1 X130.800 Y86.000 E194.95778
G1 X130.800 Y85.000 E195.07655
G1 X159.600 Y85.000 E198.49698
G1 X159.600 Y86.000 E198.61575
G1 X161.400 Y86.000 E198.82953
G1 X161.400 Y85.000 E198.94829
G1 X170.400 Y85.000 E200.01718
G1 X170.400 Y93.400 E201.01481
G1 X169.400 Y93.400 E201.13357
G1 X169.400 Y95.200 E201.34735
G1 X170.400 Y95.200 E201.46611
G1 X170.400 Y124.000 E204.88655
G1 X169.400 Y124.000 E205.00532
G1 X169.400 Y125.800 E205.21909
G1 X170.400 Y125.800 E205.33786
G1 X170.400 Y135.000 E206.43050
G1 X161.400 Y135.000 E207.49938
G1 X161.400 Y134.060 E207.61102
G1 X161.400 Y133.600 F7800.000
G1 X163.264 Y132.523 F7800.000
G1 X163.877 Y133.136 E207.71424 F1080.000
G1 X164.889 Y133.136 E207.83462
G1 X161.867 Y130.114 E208.34315
G1 X162.878 Y130.114 E208.46352
G1 X165.901 Y133.136 E208.97205
G1 X166.913 Y133.136 E209.09243
G1 X163.890 Y130.114 E209.60095
G1 X164.902 Y130.114 E209.72133
G1 X167.924 Y133.136 E210.22986
G1 X168.536 Y132.736 E210.31682
G1 X165.514 Y129.714 E210.82535
G1 X165.514 Y128.702 E210.94572
G1 X168.536 Y131.724 E211.45425
G1 X168.536 Y130.713 E211.57463
G1 X165.514 Y127.690 E212.08315
G1 X165.514 Y126.679 E212.20353
G1 X168.536 Y129.701 E212.71206
G1 X168.536 Y128.689 E212.83243
G1 X165.514 Y125.667 E213.34096
G1 X165.514 Y124.655 E213.46134
G1 X167.536 Y126.677 E213.80161
G1 X167.536 Y125.666 E213.92198
G1 X165.514 Y123.643 E214.26225
G1 X165.514 Y122.632 E214.38263
G1 X167.536 Y124.654 E214.72290
G1 X167.536 Y123.642 E214.84327
G1 X165.514 Y121.620 E215.18354
G1 X165.514 Y120.608 E215.30392
G1 X167.536 Y122.630 E215.64419
G1 X168.054 Y122.136 F7800.000
G1 X165.514 Y119.596 E216.07155 F1080.000
G1 X165.514 Y118.584 E216.19193
G1 X168.536 Y121.607 E216.70045
G1 X168.536 Y120.595 E216.82083
G1 X165.514 Y117.573 E217.32936
G1 X165.514 Y116.561 E217.44973
G1 X168.536 Y119.583 E217.95826
G1 X168.536 Y118.572 E218.07864
G1 X165.514 Y115.549 E218.58716
G1 X165.514 Y114.537 E218.70754
G1 X168.536 Y117.560 E219.21607
G1 X168.536 Y116.548 E219.33644
G1 X165.514 Y113.526 E219.84497
G1 X165.514 Y112.514 E219.96534
G1 X168.536 Y115.536 E220.47387
G1 X168.536 Y114.524 E220.59425
G1 X165.514 Y111.502 E221.10278
G1 X165.514 Y110.490 E221.22315
G1 X168.536 Y113.513 E221.73168
G1 X168.536 Y112.501 E221.85205
G1 X165.514 Y109.479 E222.36058
G1 X165.514 Y108.467 E222.48096
G1 X168.536 Y111.489 E222.98949
G1 X168.536 Y110.477 E223.10986
G1 X165.514 Y107.455 E223.61839
G1 X165.514 Y106.443 E223.73876
G1 X168.536 Y109.466 E224.24729
G1 X168.536 Y108.454 E224.36767
G1 X165.514 Y105.432 E224.87619
G1 X165.514 Y104.420 E224.99657
G1 X168.536 Y107.442 E225.50510
G1 X168.536 Y106.430 E225.62547
G1 X165.514 Y103.408 E226.13400
G1 X165.514 Y102.396 E226.25438
G1 X168.536 Y105.419 E226.76290
G1 X168.536 Y104.407 E226.88328
G1 X165.514 Y101.384 E227.39181
G1 X165.514 Y100.373 E227.51218
G1 X168.536 Y103.395 E228.02071
G1 X168.536 Y102.383 E228.14108
G1 X165.514 Y99.361 E228.64961
G1 X165.514 Y98.349 E228.76999
G1 X168.536 Y101.372 E229.27852
G1 X168.536 Y100.360 E229.39889
G1 X165.514 Y97.337 E229.90742
G1 X165.514 Y96.326 E230.02779
G1 X168.536 Y99.348 E230.53632
G1 X168.536 Y98.336 E230.65670
G1 X165.514 Y95.314 E231.16522
G1 X165.514 Y94.302 E231.28560
G1 X167.536 Y96.324 E231.62587
G1 X167.536 Y95.313 E231.74625
G1 X165.514 Y93.290 E232.08652
G1 X165.514 Y92.279 E232.20689
G1 X167.536 Y94.301 E232.54716
G1 X167.536 Y93.289 E232.66754
G1 X165.514 Y91.267 E233.00781
G1 X167.536 Y92.277 F7800.000
G1 X163.123 Y87.864 E233.75042 F1080.000
G1 X162.111 Y87.864 E233.87080
G1 X164.133 Y89.886 E234.21107
G1 X163.121 Y89.886 E234.33145
G1 X161.099 Y87.864 E234.67172
G1 X160.087 Y87.864 E234.79209
G1 X162.110 Y89.886 E235.13236
G1 X161.098 Y89.886 E235.25274
G1 X159.076 Y87.864 E235.59301
G1 X158.064 Y87.864 E235.71338
G1 X160.086 Y89.886 E236.05365
G1 X159.074 Y89.886 E236.17403
G1 X156.052 Y86.864 E236.68256
G1 X157.064 Y86.864 E236.80293
G1 X157.736 Y87.536 E236.91607
G1 X158.063 Y89.886 F7800.000
G1 X155.040 Y86.864 E237.42460 F1080.000
G1 X154.028 Y86.864 E237.54497
G1 X157.051 Y89.886 E238.05350
G1 X156.039 Y89.886 E238.17387
G1 X153.017 Y86.864 E238.68240
G1 X152.005 Y86.864 E238.80278
G1 X155.027 Y89.886 E239.31131
G1 X154.016 Y89.886 E239.43168
G1 X150.993 Y86.864 E239.94021
G1 X149.981 Y86.864 E240.06058
G1 X153.004 Y89.886 E240.56911
G1 X151.992 Y89.886 E240.68949
G1 X148.970 Y86.864 E241.19801
G1 X147.958 Y86.864 E241.31839
G1 X150.980 Y89.886 E241.82692
G1 X149.968 Y89.886 E241.94729
G1 X146.946 Y86.864 E242.45582
G1 X145.934 Y86.864 E242.57620
G1 X148.957 Y89.886 E243.08472
G1 X147.945 Y89.886 E243.20510
G1 X144.923 Y86.864 E243.71363
G1 X143.911 Y86.864 E243.83400
G1 X146.933 Y89.886 E244.34253
G1 X145.921 Y89.886 E244.46291
G1 X142.899 Y86.864 E244.97143
G1 X141.887 Y86.864 E245.09181
G1 X144.910 Y89.886 E245.60034
G1 X143.898 Y89.886 E245.72071
G1 X140.876 Y86.864 E246.22924
G1 X139.864 Y86.864 E246.34962
G1 X142.886 Y89.886 E246.85814
G1 X141.874 Y89.886 E246.97852
G1 X138.852 Y86.864 E247.48705
G1 X137.840 Y86.864 E247.60742
G1 X140.863 Y89.886 E248.11595
G1 X139.851 Y89.886 E248.23633
G1 X136.828 Y86.864 E248.74485
G1 X135.817 Y86.864 E248.86523
G1 X138.839 Y89.886 E249.37376
G1 X137.827 Y89.886 E249.49413
G1 X134.805 Y86.864 E250.00266
G1 X133.793 Y86.864 E250.12304
G1 X136.816 Y89.886 E250.63156
G1 X135.804 Y89.886 E250.75194
G1 X132.781 Y86.864 E251.26047
G1 X132.664 Y87.758 E251.36777
G1 X134.792 Y89.886 E251.72584
G1 X133.780 Y89.886 E251.84622
G1 X131.758 Y87.864 E252.18649
G1 X130.746 Y87.864 E252.30687
G1 X132.768 Y89.886 E252.64714
G1 X131.757 Y89.886 E252.76751
G1 X129.734 Y87.864 E253.10778
G1 X128.723 Y87.864 E253.22816
G1 X130.745 Y89.886 E253.56843
G1 X129.733 Y89.886 E253.68880
G1 X127.711 Y87.864 E254.02908
G1 X127.136 Y87.289 F7800.000
G1 X126.711 Y86.864 E254.10064 F1080.000
G1 X125.699 Y86.864 E254.22101
G1 X128.721 Y89.886 E254.72954
G1 X127.710 Y89.886 E254.84992
G1 X124.687 Y86.864 E255.35844
G1 X123.676 Y86.864 E255.47882
G1 X126.698 Y89.886 E255.98735
G1 X125.686 Y89.886 E256.10772
G1 X122.664 Y86.864 E256.61625
G1 X122.464 Y87.676 E256.71572
G1 X124.674 Y89.886 E257.08766
G1 X123.663 Y89.886 E257.20803
G1 X121.640 Y87.864 E257.54830
G1 X120.628 Y87.864 E257.66868
G1 X122.651 Y89.886 E258.00895
G1 X121.639 Y89.886 E258.12933
G1 X119.617 Y87.864 E258.46960
G1 X118.605 Y87.864 E258.58997
G1 X120.627 Y89.886 E258.93024
G1 X119.616 Y89.886 E259.05062
G1 X117.593 Y87.864 E259.39089
G1 X116.936 Y87.207 F7800.000
G1 X116.593 Y86.864 E259.44859 F1080.000
G1 X115.581 Y86.864 E259.56897
G1 X118.604 Y89.886 E260.07750
G1 X117.592 Y89.886 E260.19787
G1 X114.570 Y86.864 E260.70640
G1 X113.558 Y86.864 E260.82678
G1 X116.580 Y89.886 E261.33530
G1 X115.568 Y89.886 E261.45568
G1 X112.546 Y86.864 E261.96421
G1 X112.264 Y87.593 E262.05727
G1 X114.557 Y89.886 E262.44306
G1 X113.545 Y89.886 E262.56344
G1 X111.523 Y87.864 E262.90371
G1 X110.511 Y87.864 E263.02408
G1 X112.533 Y89.886 E263.36435
G1 X111.521 Y89.886 E263.48473
G1 X109.499 Y87.864 E263.82500
G1 X108.487 Y87.864 E263.94537
G1 X110.510 Y89.886 E264.28564
G1 X109.498 Y89.886 E264.40602
G1 X107.476 Y87.864 E264.74629
G1 X106.736 Y88.136 E264.84004
G1 X105.464 Y86.864 E265.05412
G1 X104.452 Y86.864 E265.17450
G1 X107.474 Y89.886 E265.68303
G1 X108.486 Y89.886 E265.80340
G1 X106.464 Y87.864 E266.14367
G1 X106.463 Y89.886 F7800.000
G1 X103.440 Y86.864 E266.65220 F1080.000
G1 X102.429 Y86.864 E266.77258
G1 X105.451 Y89.886 E267.28110
G1 X104.439 Y89.886 E267.40148
G1 X101.417 Y86.864 E267.91001
G1 X100.405 Y86.864 E268.03038
G1 X103.427 Y89.886 E268.53891
G1 X102.416 Y89.886 E268.65929
G1 X99.393 Y86.864 E269.16781
G1 X98.381 Y86.864 E269.28819
G1 X101.404 Y89.886 E269.79672
G1 X100.392 Y89.886 E269.91709
G1 X97.370 Y86.864 E270.42562
G1 X96.358 Y86.864 E270.54600
G1 X99.380 Y89.886 E271.05452
G1 X98.368 Y89.886 E271.17490
G1 X95.346 Y86.864 E271.68343
G1 X94.334 Y86.864 E271.80380
G1 X97.357 Y89.886 E272.31233
G1 X96.345 Y89.886 E272.43271
G1 X93.323 Y86.864 E272.94123
G1 X92.311 Y86.864 E273.06161
G1 X95.333 Y89.886 E273.57014
G1 X94.321 Y89.886 E273.69051
G1 X91.299 Y86.864 E274.19904
G1 X90.287 Y86.864 E274.31942
G1 X93.310 Y89.886 E274.82794
G1 X92.298 Y89.886 E274.94832
G1 X89.276 Y86.864 E275.45685
G1 X88.264 Y86.864 E275.57722
G1 X91.286 Y89.886 E276.08575
G1 X90.274 Y89.886 E276.20613
G1 X87.252 Y86.864 E276.71465
