; generated by Slic3r 1.2.9 on 2017-01-24 at 21:53:57

; external perimeters extrusion width = 0.40mm
; perimeters extrusion width = 0.67mm
; infill extrusion width = 0.67mm
; solid infill extrusion width = 0.67mm
; top infill extrusion width = 0.67mm

M190 S60 ; set bed temperature
M104 S210 ; set temperature
G28 ; home all axes
G1 Z5 F5000 ; lift nozzle

M109 S210 ; wait for temperature to be reached
G21 ; set units to millimeters
G90 ; use absolute coordinates
M82 ; use absolute distances for extrusion
G92 E0
M106 S255
G1 E-2.00000 F2400.00000
G92 E0
G1 Z1.000 F7800.000
G1 X87.440 Y79.632 F7800.000
G1 Z0.400 F7800.000
G1 E2.00000 F2400.00000
G1 X89.251 Y77.721 E2.31268 F1080.000
G1 X91.549 Y76.437 E2.62536
G1 X94.600 Y75.886 E2.99355
G1 X145.400 Y75.886 E9.02682
G1 X148.003 Y76.284 E9.33949
G1 X150.368 Y77.440 E9.65217 F1080.000
G1 X152.279 Y79.251 E9.96485
G1 X153.563 Y81.549 E10.27753
G1 X154.114 Y84.600 E10.64572
G1 X154.114 Y135.400 E16.67899
G1 X153.716 Y138.003 E16.99167
G1 X152.560 Y140.368 E17.30435
G1 X150.749 Y142.279 E17.61702
G1 X148.451 Y143.563 E17.92970
G1 X145.400 Y144.114 E18.29789
G1 X94.600 Y144.114 E24.33116
G1 X91.997 Y143.716 E24.64384
G1 X89.632 Y142.560 E24.95652
G1 X87.721 Y140.749 E25.26920
G1 X86.437 Y138.451 E25.58187
G1 X85.886 Y135.400 E25.95006
G1 X85.886 Y84.600 E31.98333
G1 X86.284 Y81.997 E32.29601
G1 X87.414 Y79.686 E32.60156
G1 E30.60156 F2400.00000
G92 E0
G1 Z1.400 F7800.000
G1 X139.678 Y129.678 F7800.000
G1 Z0.400 F7800.000
G1 E2.00000 F2400.00000
G1 X100.322 Y129.678 E6.67420 F540.000
G1 X100.322 Y90.322 E11.34840
G1 X139.678 Y90.322 E16.02259
G1 X139.678 Y129.618 E20.68966
G1 X138.964 Y128.964 F7800.000
G1 X101.036 Y128.964 E25.19423 F540.000
G1 X101.036 Y91.036 E29.69879
G1 X138.964 Y91.036 E34.20335
G1 X138.964 Y128.904 E38.70079
G1 X138.250 Y128.250 F7800.000
G1 X101.750 Y128.250 E43.03572 F378.000
G1 X101.750 Y91.750 E47.37065
G1 X138.250 Y91.750 E51.70558
G1 X138.250 Y128.190 E56.03338
G1 X138.250 Y128.650 F7800.000
G1 X137.228 Y132.572 F7800.000
G1 X132.572 Y132.572 E56.58643 F540.000
G1 X132.572 Y133.572 E56.70519
G1 X106.628 Y133.572 E59.78636
G1 X106.628 Y132.572 E59.90513
G1 X101.972 Y132.572 E60.45817
G1 X101.972 Y133.572 E60.57694
G1 X96.428 Y133.572 E61.23530
G1 X96.428 Y127.228 E61.98867
G1 X97.428 Y127.228 E62.10743
G1 X97.428 Y122.572 E62.66048
G1 X96.428 Y122.572 E62.77924
G1 X96.428 Y96.628 E65.86041
G1 X97.428 Y96.628 E65.97918
G1 X97.428 Y91.972 E66.53222
G1 X96.428 Y91.972 E66.65099
G1 X96.428 Y86.428 E67.30935
G1 X101.972 Y86.428 E67.96770
G1 X101.972 Y87.428 E68.08647
G1 X106.628 Y87.428 E68.63952
G1 X106.628 Y86.428 E68.75828
G1 X132.572 Y86.428 E71.83945
G1 X132.572 Y87.428 E71.95821
G1 X137.228 Y87.428 E72.51126
G1 X137.228 Y86.428 E72.63003
G1 X143.572 Y86.428 E73.38340
G1 X143.572 Y91.972 E74.04176
G1 X142.572 Y91.972 E74.16052
G1 X142.572 Y96.628 E74.71357
G1 X143.572 Y96.628 E74.83233
G1 X143.572 Y122.572 E77.91350
G1 X142.572 Y122.572 E78.03227
G1 X142.572 Y127.228 E78.58531
G1 X143.572 Y127.228 E78.70408
G1 X143.572 Y133.572 E79.45745
G1 X137.228 Y133.572 E80.21082
G1 X137.228 Y132.632 E80.32246
G1 X136.514 Y133.286 F7800.000
G1 X133.286 Y133.286 E80.70587 F540.000
G1 X133.286 Y134.286 E80.82463
G1 X105.914 Y134.286 E84.07544
G1 X105.914 Y133.286 E84.19420
G1 X102.686 Y133.286 E84.57761
G1 X102.686 Y134.286 E84.69638
G1 X95.714 Y134.286 E85.52437
G1 X95.714 Y126.514 E86.44738
G1 X96.714 Y126.514 E86.56614
G1 X96.714 Y123.286 E86.94955
G1 X95.714 Y123.286 E87.06832
G1 X95.714 Y95.914 E90.31912
G1 X96.714 Y95.914 E90.43789
G1 X96.714 Y92.686 E90.82130
G1 X95.714 Y92.686 E90.94006
G1 X95.714 Y85.714 E91.76806
G1 X102.686 Y85.714 E92.59605
G1 X102.686 Y86.714 E92.71482
G1 X105.914 Y86.714 E93.09823
G1 X105.914 Y85.714 E93.21699
G1 X133.286 Y85.714 E96.46780
G1 X133.286 Y86.714 E96.58656
G1 X136.514 Y86.714 E96.96997
G1 X136.514 Y85.714 E97.08874
G1 X144.286 Y85.714 E98.01174
G1 X144.286 Y92.686 E98.83974
G1 X143.286 Y92.686 E98.95850
G1 X143.286 Y95.914 E99.34191
G1 X144.286 Y95.914 E99.46068
G1 X144.286 Y123.286 E102.71148
G1 X143.286 Y123.286 E102.83025
G1 X143.286 Y126.514 E103.21366
G1 X144.286 Y126.514 E103.33242
G1 X144.286 Y134.286 E104.25543
G1 X136.514 Y134.286 E105.17843
G1 X136.514 Y133.346 E105.29007
G1 X135.800 Y134.000 F7800.000
G1 X134.000 Y134.000 E105.50385 F378.000
G1 X134.000 Y135.000 E105.62261
G1 X105.200 Y135.000 E109.04305
G1 X105.200 Y134.000 E109.16182
G1 X103.400 Y134.000 E109.37559
G1 X103.400 Y135.000 E109.49436
G1 X95.000 Y135.000 E110.49199
G1 X95.000 Y125.800 E111.58463
G1 X96.000 Y125.800 E111.70339
G1 X96.000 Y124.000 E111.91717
G1 X95.000 Y124.000 E112.03593
G1 X95.000 Y95.200 E115.45637
G1 X96.000 Y95.200 E115.57514
G1 X96.000 Y93.400 E115.78891
G1 X95.000 Y93.400 E115.90768
G1 X95.000 Y85.000 E116.90531
G1 X103.400 Y85.000 E117.90293
G1 X103.400 Y86.000 E118.02170
G1 X105.200 Y86.000 E118.23548
G1 X105.200 Y85.000 E118.35424
G1 X134.000 Y85.000 E121.77468
G1 X134.000 Y86.000 E121.89344
G1 X135.800 Y86.000 E122.10722
G1 X135.800 Y85.000 E122.22599
G1 X145.000 Y85.000 E123.31863
G1 X145.000 Y93.400 E124.31625
G1 X144.000 Y93.400 E124.43502
G1 X144.000 Y95.200 E124.64880
G1 X145.000 Y95.200 E124.76756
G1 X145.000 Y124.000 E128.18800
G1 X144.000 Y124.000 E128.30676
G1 X144.000 Y125.800 E128.52054
G1 X145.000 Y125.800 E128.63931
G1 X145.000 Y135.000 E129.73195
G1 X135.800 Y135.000 E130.82459
G1 X135.800 Y134.060 E130.93622
G1 X135.800 Y133.600 F7800.000
G1 X137.664 Y132.767 F7800.000
G1 X138.033 Y133.136 E130.99887 F1080.000
G1 X139.054 Y133.136 E131.12136
G1 X136.031 Y130.114 E131.63436
G1 X135.011 Y130.114 E131.75686
G1 X137.033 Y132.136 E132.10012
G1 X136.012 Y132.136 E132.22262
G1 X133.990 Y130.114 E132.56588
G1 X132.969 Y130.114 E132.68838
G1 X134.992 Y132.136 E133.03164
G1 X133.971 Y132.136 E133.15414
G1 X131.949 Y130.114 E133.49740
G1 X130.928 Y130.114 E133.61990
G1 X132.950 Y132.136 E133.96316
G1 X132.136 Y132.343 E134.06396
G1 X129.907 Y130.114 E134.44228
G1 X128.887 Y130.114 E134.56478
G1 X131.909 Y133.136 E135.07778
G1 X130.888 Y133.136 E135.20028
G1 X127.866 Y130.114 E135.71327
G1 X126.845 Y130.114 E135.83577
G1 X129.868 Y133.136 E136.34877
G1 X128.847 Y133.136 E136.47127
G1 X125.825 Y130.114 E136.98426
G1 X124.804 Y130.114 E137.10676
G1 X127.826 Y133.136 E137.61976
G1 X126.806 Y133.136 E137.74225
G1 X123.783 Y130.114 E138.25525
G1 X122.763 Y130.114 E138.37775
G1 X125.785 Y133.136 E138.89074
G1 X124.764 Y133.136 E139.01324
G1 X121.742 Y130.114 E139.52624
G1 X120.721 Y130.114 E139.64874
G1 X123.744 Y133.136 E140.16173
G1 X122.723 Y133.136 E140.28423
G1 X119.701 Y130.114 E140.79723
G1 X118.680 Y130.114 E140.91973
G1 X121.702 Y133.136 E141.43272
G1 X120.682 Y133.136 E141.55522
G1 X117.659 Y130.114 E142.06822
G1 X116.639 Y130.114 E142.19072
G1 X119.661 Y133.136 E142.70371
G1 X118.640 Y133.136 E142.82621
G1 X115.618 Y130.114 E143.33921
G1 X114.598 Y130.114 E143.46171
G1 X117.620 Y133.136 E143.97470
G1 X116.599 Y133.136 E144.09720
G1 X113.577 Y130.114 E144.61020
G1 X112.556 Y130.114 E144.73270
G1 X115.579 Y133.136 E145.24569
G1 X114.558 Y133.136 E145.36819
G1 X111.536 Y130.114 E145.88119
G1 X110.515 Y130.114 E146.00369
G1 X113.537 Y133.136 E146.51668
G1 X112.517 Y133.136 E146.63918
G1 X109.494 Y130.114 E147.15218
G1 X108.474 Y130.114 E147.27468
G1 X111.496 Y133.136 E147.78767
G1 X110.475 Y133.136 E147.91017
G1 X107.453 Y130.114 E148.42317
G1 X106.432 Y130.114 E148.54567
G1 X109.455 Y133.136 E149.05866
G1 X107.064 Y132.787 F7800.000
G1 X107.413 Y133.136 E149.11798 F1080.000
G1 X108.434 Y133.136 E149.24048
G1 X105.412 Y130.114 E149.75348
G1 X104.391 Y130.114 E149.87597
G1 X106.413 Y132.136 E150.21923
G1 X105.393 Y132.136 E150.34173
G1 X103.370 Y130.114 E150.68499
G1 X102.350 Y130.114 E150.80749
G1 X104.372 Y132.136 E151.15075
G1 X103.351 Y132.136 E151.27325
G1 X101.329 Y130.114 E151.61651
G1 X100.308 Y130.114 F7800.000
G1 X102.331 Y132.136 E151.95977 F1080.000
G1 X101.536 Y132.362 E152.05892
G1 X96.864 Y127.690 E152.85198
G1 X96.864 Y128.711 E152.97448
G1 X101.289 Y133.136 E153.72565
G1 X100.269 Y133.136 E153.84815
G1 X96.864 Y129.731 E154.42609
G1 X96.864 Y130.752 E154.54859
G1 X99.248 Y133.136 E154.95328
G1 X98.227 Y133.136 E155.07578
G1 X96.864 Y131.773 E155.30723
G1 X96.864 Y132.793 E155.42973
G1 X97.207 Y133.136 E155.48795
G1 X99.886 Y129.692 F7800.000
G1 X97.858 Y127.664 E155.83213 F1080.000
G1 X97.864 Y126.649 E155.95398
G1 X99.886 Y128.671 E156.29724
G1 X99.886 Y127.650 E156.41974
G1 X97.864 Y125.628 E156.76300
G1 X97.864 Y124.607 E156.88550
G1 X99.886 Y126.630 E157.22876
G1 X99.886 Y125.609 E157.35126
G1 X97.864 Y123.587 E157.69452
G1 X97.864 Y122.566 F7800.000
G1 X99.886 Y124.588 E158.03778 F1080.000
G1 X99.886 Y123.568 E158.16028
G1 X96.864 Y120.545 E158.67327
G1 X96.864 Y119.525 E158.79577
G1 X99.886 Y122.547 E159.30877
G1 X99.886 Y121.526 E159.43127
G1 X96.864 Y118.504 E159.94426
G1 X96.864 Y117.483 E160.06676
G1 X99.886 Y120.506 E160.57976
G1 X99.886 Y119.485 E160.70226
G1 X96.864 Y116.463 E161.21525
G1 X96.864 Y115.442 E161.33775
G1 X99.886 Y118.464 E161.85075
G1 X99.886 Y117.444 E161.97325
G1 X96.864 Y114.421 E162.48624
G1 X96.864 Y113.401 E162.60874
G1 X99.886 Y116.423 E163.12174
G1 X99.886 Y115.402 E163.24424
G1 X96.864 Y112.380 E163.75723
G1 X96.864 Y111.360 E163.87973
G1 X99.886 Y114.382 E164.39273
G1 X99.886 Y113.361 E164.51523
G1 X96.864 Y110.339 E165.02822
G1 X96.864 Y109.318 E165.15072
G1 X99.886 Y112.341 E165.66372
G1 X99.886 Y111.320 E165.78622
G1 X96.864 Y108.298 E166.29921
G1 X96.864 Y107.277 E166.42171
G1 X99.886 Y110.299 E166.93471
G1 X99.886 Y109.279 E167.05721
G1 X96.864 Y106.256 E167.57020
G1 X96.864 Y105.236 E167.69270
G1 X99.886 Y108.258 E168.20570
G1 X99.886 Y107.237 E168.32820
G1 X96.864 Y104.215 E168.84119
G1 X96.864 Y103.194 E168.96369
G1 X99.886 Y106.217 E169.47669
G1 X99.886 Y105.196 E169.59919
G1 X96.864 Y102.174 E170.11218
G1 X96.864 Y101.153 E170.23468
G1 X99.886 Y104.175 E170.74768
G1 X99.886 Y103.155 E170.87018
G1 X96.864 Y100.132 E171.38317
G1 X96.864 Y99.112 E171.50567
G1 X99.886 Y102.134 E172.01867
G1 X99.886 Y101.113 E172.14117
G1 X96.864 Y98.091 E172.65416
G1 X96.864 Y97.070 E172.77666
G1 X99.886 Y100.093 E173.28966
G1 X99.886 Y99.072 E173.41216
G1 X97.864 Y97.050 E173.75542
G1 X97.864 Y96.029 E173.87792
G1 X99.886 Y98.051 E174.22118
G1 X99.886 Y97.031 E174.34368
G1 X97.864 Y95.008 E174.68694
G1 X97.864 Y93.988 E174.80944
G1 X99.886 Y96.010 E175.15270
G1 X99.886 Y94.989 E175.27519
G1 X97.864 Y92.967 E175.61846
G1 X97.864 Y91.946 F7800.000
G1 X99.886 Y93.969 E175.96172 F1080.000
G1 X99.886 Y92.948 E176.08421
G1 X96.864 Y89.926 E176.59721
G1 X96.864 Y88.905 E176.71971
G1 X99.886 Y91.927 E177.23271
G1 X99.886 Y90.907 E177.35520
G1 X96.864 Y87.885 E177.86820
G1 X96.884 Y86.884 E177.98832
G1 X99.886 Y89.886 E178.49793
G1 X100.907 Y89.886 E178.62042
G1 X97.884 Y86.864 E179.13342
G1 X98.905 Y86.864 E179.25592
G1 X101.927 Y89.886 E179.76891
G1 X102.948 Y89.886 E179.89141
G1 X99.926 Y86.864 E180.40441
G1 X100.946 Y86.864 E180.52691
G1 X101.536 Y87.454 E180.62701
G1 X101.946 Y87.864 F7800.000
G1 X103.969 Y89.886 E180.97027 F1080.000
G1 X104.989 Y89.886 E181.09277
G1 X102.967 Y87.864 E181.43603
G1 X103.988 Y87.864 E181.55853
G1 X106.010 Y89.886 E181.90179
G1 X107.031 Y89.886 E182.02429
G1 X105.008 Y87.864 E182.36755
G1 X106.029 Y87.864 E182.49005
G1 X108.051 Y89.886 E182.83331
G1 X109.072 Y89.886 E182.95581
G1 X107.050 Y87.864 E183.29907
G1 X107.070 Y86.864 E183.41911
G1 X110.093 Y89.886 E183.93211
G1 X111.113 Y89.886 E184.05461
G1 X108.091 Y86.864 E184.56760
G1 X109.112 Y86.864 E184.69010
G1 X112.134 Y89.886 E185.20310
G1 X113.155 Y89.886 E185.32560
G1 X110.132 Y86.864 E185.83859
G1 X111.153 Y86.864 E185.96109
G1 X114.175 Y89.886 E186.47409
G1 X115.196 Y89.886 E186.59659
G1 X112.174 Y86.864 E187.10958
G1 X113.194 Y86.864 E187.23208
G1 X116.217 Y89.886 E187.74508
G1 X117.237 Y89.886 E187.86758
G1 X114.215 Y86.864 E188.38057
G1 X115.236 Y86.864 E188.50307
G1 X118.258 Y89.886 E189.01607
G1 X119.279 Y89.886 E189.13857
G1 X116.256 Y86.864 E189.65156
G1 X117.277 Y86.864 E189.77406
G1 X120.299 Y89.886 E190.28706
G1 X121.320 Y89.886 E190.40956
G1 X118.298 Y86.864 E190.92255
G1 X119.318 Y86.864 E191.04505
G1 X122.340 Y89.886 E191.55805
G1 X123.361 Y89.886 E191.68055
G1 X120.339 Y86.864 E192.19354
G1 X121.359 Y86.864 E192.31604
G1 X124.382 Y89.886 E192.82904
G1 X125.402 Y89.886 E192.95154
G1 X122.380 Y86.864 E193.46453
G1 X123.401 Y86.864 E193.58703
G1 X126.423 Y89.886 E194.10003
G1 X127.444 Y89.886 E194.22253
G1 X124.421 Y86.864 E194.73552
G1 X125.442 Y86.864 E194.85802
G1 X128.464 Y89.886 E195.37102
G1 X129.485 Y89.886 E195.49352
G1 X126.463 Y86.864 E196.00651
G1 X127.483 Y86.864 E196.12901
G1 X130.506 Y89.886 E196.64201
G1 X131.526 Y89.886 E196.76451
G1 X128.504 Y86.864 E197.27750
G1 X129.525 Y86.864 E197.40000
G1 X132.547 Y89.886 E197.91300
G1 X132.136 Y87.434 F7800.000
G1 X131.566 Y86.864 E198.00977 F1080.000
G1 X130.545 Y86.864 E198.13227
G1 X133.568 Y89.886 E198.64527
G1 X134.588 Y89.886 E198.76777
G1 X132.566 Y87.864 E199.11103
G1 X133.587 Y87.864 E199.23353
G1 X135.609 Y89.886 E199.57679
G1 X136.630 Y89.886 E199.69929
G1 X134.607 Y87.864 E200.04255
G1 X135.628 Y87.864 E200.16505
G1 X137.650 Y89.886 E200.50831
G1 X138.671 Y89.886 E200.63081
G1 X136.649 Y87.864 E200.97407
G1 X137.664 Y87.858 E201.09592
G1 X139.692 Y89.886 E201.44010
G1 X140.114 Y90.308 F7800.000
G1 X142.136 Y92.331 E201.78336 F1080.000
G1 X142.362 Y91.536 E201.88251
G1 X137.690 Y86.864 E202.67557
G1 X138.711 Y86.864 E202.79807
G1 X143.136 Y91.289 E203.54925
G1 X143.136 Y90.269 E203.67175
G1 X139.731 Y86.864 E204.24969
G1 X140.752 Y86.864 E204.37219
G1 X143.136 Y89.248 E204.77689
G1 X143.136 Y88.227 E204.89939
G1 X141.773 Y86.864 E205.13085
G1 X142.793 Y86.864 E205.25335
G1 X143.136 Y87.207 E205.31156
G1 X142.136 Y93.351 F7800.000
G1 X140.114 Y91.329 E205.65482 F1080.000
G1 X140.114 Y92.350 E205.77732
G1 X142.136 Y94.372 E206.12058
G1 X142.136 Y95.393 E206.24308
G1 X140.114 Y93.370 E206.58634
G1 X140.114 Y94.391 E206.70884
G1 X142.136 Y96.413 E207.05210
G1 X142.787 Y97.064 F7800.000
G1 X143.136 Y97.413 E207.11143 F1080.000
G1 X143.136 Y98.434 E207.23393
G1 X140.114 Y95.412 E207.74692
G1 X140.114 Y96.432 E207.86942
G1 X143.136 Y99.455 E208.38242
G1 X143.136 Y100.475 E208.50492
G1 X140.114 Y97.453 E209.01791
G1 X140.114 Y98.474 E209.14041
G1 X143.136 Y101.496 E209.65341
G1 X143.136 Y102.517 E209.77591
G1 X140.114 Y99.494 E210.28890
G1 X140.114 Y100.515 E210.41140
G1 X143.136 Y103.537 E210.92440
G1 X143.136 Y104.558 E211.04690
G1 X140.114 Y101.536 E211.55989
G1 X140.114 Y102.556 E211.68239
G1 X143.136 Y105.579 E212.19538
G1 X143.136 Y106.599 E212.31788
G1 X140.114 Y103.577 E212.83088
G1 X140.114 Y104.598 E212.95338
G1 X143.136 Y107.620 E213.46637
G1 X143.136 Y108.641 E213.58887
G1 X140.114 Y105.618 E214.10187
G1 X140.114 Y106.639 E214.22437
G1 X143.136 Y109.661 E214.73736
G1 X143.136 Y110.682 E214.85986
G1 X140.114 Y107.660 E215.37286
G1 X140.114 Y108.680 E215.49536
G1 X143.136 Y111.702 E216.00835
G1 X143.136 Y112.723 E216.13085
G1 X140.114 Y109.701 E216.64385
G1 X140.114 Y110.721 E216.76635
G1 X143.136 Y113.744 E217.27934
G1 X143.136 Y114.764 E217.40184
G1 X140.114 Y111.742 E217.91484
G1 X140.114 Y112.763 E218.03734
G1 X143.136 Y115.785 E218.55033
G1 X143.136 Y116.806 E218.67283
G1 X140.114 Y113.783 E219.18583
G1 X140.114 Y114.804 E219.30833
G1 X143.136 Y117.826 E219.82132
G1 X143.136 Y118.847 E219.94382
G1 X140.114 Y115.825 E220.45682
G1 X140.114 Y116.845 E220.57932
