; generated by Slic3r 1.2.9 on 2017-01-24 at 23:36:35

; external perimeters extrusion width = 0.40mm
; perimeters extrusion width = 0.67mm
; infill extrusion width = 0.67mm
; solid infill extrusion width = 0.67mm
; top infill extrusion width = 0.67mm

M190 S60 ; set bed temperature
M104 S210 ; set temperature
G28 ; home all axes
G1 Z5 F5000 ; lift nozzle

M109 S210 ; wait for temperature to be reached
G21 ; set units to millimeters
G90 ; use absolute coordinates
M82 ; use absolute distances for extrusion
G92 E0
M106 S255
G1 E-2.00000 F2400.00000
G92 E0
G1 Z1.000 F7800.000
G1 X59.040 Y51.232 F7800.000
G1 Z0.400 F7800.000
G1 E2.00000 F2400.00000
G1 X60.851 Y49.321 E2.31268 F1080.000
G1 X63.149 Y48.037 E2.62536
G1 X66.200 Y47.486 E2.99355
G1 X173.800 Y47.486 E15.77268
G1 X176.403 Y47.884 E16.08536
G1 X178.768 Y49.040 E16.39804 F1080.000
G1 X180.679 Y50.851 E16.71071
G1 X181.963 Y53.149 E17.02339
G1 X182.514 Y56.200 E17.39158
G1 X182.514 Y163.800 E30.17071
G1 X182.116 Y166.403 E30.48339
G1 X180.960 Y168.768 E30.79607
G1 X179.149 Y170.679 E31.10875
G1 X176.851 Y171.963 E31.42143
G1 X173.800 Y172.514 E31.78962
G1 X66.200 Y172.514 E44.56875
G1 X63.597 Y172.116 E44.88143
G1 X61.232 Y170.960 E45.19411
G1 X59.321 Y169.149 E45.50678
G1 X58.037 Y166.851 E45.81946
G1 X57.486 Y163.800 E46.18765
G1 X57.486 Y56.200 E58.96678
G1 X57.884 Y53.597 E59.27946
G1 X59.014 Y51.286 E59.58501
G1 E57.58501 F2400.00000
G92 E0
G1 Z1.400 F7800.000
G1 X168.078 Y101.278 F7800.000
G1 Z0.400 F7800.000
G1 E2.00000 F2400.00000
G1 X128.722 Y101.278 E6.67420 F540.000
G1 X128.722 Y61.922 E11.34840
G1 X168.078 Y61.922 E16.02259
G1 X168.078 Y101.218 E20.68966
G1 X167.364 Y100.564 F7800.000
G1 X129.436 Y100.564 E25.19423 F540.000
G1 X129.436 Y62.636 E29.69879
G1 X167.364 Y62.636 E34.20335
G1 X167.364 Y100.504 E38.70079
G1 X166.650 Y99.850 F7800.000
G1 X130.150 Y99.850 E43.03572 F378.000
G1 X130.150 Y63.350 E47.37065
G1 X166.650 Y63.350 E51.70558
G1 X166.650 Y99.790 E56.03338
G1 X166.650 Y100.250 F7800.000
G1 X165.628 Y104.172 F7800.000
G1 X160.972 Y104.172 E56.58643 F540.000
G1 X160.972 Y105.172 E56.70519
G1 X135.028 Y105.172 E59.78636
G1 X135.028 Y104.172 E59.90513
G1 X130.372 Y104.172 E60.45817
G1 X130.372 Y105.172 E60.57694
G1 X124.828 Y105.172 E61.23530
G1 X124.828 Y98.828 E61.98867
G1 X125.828 Y98.828 E62.10743
G1 X125.828 Y94.172 E62.66048
G1 X124.828 Y94.172 E62.77924
G1 X124.828 Y68.228 E65.86041
G1 X125.828 Y68.228 E65.97918
G1 X125.828 Y63.572 E66.53222
G1 X124.828 Y63.572 E66.65099
G1 X124.828 Y58.028 E67.30935
G1 X130.372 Y58.028 E67.96770
G1 X130.372 Y59.028 E68.08647
G1 X135.028 Y59.028 E68.63952
G1 X135.028 Y58.028 E68.75828
G1 X160.972 Y58.028 E71.83945
G1 X160.972 Y59.028 E71.95821
G1 X165.628 Y59.028 E72.51126
G1 X165.628 Y58.028 E72.63003
G1 X171.972 Y58.028 E73.38340
G1 X171.972 Y63.572 E74.04176
G1 X170.972 Y63.572 E74.16052
G1 X170.972 Y68.228 E74.71357
G1 X171.972 Y68.228 E74.83233
G1 X171.972 Y94.172 E77.91350
G1 X170.972 Y94.172 E78.03227
G1 X170.972 Y98.828 E78.58531
G1 X171.972 Y98.828 E78.70408
G1 X171.972 Y105.172 E79.45745
G1 X165.628 Y105.172 E80.21082
G1 X165.628 Y104.232 E80.32246
G1 X164.914 Y104.886 F7800.000
G1 X161.686 Y104.886 E80.70587 F540.000
G1 X161.686 Y105.886 E80.82463
G1 X134.314 Y105.886 E84.07544
G1 X134.314 Y104.886 E84.19420
G1 X131.086 Y104.886 E84.57761
G1 X131.086 Y105.886 E84.69638
G1 X124.114 Y105.886 E85.52437
G1 X124.114 Y98.114 E86.44738
G1 X125.114 Y98.114 E86.56614
G1 X125.114 Y94.886 E86.94955
G1 X124.114 Y94.886 E87.06832
G1 X124.114 Y67.514 E90.31912
G1 X125.114 Y67.514 E90.43789
G1 X125.114 Y64.286 E90.82130
G1 X124.114 Y64.286 E90.94006
G1 X124.114 Y57.314 E91.76806
G1 X131.086 Y57.314 E92.59605
G1 X131.086 Y58.314 E92.71482
G1 X134.314 Y58.314 E93.09823
G1 X134.314 Y57.314 E93.21699
G1 X161.686 Y57.314 E96.46780
G1 X161.686 Y58.314 E96.58656
G1 X164.914 Y58.314 E96.96997
G1 X164.914 Y57.314 E97.08874
G1 X172.686 Y57.314 E98.01174
G1 X172.686 Y64.286 E98.83974
G1 X171.686 Y64.286 E98.95850
G1 X171.686 Y67.514 E99.34191
G1 X172.686 Y67.514 E99.46068
G1 X172.686 Y94.886 E102.71148
G1 X171.686 Y94.886 E102.83025
G1 X171.686 Y98.114 E103.21366
G1 X172.686 Y98.114 E103.33242
G1 X172.686 Y105.886 E104.25543
G1 X164.914 Y105.886 E105.17843
G1 X164.914 Y104.946 E105.29007
G1 X164.200 Y105.600 F7800.000
G1 X162.400 Y105.600 E105.50385 F378.000
G1 X162.400 Y106.600 E105.62261
G1 X133.600 Y106.600 E109.04305
G1 X133.600 Y105.600 E109.16182
G1 X131.800 Y105.600 E109.37559
G1 X131.800 Y106.600 E109.49436
G1 X123.400 Y106.600 E110.49199
G1 X123.400 Y97.400 E111.58463
G1 X124.400 Y97.400 E111.70339
G1 X124.400 Y95.600 E111.91717
G1 X123.400 Y95.600 E112.03593
G1 X123.400 Y66.800 E115.45637
G1 X124.400 Y66.800 E115.57514
G1 X124.400 Y65.000 E115.78891
G1 X123.400 Y65.000 E115.90768
G1 X123.400 Y56.600 E116.90531
G1 X131.800 Y56.600 E117.90293
G1 X131.800 Y57.600 E118.02170
G1 X133.600 Y57.600 E118.23548
G1 X133.600 Y56.600 E118.35424
G1 X162.400 Y56.600 E121.77468
G1 X162.400 Y57.600 E121.89344
G1 X164.200 Y57.600 E122.10722
G1 X164.200 Y56.600 E122.22599
G1 X173.400 Y56.600 E123.31863
G1 X173.400 Y65.000 E124.31625
G1 X172.400 Y65.000 E124.43502
G1 X172.400 Y66.800 E124.64880
G1 X173.400 Y66.800 E124.76756
G1 X173.400 Y95.600 E128.18800
G1 X172.400 Y95.600 E128.30676
G1 X172.400 Y97.400 E128.52054
G1 X173.400 Y97.400 E128.63931
G1 X173.400 Y106.600 E129.73195
G1 X164.200 Y106.600 E130.82459
G1 X164.200 Y105.660 E130.93622
G1 X164.200 Y105.200 F7800.000
G1 X166.064 Y104.367 F7800.000
G1 X166.433 Y104.736 E130.99887 F1080.000
G1 X167.454 Y104.736 E131.12136
G1 X164.431 Y101.714 E131.63436
G1 X163.411 Y101.714 E131.75686
G1 X165.433 Y103.736 E132.10012
G1 X164.412 Y103.736 E132.22262
G1 X162.390 Y101.714 E132.56588
G1 X161.369 Y101.714 E132.68838
G1 X163.392 Y103.736 E133.03164
G1 X162.371 Y103.736 E133.15414
G1 X160.349 Y101.714 E133.49740
G1 X159.328 Y101.714 E133.61990
G1 X161.350 Y103.736 E133.96316
G1 X160.536 Y103.943 E134.06396
G1 X158.307 Y101.714 E134.44228
G1 X157.287 Y101.714 E134.56478
G1 X160.309 Y104.736 E135.07778
G1 X159.288 Y104.736 E135.20028
G1 X156.266 Y101.714 E135.71327
G1 X155.245 Y101.714 E135.83577
G1 X158.268 Y104.736 E136.34877
G1 X157.247 Y104.736 E136.47127
G1 X154.225 Y101.714 E136.98426
G1 X153.204 Y101.714 E137.10676
G1 X156.226 Y104.736 E137.61976
G1 X155.206 Y104.736 E137.74225
G1 X152.183 Y101.714 E138.25525
G1 X151.163 Y101.714 E138.37775
G1 X154.185 Y104.736 E138.89074
G1 X153.164 Y104.736 E139.01324
G1 X150.142 Y101.714 E139.52624
G1 X149.121 Y101.714 E139.64874
G1 X152.144 Y104.736 E140.16173
G1 X151.123 Y104.736 E140.28423
G1 X148.101 Y101.714 E140.79723
G1 X147.080 Y101.714 E140.91973
G1 X150.102 Y104.736 E141.43272
G1 X149.082 Y104.736 E141.55522
G1 X146.059 Y101.714 E142.06822
G1 X145.039 Y101.714 E142.19072
G1 X148.061 Y104.736 E142.70371
G1 X147.040 Y104.736 E142.82621
G1 X144.018 Y101.714 E143.33921
G1 X142.998 Y101.714 E143.46171
G1 X146.020 Y104.736 E143.97470
G1 X144.999 Y104.736 E144.09720
G1 X141.977 Y101.714 E144.61020
G1 X140.956 Y101.714 E144.73270
G1 X143.979 Y104.736 E145.24569
G1 X142.958 Y104.736 E145.36819
G1 X139.936 Y101.714 E145.88119
G1 X138.915 Y101.714 E146.00369
G1 X141.937 Y104.736 E146.51668
G1 X140.917 Y104.736 E146.63918
G1 X137.894 Y101.714 E147.15218
G1 X136.874 Y101.714 E147.27468
G1 X139.896 Y104.736 E147.78767
G1 X138.875 Y104.736 E147.91017
G1 X135.853 Y101.714 E148.42317
G1 X134.832 Y101.714 E148.54567
G1 X137.855 Y104.736 E149.05866
G1 X135.464 Y104.387 F7800.000
G1 X135.813 Y104.736 E149.11798 F1080.000
G1 X136.834 Y104.736 E149.24048
G1 X133.812 Y101.714 E149.75348
G1 X132.791 Y101.714 E149.87597
G1 X134.813 Y103.736 E150.21923
G1 X133.793 Y103.736 E150.34173
G1 X131.770 Y101.714 E150.68499
G1 X130.750 Y101.714 E150.80749
G1 X132.772 Y103.736 E151.15075
G1 X131.751 Y103.736 E151.27325
G1 X129.729 Y101.714 E151.61651
G1 X128.708 Y101.714 F7800.000
G1 X130.731 Y103.736 E151.95977 F1080.000
G1 X129.936 Y103.962 E152.05892
G1 X125.264 Y99.290 E152.85198
G1 X125.264 Y100.311 E152.97448
G1 X129.689 Y104.736 E153.72565
G1 X128.669 Y104.736 E153.84815
G1 X125.264 Y101.331 E154.42609
G1 X125.264 Y102.352 E154.54859
G1 X127.648 Y104.736 E154.95328
G1 X126.627 Y104.736 E155.07578
G1 X125.264 Y103.373 E155.30723
G1 X125.264 Y104.393 E155.42973
G1 X125.607 Y104.736 E155.48795
G1 X128.286 Y101.292 F7800.000
G1 X126.258 Y99.264 E155.83213 F1080.000
G1 X126.264 Y98.249 E155.95398
G1 X128.286 Y100.271 E156.29724
G1 X128.286 Y99.250 E156.41974
G1 X126.264 Y97.228 E156.76300
G1 X126.264 Y96.207 E156.88550
G1 X128.286 Y98.230 E157.22876
G1 X128.286 Y97.209 E157.35126
G1 X126.264 Y95.187 E157.69452
G1 X126.264 Y94.166 F7800.000
G1 X128.286 Y96.188 E158.03778 F1080.000
G1 X128.286 Y95.168 E158.16028
G1 X125.264 Y92.145 E158.67327
G1 X125.264 Y91.125 E158.79577
G1 X128.286 Y94.147 E159.30877
G1 X128.286 Y93.126 E159.43127
G1 X125.264 Y90.104 E159.94426
G1 X125.264 Y89.083 E160.06676
G1 X128.286 Y92.106 E160.57976
G1 X128.286 Y91.085 E160.70226
G1 X125.264 Y88.063 E161.21525
G1 X125.264 Y87.042 E161.33775
G1 X128.286 Y90.064 E161.85075
G1 X128.286 Y89.044 E161.97325
G1 X125.264 Y86.021 E162.48624
G1 X125.264 Y85.001 E162.60874
G1 X128.286 Y88.023 E163.12174
G1 X128.286 Y87.002 E163.24424
G1 X125.264 Y83.980 E163.75723
G1 X125.264 Y82.960 E163.87973
G1 X128.286 Y85.982 E164.39273
G1 X128.286 Y84.961 E164.51523
G1 X125.264 Y81.939 E165.02822
G1 X125.264 Y80.918 E165.15072
G1 X128.286 Y83.941 E165.66372
G1 X128.286 Y82.920 E165.78622
G1 X125.264 Y79.898 E166.29921
G1 X125.264 Y78.877 E166.42171
G1 X128.286 Y81.899 E166.93471
G1 X128.286 Y80.879 E167.05721
G1 X125.264 Y77.856 E167.57020
G1 X125.264 Y76.836 E167.69270
G1 X128.286 Y79.858 E168.20570
G1 X128.286 Y78.837 E168.32820
G1 X125.264 Y75.815 E168.84119
G1 X125.264 Y74.794 E168.96369
G1 X128.286 Y77.817 E169.47669
G1 X128.286 Y76.796 E169.59919
G1 X125.264 Y73.774 E170.11218
G1 X125.264 Y72.753 E170.23468
G1 X128.286 Y75.775 E170.74768
G1 X128.286 Y74.755 E170.87018
G1 X125.264 Y71.732 E171.38317
G1 X125.264 Y70.712 E171.50567
G1 X128.286 Y73.734 E172.01867
G1 X128.286 Y72.713 E172.14117
G1 X125.264 Y69.691 E172.65416
G1 X125.264 Y68.670 E172.77666
G1 X128.286 Y71.693 E173.28966
G1 X128.286 Y70.672 E173.41216
G1 X126.264 Y68.650 E173.75542
G1 X126.264 Y67.629 E173.87792
G1 X128.286 Y69.651 E174.22118
G1 X128.286 Y68.631 E174.34368
G1 X126.264 Y66.608 E174.68694
G1 X126.264 Y65.588 E174.80944
G1 X128.286 Y67.610 E175.15270
G1 X128.286 Y66.589 E175.27519
G1 X126.264 Y64.567 E175.61846
G1 X126.264 Y63.546 F7800.000
G1 X128.286 Y65.569 E175.96172 F1080.000
G1 X128.286 Y64.548 E176.08421
G1 X125.264 Y61.526 E176.59721
G1 X125.264 Y60.505 E176.71971
G1 X128.286 Y63.527 E177.23271
G1 X128.286 Y62.507 E177.35520
G1 X125.264 Y59.485 E177.86820
G1 X125.284 Y58.484 E177.98832
G1 X128.286 Y61.486 E178.49793
G1 X129.307 Y61.486 E178.62042
G1 X126.284 Y58.464 E179.13342
G1 X127.305 Y58.464 E179.25592
G1 X130.327 Y61.486 E179.76891
G1 X131.348 Y61.486 E179.89141
G1 X128.326 Y58.464 E180.40441
G1 X129.346 Y58.464 E180.52691
G1 X129.936 Y59.054 E180.62701
G1 X130.346 Y59.464 F7800.000
G1 X132.369 Y61.486 E180.97027 F1080.000
G1 X133.389 Y61.486 E181.09277
G1 X131.367 Y59.464 E181.43603
G1 X132.388 Y59.464 E181.55853
G1 X134.410 Y61.486 E181.90179
G1 X135.431 Y61.486 E182.02429
G1 X133.408 Y59.464 E182.36755
G1 X134.429 Y59.464 E182.49005
G1 X136.451 Y61.486 E182.83331
G1 X137.472 Y61.486 E182.95581
G1 X135.450 Y59.464 E183.29907
G1 X135.470 Y58.464 E183.41911
G1 X138.493 Y61.486 E183.93211
G1 X139.513 Y61.486 E184.05461
G1 X136.491 Y58.464 E184.56760
G1 X137.512 Y58.464 E184.69010
G1 X140.534 Y61.486 E185.20310
G1 X141.555 Y61.486 E185.32560
G1 X138.532 Y58.464 E185.83859
G1 X139.553 Y58.464 E185.96109
G1 X142.575 Y61.486 E186.47409
G1 X143.596 Y61.486 E186.59659
G1 X140.574 Y58.464 E187.10958
G1 X141.594 Y58.464 E187.23208
G1 X144.617 Y61.486 E187.74508
G1 X145.637 Y61.486 E187.86758
G1 X142.615 Y58.464 E188.38057
G1 X143.636 Y58.464 E188.50307
G1 X146.658 Y61.486 E189.01607
G1 X147.679 Y61.486 E189.13857
G1 X144.656 Y58.464 E189.65156
G1 X145.677 Y58.464 E189.77406
G1 X148.699 Y61.486 E190.28706
G1 X149.720 Y61.486 E190.40956
G1 X146.698 Y58.464 E190.92255
G1 X147.718 Y58.464 E191.04505
G1 X150.740 Y61.486 E191.55805
G1 X151.761 Y61.486 E191.68055
G1 X148.739 Y58.464 E192.19354
G1 X149.759 Y58.464 E192.31604
G1 X152.782 Y61.486 E192.82904
G1 X153.802 Y61.486 E192.95154
G1 X150.780 Y58.464 E193.46453
G1 X151.801 Y58.464 E193.58703
G1 X154.823 Y61.486 E194.10003
G1 X155.844 Y61.486 E194.22253
G1 X152.821 Y58.464 E194.73552
G1 X153.842 Y58.464 E194.85802
G1 X156.864 Y61.486 E195.37102
G1 X157.885 Y61.486 E195.49352
G1 X154.863 Y58.464 E196.00651
G1 X155.883 Y58.464 E196.12901
G1 X158.906 Y61.486 E196.64201
G1 X159.926 Y61.486 E196.76451
G1 X156.904 Y58.464 E197.27750
G1 X157.925 Y58.464 E197.40000
G1 X160.947 Y61.486 E197.91300
G1 X160.536 Y59.034 F7800.000
G1 X159.966 Y58.464 E198.00977 F1080.000
G1 X158.945 Y58.464 E198.13227
G1 X161.968 Y61.486 E198.64527
G1 X162.988 Y61.486 E198.76777
G1 X160.966 Y59.464 E199.11103
G1 X161.987 Y59.464 E199.23353
G1 X164.009 Y61.486 E199.57679
G1 X165.030 Y61.486 E199.69929
G1 X163.007 Y59.464 E200.04255
G1 X164.028 Y59.464 E200.16505
G1 X166.050 Y61.486 E200.50831
G1 X167.071 Y61.486 E200.63081
G1 X165.049 Y59.464 E200.97407
G1 X166.064 Y59.458 E201.09592
G1 X168.092 Y61.486 E201.44010
G1 X168.514 Y61.908 F7800.000
G1 X170.536 Y63.931 E201.78336 F1080.000
G1 X170.762 Y63.136 E201.88251
G1 X166.090 Y58.464 E202.67557
G1 X167.111 Y58.464 E202.79807
G1 X171.536 Y62.889 E203.54925
G1 X171.536 Y61.869 E203.67175
G1 X168.131 Y58.464 E204.24969
G1 X169.152 Y58.464 E204.37219
G1 X171.536 Y60.848 E204.77689
G1 X171.536 Y59.827 E204.89939
G1 X170.173 Y58.464 E205.13085
G1 X171.193 Y58.464 E205.25335
G1 X171.536 Y58.807 E205.31156
G1 X170.536 Y64.951 F7800.000
G1 X168.514 Y62.929 E205.65482 F1080.000
G1 X168.514 Y63.950 E205.77732
G1 X170.536 Y65.972 E206.12058
G1 X170.536 Y66.993 E206.24308
G1 X168.514 Y64.970 E206.58634
G1 X168.514 Y65.991 E206.70884
G1 X170.536 Y68.013 E207.05210
G1 X171.187 Y68.664 F7800.000
G1 X171.536 Y69.013 E207.11143 F1080.000
G1 X171.536 Y70.034 E207.23393
G1 X168.514 Y67.012 E207.74692
G1 X168.514 Y68.032 E207.86942
G1 X171.536 Y71.055 E208.38242
G1 X171.536 Y72.075 E208.50492
G1 X168.514 Y69.053 E209.01791
G1 X168.514 Y70.074 E209.14041
G1 X171.536 Y73.096 E209.65341
G1 X171.536 Y74.117 E209.77591
G1 X168.514 Y71.094 E210.28890
G1 X168.514 Y72.115 E210.41140
G1 X171.536 Y75.137 E210.92440
G1 X171.536 Y76.158 E211.04690
G1 X168.514 Y73.136 E211.55989
G1 X168.514 Y74.156 E211.68239
G1 X171.536 Y77.179 E212.19538
G1 X171.536 Y78.199 E212.31788
G1 X168.514 Y75.177 E212.83088
G1 X168.514 Y76.198 E212.95338
G1 X171.536 Y79.220 E213.46637
G1 X171.536 Y80.241 E213.58887
G1 X168.514 Y77.218 E214.10187
G1 X168.514 Y78.239 E214.22437
G1 X171.536 Y81.261 E214.73736
G1 X171.536 Y82.282 E214.85986
G1 X168.514 Y79.260 E215.37286
G1 X168.514 Y80.280 E215.49536
G1 X171.536 Y83.302 E216.00835
G1 X171.536 Y84.323 E216.13085
G1 X168.514 Y81.301 E216.64385
G1 X168.514 Y82.321 E216.76635
G1 X171.536 Y85.344 E217.27934
G1 X171.536 Y86.364 E217.40184
G1 X168.514 Y83.342 E217.91484
G1 X168.514 Y84.363 E218.03734
G1 X171.536 Y87.385 E218.55033
G1 X171.536 Y88.406 E218.67283
G1 X168.514 Y85.383 E219.18583
G1 X168.514 Y86.404 E219.30833
G1 X171.536 Y89.426 E219.82132
G1 X171.536 Y90.447 E219.94382
G1 X168.514 Y87.425 E220.45682
G1 X168.514 Y88.445 E220.57932
