; generated by Slic3r 1.2.9 on 2017-01-27 at 22:22:45

; external perimeters extrusion width = 0.40mm
; perimeters extrusion width = 0.67mm
; infill extrusion width = 0.67mm
; solid infill extrusion width = 0.67mm
; top infill extrusion width = 0.67mm

M190 S60 ; set bed temperature
M104 S210 ; set temperature
G28 ; home all axes
G1 Z5 F5000 ; lift nozzle

M109 S210 ; wait for temperature to be reached
G21 ; set units to millimeters
G90 ; use absolute coordinates
M82 ; use absolute distances for extrusion
G92 E0
M106 S255
G1 E-2.00000 F2400.00000
G92 E0
G1 Z1.000 F7800.000
G1 X62.040 Y54.232 F7800.000
G1 Z0.400 F7800.000
G1 E2.00000 F2400.00000
G1 X63.851 Y52.321 E2.31268 F1080.000
G1 X66.149 Y51.037 E2.62536
G1 X69.200 Y50.486 E2.99355
G1 X170.800 Y50.486 E15.06009
G1 X173.403 Y50.884 E15.37277
G1 X175.768 Y52.040 E15.68544 F1080.000
G1 X177.679 Y53.851 E15.99812
G1 X178.963 Y56.149 E16.31080
G1 X179.514 Y59.200 E16.67899
G1 X179.514 Y160.800 E28.74553
G1 X179.116 Y163.403 E29.05821
G1 X177.960 Y165.768 E29.37089
G1 X176.149 Y167.679 E29.68357
G1 X173.851 Y168.963 E29.99624
G1 X170.800 Y169.514 E30.36443
G1 X69.200 Y169.514 E42.43097
G1 X66.597 Y169.116 E42.74365
G1 X64.232 Y167.960 E43.05633
G1 X62.321 Y166.149 E43.36901
G1 X61.037 Y163.851 E43.68169
G1 X60.486 Y160.800 E44.04988
G1 X60.486 Y59.200 E56.11642
G1 X60.884 Y56.597 E56.42910
G1 X62.014 Y54.286 E56.73465
G1 E54.73465 F2400.00000
G92 E0
G1 Z1.400 F7800.000
G1 X165.078 Y155.078 F7800.000
G1 Z0.400 F7800.000
G1 E2.00000 F2400.00000
G1 X74.922 Y155.078 E12.70747 F540.000
G1 X74.922 Y64.922 E23.41494
G1 X165.078 Y64.922 E34.12241
G1 X165.078 Y155.018 E44.82275
G1 X164.364 Y154.364 F7800.000
G1 X75.636 Y154.364 E55.36058 F540.000
G1 X75.636 Y65.636 E65.89842
G1 X164.364 Y65.636 E76.43625
G1 X164.364 Y154.304 E86.96696
G1 X163.650 Y153.650 F7800.000
G1 X76.350 Y153.650 E97.33516 F378.000
G1 X76.350 Y66.350 E107.70336
G1 X163.650 Y66.350 E118.07156
G1 X163.650 Y153.590 E128.43263
G1 X163.650 Y154.050 F7800.000
G1 X162.828 Y157.972 F7800.000
G1 X158.172 Y157.972 E128.98568 F540.000
G1 X158.172 Y158.972 E129.10445
G1 X132.228 Y158.972 E132.18561
G1 X132.228 Y157.972 E132.30438
G1 X127.572 Y157.972 E132.85742
G1 X127.572 Y158.972 E132.97619
G1 X122.028 Y158.972 E133.63455
G1 X122.028 Y157.972 E133.75331
G1 X117.372 Y157.972 E134.30636
G1 X117.372 Y158.972 E134.42513
G1 X111.828 Y158.972 E135.08348
G1 X111.828 Y157.972 E135.20225
G1 X107.172 Y157.972 E135.75530
G1 X107.172 Y158.972 E135.87406
G1 X81.228 Y158.972 E138.95523
G1 X81.228 Y157.972 E139.07399
G1 X76.572 Y157.972 E139.62704
G1 X76.572 Y158.972 E139.74581
G1 X71.028 Y158.972 E140.40416
G1 X71.028 Y152.828 E141.13378
G1 X72.028 Y152.828 E141.25255
G1 X72.028 Y148.172 E141.80559
G1 X71.028 Y148.172 E141.92436
G1 X71.028 Y122.228 E145.00553
G1 X72.028 Y122.228 E145.12429
G1 X72.028 Y117.572 E145.67734
G1 X71.028 Y117.572 E145.79610
G1 X71.028 Y112.028 E146.45446
G1 X72.028 Y112.028 E146.57323
G1 X72.028 Y107.372 E147.12627
G1 X71.028 Y107.372 E147.24504
G1 X71.028 Y101.828 E147.90340
G1 X72.028 Y101.828 E148.02216
G1 X72.028 Y97.172 E148.57521
G1 X71.028 Y97.172 E148.69397
G1 X71.028 Y71.228 E151.77514
G1 X72.028 Y71.228 E151.89391
G1 X72.028 Y66.572 E152.44695
G1 X71.028 Y66.572 E152.56572
G1 X71.028 Y61.028 E153.22408
G1 X76.572 Y61.028 E153.88244
G1 X76.572 Y62.028 E154.00120
G1 X81.228 Y62.028 E154.55425
G1 X81.228 Y61.028 E154.67301
G1 X107.172 Y61.028 E157.75418
G1 X107.172 Y62.028 E157.87294
G1 X111.828 Y62.028 E158.42599
G1 X111.828 Y61.028 E158.54476
G1 X117.372 Y61.028 E159.20311
G1 X117.372 Y62.028 E159.32188
G1 X122.028 Y62.028 E159.87493
G1 X122.028 Y61.028 E159.99369
G1 X127.572 Y61.028 E160.65205
G1 X127.572 Y62.028 E160.77082
G1 X132.228 Y62.028 E161.32386
G1 X132.228 Y61.028 E161.44263
G1 X158.172 Y61.028 E164.52379
G1 X158.172 Y62.028 E164.64256
G1 X162.828 Y62.028 E165.19561
G1 X162.828 Y61.028 E165.31437
G1 X168.972 Y61.028 E166.04399
G1 X168.972 Y66.572 E166.70235
G1 X167.972 Y66.572 E166.82111
G1 X167.972 Y71.228 E167.37416
G1 X168.972 Y71.228 E167.49292
G1 X168.972 Y97.172 E170.57409
G1 X167.972 Y97.172 E170.69286
G1 X167.972 Y101.828 E171.24590
G1 X168.972 Y101.828 E171.36467
G1 X168.972 Y107.372 E172.02303
G1 X167.972 Y107.372 E172.14179
G1 X167.972 Y112.028 E172.69484
G1 X168.972 Y112.028 E172.81360
G1 X168.972 Y117.572 E173.47196
G1 X167.972 Y117.572 E173.59073
G1 X167.972 Y122.228 E174.14378
G1 X168.972 Y122.228 E174.26254
G1 X168.972 Y148.172 E177.34371
G1 X167.972 Y148.172 E177.46247
G1 X167.972 Y152.828 E178.01552
G1 X168.972 Y152.828 E178.13428
G1 X168.972 Y158.972 E178.86390
G1 X162.828 Y158.972 E179.59352
G1 X162.828 Y158.032 E179.70516
G1 X162.114 Y158.686 F7800.000
G1 X158.886 Y158.686 E180.08857 F540.000
G1 X158.886 Y159.686 E180.20733
G1 X131.514 Y159.686 E183.45814
G1 X131.514 Y158.686 E183.57690
G1 X128.286 Y158.686 E183.96031
G1 X128.286 Y159.686 E184.07908
G1 X121.314 Y159.686 E184.90707
G1 X121.314 Y158.686 E185.02584
G1 X118.086 Y158.686 E185.40925
G1 X118.086 Y159.686 E185.52801
G1 X111.114 Y159.686 E186.35601
G1 X111.114 Y158.686 E186.47477
G1 X107.886 Y158.686 E186.85818
G1 X107.886 Y159.686 E186.97695
G1 X80.514 Y159.686 E190.22775
G1 X80.514 Y158.686 E190.34652
G1 X77.286 Y158.686 E190.72993
G1 X77.286 Y159.686 E190.84869
G1 X70.314 Y159.686 E191.67669
G1 X70.314 Y152.114 E192.57594
G1 X71.314 Y152.114 E192.69470
G1 X71.314 Y148.886 E193.07812
G1 X70.314 Y148.886 E193.19688
G1 X70.314 Y121.514 E196.44768
G1 X71.314 Y121.514 E196.56645
G1 X71.314 Y118.286 E196.94986
G1 X70.314 Y118.286 E197.06863
G1 X70.314 Y111.314 E197.89662
G1 X71.314 Y111.314 E198.01538
G1 X71.314 Y108.086 E198.39880
G1 X70.314 Y108.086 E198.51756
G1 X70.314 Y101.114 E199.34555
G1 X71.314 Y101.114 E199.46432
G1 X71.314 Y97.886 E199.84773
G1 X70.314 Y97.886 E199.96650
G1 X70.314 Y70.514 E203.21730
G1 X71.314 Y70.514 E203.33606
G1 X71.314 Y67.286 E203.71947
G1 X70.314 Y67.286 E203.83824
G1 X70.314 Y60.314 E204.66623
G1 X77.286 Y60.314 E205.49423
G1 X77.286 Y61.314 E205.61299
G1 X80.514 Y61.314 E205.99640
G1 X80.514 Y60.314 E206.11517
G1 X107.886 Y60.314 E209.36597
G1 X107.886 Y61.314 E209.48474
G1 X111.114 Y61.314 E209.86815
G1 X111.114 Y60.314 E209.98691
G1 X118.086 Y60.314 E210.81491
G1 X118.086 Y61.314 E210.93367
G1 X121.314 Y61.314 E211.31708
G1 X121.314 Y60.314 E211.43585
G1 X128.286 Y60.314 E212.26384
G1 X128.286 Y61.314 E212.38261
G1 X131.514 Y61.314 E212.76602
G1 X131.514 Y60.314 E212.88478
G1 X158.886 Y60.314 E216.13559
G1 X158.886 Y61.314 E216.25435
G1 X162.114 Y61.314 E216.63776
G1 X162.114 Y60.314 E216.75653
G1 X169.686 Y60.314 E217.65578
G1 X169.686 Y67.286 E218.48377
G1 X168.686 Y67.286 E218.60254
G1 X168.686 Y70.514 E218.98595
G1 X169.686 Y70.514 E219.10472
G1 X169.686 Y97.886 E222.35552
G1 X168.686 Y97.886 E222.47428
G1 X168.686 Y101.114 E222.85769
G1 X169.686 Y101.114 E222.97646
G1 X169.686 Y108.086 E223.80445
G1 X168.686 Y108.086 E223.92322
G1 X168.686 Y111.314 E224.30663
G1 X169.686 Y111.314 E224.42539
G1 X169.686 Y118.286 E225.25339
G1 X168.686 Y118.286 E225.37215
G1 X168.686 Y121.514 E225.75557
G1 X169.686 Y121.514 E225.87433
G1 X169.686 Y148.886 E229.12513
G1 X168.686 Y148.886 E229.24390
G1 X168.686 Y152.114 E229.62731
G1 X169.686 Y152.114 E229.74607
G1 X169.686 Y159.686 E230.64533
G1 X162.114 Y159.686 E231.54458
G1 X162.114 Y158.746 E231.65622
G1 X161.400 Y159.400 F7800.000
G1 X159.600 Y159.400 E231.86999 F378.000
G1 X159.600 Y160.400 E231.98876
G1 X130.800 Y160.400 E235.40920
G1 X130.800 Y159.400 E235.52796
G1 X129.000 Y159.400 E235.74174
G1 X129.000 Y160.400 E235.86050
G1 X120.600 Y160.400 E236.85813
G1 X120.600 Y159.400 E236.97690
G1 X118.800 Y159.400 E237.19067
G1 X118.800 Y160.400 E237.30944
G1 X110.400 Y160.400 E238.30707
G1 X110.400 Y159.400 E238.42583
G1 X108.600 Y159.400 E238.63961
G1 X108.600 Y160.400 E238.75837
G1 X79.800 Y160.400 E242.17881
G1 X79.800 Y159.400 E242.29758
G1 X78.000 Y159.400 E242.51135
G1 X78.000 Y160.400 E242.63012
G1 X69.600 Y160.400 E243.62775
G1 X69.600 Y151.400 E244.69663
G1 X70.600 Y151.400 E244.81540
G1 X70.600 Y149.600 E245.02918
G1 X69.600 Y149.600 E245.14794
G1 X69.600 Y120.800 E248.56838
G1 X70.600 Y120.800 E248.68714
G1 X70.600 Y119.000 E248.90092
G1 X69.600 Y119.000 E249.01968
G1 X69.600 Y110.600 E250.01731
G1 X70.600 Y110.600 E250.13608
G1 X70.600 Y108.800 E250.34985
G1 X69.600 Y108.800 E250.46862
G1 X69.600 Y100.400 E251.46625
G1 X70.600 Y100.400 E251.58501
G1 X70.600 Y98.600 E251.79879
G1 X69.600 Y98.600 E251.91756
G1 X69.600 Y69.800 E255.33799
G1 X70.600 Y69.800 E255.45676
G1 X70.600 Y68.000 E255.67053
G1 X69.600 Y68.000 E255.78930
G1 X69.600 Y59.600 E256.78693
G1 X78.000 Y59.600 E257.78456
G1 X78.000 Y60.600 E257.90332
G1 X79.800 Y60.600 E258.11710
G1 X79.800 Y59.600 E258.23586
G1 X108.600 Y59.600 E261.65630
G1 X108.600 Y60.600 E261.77507
G1 X110.400 Y60.600 E261.98884
G1 X110.400 Y59.600 E262.10761
G1 X118.800 Y59.600 E263.10524
G1 X118.800 Y60.600 E263.22400
G1 X120.600 Y60.600 E263.43778
G1 X120.600 Y59.600 E263.55654
G1 X129.000 Y59.600 E264.55417
G1 X129.000 Y60.600 E264.67294
G1 X130.800 Y60.600 E264.88671
G1 X130.800 Y59.600 E265.00548
G1 X159.600 Y59.600 E268.42591
G1 X159.600 Y60.600 E268.54468
G1 X161.400 Y60.600 E268.75846
G1 X161.400 Y59.600 E268.87722
G1 X170.400 Y59.600 E269.94611
G1 X170.400 Y68.000 E270.94374
G1 X169.400 Y68.000 E271.06250
G1 X169.400 Y69.800 E271.27628
G1 X170.400 Y69.800 E271.39504
G1 X170.400 Y98.600 E274.81548
G1 X169.400 Y98.600 E274.93425
G1 X169.400 Y100.400 E275.14802
G1 X170.400 Y100.400 E275.26679
G1 X170.400 Y108.800 E276.26442
G1 X169.400 Y108.800 E276.38318
G1 X169.400 Y110.600 E276.59696
G1 X170.400 Y110.600 E276.71572
G1 X170.400 Y119.000 E277.71335
G1 X169.400 Y119.000 E277.83212
G1 X169.400 Y120.800 E278.04589
G1 X170.400 Y120.800 E278.16466
G1 X170.400 Y149.600 E281.58510
G1 X169.400 Y149.600 E281.70386
G1 X169.400 Y151.400 E281.91764
G1 X170.400 Y151.400 E282.03640
G1 X170.400 Y160.400 E283.10529
G1 X161.400 Y160.400 E284.17418
G1 X161.400 Y159.460 E284.28582
G1 X161.400 Y159.000 F7800.000
G1 X127.528 Y157.536 F7800.000
G1 X125.505 Y155.514 E284.62646 F1080.000
G1 X126.518 Y155.514 E284.74710
G1 X128.541 Y157.536 E285.08774
G1 X129.553 Y157.536 E285.20838
G1 X127.531 Y155.514 E285.54902
G1 X128.544 Y155.514 E285.66966
G1 X130.566 Y157.536 E286.01031
G1 X131.579 Y157.536 E286.13095
G1 X129.557 Y155.514 E286.47159
G1 X130.570 Y155.514 E286.59223
G1 X133.592 Y158.536 E287.10132
G1 X134.605 Y158.536 E287.22196
G1 X131.583 Y155.514 E287.73104
G1 X132.595 Y155.514 E287.85168
G1 X135.618 Y158.536 E288.36077
G1 X136.631 Y158.536 E288.48140
G1 X133.608 Y155.514 E288.99049
G1 X134.621 Y155.514 E289.11113
G1 X137.644 Y158.536 E289.62021
G1 X138.656 Y158.536 E289.74085
G1 X135.634 Y155.514 E290.24994
G1 X136.647 Y155.514 E290.37058
G1 X139.669 Y158.536 E290.87966
G1 X140.682 Y158.536 E291.00030
G1 X137.660 Y155.514 E291.50939
G1 X138.673 Y155.514 E291.63003
G1 X141.695 Y158.536 E292.13911
G1 X142.708 Y158.536 E292.25975
G1 X139.686 Y155.514 E292.76884
G1 X140.698 Y155.514 E292.88948
G1 X143.721 Y158.536 E293.39856
G1 X144.734 Y158.536 E293.51920
G1 X141.711 Y155.514 E294.02829
G1 X142.724 Y155.514 E294.14893
G1 X145.746 Y158.536 E294.65801
G1 X146.759 Y158.536 E294.77865
G1 X143.737 Y155.514 E295.28774
G1 X144.750 Y155.514 E295.40837
G1 X147.772 Y158.536 E295.91746
G1 X148.785 Y158.536 E296.03810
G1 X145.763 Y155.514 E296.54718
G1 X146.776 Y155.514 E296.66782
G1 X149.798 Y158.536 E297.17691
G1 X150.811 Y158.536 E297.29755
G1 X147.789 Y155.514 E297.80663
G1 X148.801 Y155.514 E297.92727
G1 X151.824 Y158.536 E298.43636
G1 X152.837 Y158.536 E298.55700
G1 X149.814 Y155.514 E299.06608
G1 X150.827 Y155.514 E299.18672
G1 X153.849 Y158.536 E299.69581
G1 X154.862 Y158.536 E299.81645
G1 X151.840 Y155.514 E300.32553
G1 X152.853 Y155.514 E300.44617
G1 X155.875 Y158.536 E300.95526
G1 X156.888 Y158.536 E301.07590
G1 X153.866 Y155.514 E301.58498
G1 X154.879 Y155.514 E301.70562
G1 X157.736 Y158.371 E302.18695
G1 X157.914 Y157.536 E302.28865
G1 X155.892 Y155.514 E302.62929
G1 X156.904 Y155.514 E302.74993
G1 X158.927 Y157.536 E303.09058
G1 X159.940 Y157.536 E303.21122
G1 X157.917 Y155.514 E303.55186
G1 X158.930 Y155.514 E303.67250
G1 X160.952 Y157.536 E304.01314
G1 X161.965 Y157.536 E304.13378
G1 X159.943 Y155.514 E304.47443
G1 X160.956 Y155.514 E304.59506
G1 X163.978 Y158.536 E305.10415
G1 X164.991 Y158.536 E305.22479
G1 X161.969 Y155.514 E305.73387
G1 X162.982 Y155.514 E305.85451
G1 X166.004 Y158.536 E306.36360
G1 X167.017 Y158.536 E306.48424
G1 X163.994 Y155.514 E306.99332
G1 X165.007 Y155.514 E307.11396
G1 X168.030 Y158.536 E307.62305
G1 X168.536 Y158.030 E307.70835
G1 X165.514 Y155.007 E308.21744
G1 X165.514 Y153.995 E308.33808
G1 X168.536 Y157.017 E308.84716
G1 X168.536 Y156.004 E308.96780
G1 X165.514 Y152.982 E309.47689
G1 X165.514 Y151.969 E309.59753
G1 X168.536 Y154.991 E310.10661
G1 X168.536 Y153.978 E310.22725
G1 X165.514 Y150.956 E310.73634
G1 X165.514 Y149.943 E310.85698
G1 X167.536 Y151.965 E311.19762
G1 X167.536 Y150.953 E311.31826
G1 X165.514 Y148.930 E311.65890
G1 X165.514 Y147.917 E311.77954
G1 X167.536 Y149.940 E312.12018
G1 X167.536 Y148.927 E312.24082
G1 X165.514 Y146.904 E312.58147
G1 X165.514 Y145.892 E312.70211
G1 X167.536 Y147.914 E313.04275
G1 X168.371 Y147.736 E313.14445
G1 X165.514 Y144.879 E313.62576
G1 X165.514 Y143.866 E313.74640
G1 X168.536 Y146.888 E314.25549
G1 X168.536 Y145.875 E314.37613
G1 X165.514 Y142.853 E314.88521
G1 X165.514 Y141.840 E315.00585
G1 X168.536 Y144.862 E315.51494
G1 X168.536 Y143.850 E315.63558
G1 X165.514 Y140.827 E316.14466
G1 X165.514 Y139.814 E316.26530
G1 X168.536 Y142.837 E316.77439
G1 X168.536 Y141.824 E316.89503
G1 X165.514 Y138.801 E317.40411
G1 X165.514 Y137.789 E317.52475
G1 X168.536 Y140.811 E318.03383
G1 X168.536 Y139.798 E318.15447
G1 X165.514 Y136.776 E318.66356
G1 X165.514 Y135.763 E318.78420
G1 X168.536 Y138.785 E319.29328
G1 X168.536 Y137.772 E319.41392
G1 X165.514 Y134.750 E319.92301
G1 X165.514 Y133.737 E320.04365
G1 X168.536 Y136.759 E320.55273
G1 X168.536 Y135.747 E320.67337
G1 X165.514 Y132.724 E321.18246
G1 X165.514 Y131.711 E321.30310
G1 X168.536 Y134.734 E321.81218
G1 X168.536 Y133.721 E321.93282
G1 X165.514 Y130.698 E322.44191
G1 X165.514 Y129.686 E322.56255
G1 X168.536 Y132.708 E323.07163
G1 X168.536 Y131.695 E323.19227
G1 X165.514 Y128.673 E323.70136
G1 X165.514 Y127.660 E323.82200
G1 X168.536 Y130.682 E324.33108
G1 X168.536 Y129.669 E324.45172
G1 X165.514 Y126.647 E324.96081
G1 X165.514 Y125.634 E325.08145
G1 X168.536 Y128.656 E325.59053
G1 X168.536 Y127.644 E325.71117
G1 X165.514 Y124.621 E326.22026
G1 X165.514 Y123.608 E326.34090
G1 X168.536 Y126.631 E326.84998
G1 X168.536 Y125.618 E326.97062
G1 X165.514 Y122.595 E327.47971
G1 X165.514 Y121.583 E327.60034
G1 X168.536 Y124.605 E328.10943
G1 X168.536 Y123.592 E328.23007
G1 X165.514 Y120.570 E328.73915
G1 X165.514 Y119.557 E328.85979
G1 X167.536 Y121.579 E329.20044
G1 X167.536 Y120.566 E329.32108
G1 X165.514 Y118.544 E329.66173
G1 X165.514 Y117.531 E329.78236
G1 X167.536 Y119.553 E330.12301
G1 X167.536 Y118.541 E330.24365
G1 X165.514 Y116.518 E330.58429
G1 X165.514 Y115.505 E330.70493
G1 X167.536 Y117.528 E331.04557
G1 X168.157 Y117.136 F7800.000
G1 X165.514 Y114.493 E331.49087 F1080.000
G1 X165.514 Y113.480 E331.61151
G1 X168.536 Y116.502 E332.12060
G1 X168.536 Y115.489 E332.24123
G1 X165.514 Y112.467 E332.75032
G1 X165.514 Y111.454 E332.87096
G1 X168.536 Y114.476 E333.38004
G1 X168.536 Y113.463 E333.50068
G1 X165.514 Y110.441 E334.00977
