; generated by Slic3r 1.2.9 on 2016-12-13 at 18:13:07

; external perimeters extrusion width = 0.35mm
; perimeters extrusion width = 0.52mm
; infill extrusion width = 0.52mm
; solid infill extrusion width = 0.52mm
; top infill extrusion width = 0.52mm

M190 S60 ; set bed temperature
M104 S210 ; set temperature
G28 ; home all axes
G1 Z5 F5000 ; lift nozzle

M109 S210 ; wait for temperature to be reached
G21 ; set units to millimeters
G90 ; use absolute coordinates
M82 ; use absolute distances for extrusion
G92 E0
M106 S255
G1 E-2.00000 F2400.00000
G92 E0
G1 Z1.000 F6000.000
G1 X100.429 Y55.061 F6000.000
G1 Z0.350 F6000.000
G1 E2.00000 F2400.00000
G1 X102.238 Y53.167 E2.19053 F1347.880
G1 X104.531 Y51.902 E2.38105
G1 X107.500 Y51.375 E2.60038
G1 X132.500 Y51.375 E4.41897
G1 X135.089 Y51.773 E4.60950
G1 X137.439 Y52.929 E4.80003 F1347.880
G1 X139.333 Y54.738 E4.99055
G1 X140.598 Y57.031 E5.18108
G1 X141.125 Y60.000 E5.40041
G1 X141.125 Y160.000 E12.67478
G1 X140.727 Y162.589 E12.86530
G1 X139.571 Y164.939 E13.05583
G1 X137.762 Y166.833 E13.24635
G1 X135.469 Y168.098 E13.43688
G1 X132.500 Y168.625 E13.65621
G1 X107.500 Y168.625 E15.47480
G1 X104.911 Y168.227 E15.66533
G1 X102.561 Y167.071 E15.85586
G1 X100.667 Y165.262 E16.04638
G1 X99.402 Y162.969 E16.23691
G1 X98.875 Y160.000 E16.45624
G1 X98.875 Y60.000 E23.73061
G1 X99.273 Y57.411 E23.92113
G1 X100.406 Y55.108 E24.10784
G1 E22.10784 F2400.00000
G92 E0
G1 Z1.350 F6000.000
G1 X121.650 Y155.493 F6000.000
G1 Z0.350 F6000.000
G1 E2.00000 F2400.00000
G1 X121.823 Y155.932 E2.03433 F1347.880
G1 X121.879 Y156.369 E2.06639
G1 X121.860 Y156.666 E2.08802
G1 X121.758 Y157.063 E2.11783
G1 X121.632 Y157.332 E2.13946
G1 X121.391 Y157.664 E2.16928
G1 X121.174 Y157.867 E2.19092
G1 X120.828 Y158.087 E2.22072
G1 X120.551 Y158.196 E2.24235
G1 X120.118 Y158.279 E2.27444
G1 X119.678 Y158.251 E2.30649
G1 X119.390 Y158.177 E2.32814
G1 X119.019 Y158.003 E2.35795
G1 X118.804 Y157.846 E2.37733
G1 X118.609 Y157.664 E2.39674
G1 X118.350 Y157.307 E2.42882
G1 X118.177 Y156.868 E2.46314
G1 X118.121 Y156.431 E2.49521
G1 X118.140 Y156.134 E2.51684
G1 X118.242 Y155.737 E2.54664
G1 X118.368 Y155.468 E2.56827
G1 X118.609 Y155.136 E2.59810
G1 X118.826 Y154.933 E2.61974
G1 X119.198 Y154.697 E2.65181
G1 X119.618 Y154.560 E2.68389
G1 X119.913 Y154.523 E2.70552 F1347.880
G1 X120.322 Y154.549 E2.73534
G1 X120.604 Y154.621 E2.75650
G1 X120.926 Y154.768 E2.78224
G1 X121.185 Y154.943 E2.80497
G1 X121.391 Y155.136 E2.82554
G1 X121.619 Y155.451 E2.85380
G1 X121.098 Y155.796 F6000.000
G1 X121.213 Y156.088 E2.87664 F1347.880
G1 X121.251 Y156.389 E2.89867
G1 X121.240 Y156.568 E2.91171
G1 X121.168 Y156.850 E2.93292
G1 X121.091 Y157.013 E2.94596
G1 X120.920 Y157.249 E2.96719
G1 X120.789 Y157.371 E2.98023
G1 X120.543 Y157.527 E3.00144
G1 X120.376 Y157.594 E3.01448
G1 X120.079 Y157.650 E3.03652
G1 X119.776 Y157.631 E3.05854
G1 X119.603 Y157.587 E3.07159
G1 X119.339 Y157.463 E3.09281
G1 X119.203 Y157.364 E3.10504
G1 X119.080 Y157.249 E3.11728
G1 X118.902 Y157.004 E3.13931
G1 X118.787 Y156.711 E3.16216
G1 X118.749 Y156.411 E3.18418
G1 X118.760 Y156.232 E3.19722
G1 X118.832 Y155.950 E3.21844
G1 X118.909 Y155.787 E3.23148
G1 X119.080 Y155.551 E3.25270
G1 X119.211 Y155.429 E3.26574
G1 X119.467 Y155.267 E3.28777
G1 X119.755 Y155.173 E3.30981
G1 X119.933 Y155.150 E3.32285 F1347.880
G1 X120.224 Y155.169 E3.34407
G1 X120.395 Y155.213 E3.35694
G1 X120.619 Y155.315 E3.37486
G1 X120.793 Y155.432 E3.39012
G1 X120.920 Y155.551 E3.40278
G1 X121.067 Y155.754 E3.42099
G1 X121.411 Y155.816 F6000.000
G1 E1.42099 F2400.00000
G92 E0
G1 Z1.350 F6000.000
G1 X118.113 Y156.639 F6000.000
G1 X116.155 Y156.038 F6000.000
G1 X115.700 Y155.725 F6000.000
G1 X115.700 Y158.000 F6000.000
G1 X114.700 Y158.000 F6000.000
G1 X115.100 Y157.400 F6000.000
G1 Z0.350 F6000.000
G1 E2.00000 F2400.00000
G1 X115.100 Y158.400 E2.07274 F1347.880
G1 X109.100 Y158.400 E2.50924
G1 X109.100 Y153.400 E2.87299
G1 X110.100 Y153.400 E2.94573
G1 X110.100 Y149.822 E3.20600
G1 X110.680 Y149.971 E3.24956
G1 X111.207 Y150.004 E3.28798
G1 X111.619 Y149.952 E3.31820
G1 X112.170 Y149.773 E3.36034
G1 X112.659 Y149.463 E3.40244
G1 X112.961 Y149.179 E3.43267
G1 X113.191 Y148.863 E3.46110
G1 X113.450 Y148.947 E3.48091
G1 X113.450 Y154.050 E3.85212
G1 X118.547 Y154.050 E4.22286
G1 X118.625 Y154.320 E4.24334
G1 X118.442 Y154.437 E4.25916
G1 X118.138 Y154.721 E4.28941
G1 X117.828 Y155.149 E4.32783
G1 X117.651 Y155.525 E4.35806
G1 X117.520 Y156.036 E4.39645
G1 X117.494 Y156.451 E4.42668
G1 X117.566 Y157.025 E4.46877
G1 X117.715 Y157.400 E4.49815
G1 X115.153 Y157.400 E4.68454
G1 E2.68454 F2400.00000
G92 E0
G1 Z1.350 F6000.000
G1 X111.902 Y149.203 F6000.000
G1 Z0.350 F6000.000
G1 E2.00000 F2400.00000
G1 X111.482 Y149.340 E2.03209 F1347.880
G1 X111.187 Y149.377 E2.05372
G1 X110.778 Y149.351 E2.08354
G1 X110.490 Y149.277 E2.10518
G1 X110.119 Y149.103 E2.13496
G1 X109.891 Y148.937 E2.15552
G1 X109.670 Y148.716 E2.17824
G1 X109.448 Y148.401 E2.20628
G1 X109.276 Y147.968 E2.24013
G1 X109.217 Y147.500 E2.27445
G1 X109.273 Y147.063 E2.30653
G1 X109.355 Y146.809 E2.32591
G1 X109.468 Y146.568 E2.34530
G1 X109.709 Y146.236 E2.37512
G1 X109.926 Y146.033 E2.39675
G1 X110.298 Y145.797 E2.42882
G1 X110.718 Y145.660 E2.46091
G1 X111.013 Y145.623 E2.48254 F1347.880
G1 X111.422 Y145.649 E2.51236
G1 X111.710 Y145.723 E2.53399
G1 X112.081 Y145.897 E2.56377
G1 X112.296 Y146.054 E2.58318
G1 X112.491 Y146.236 E2.60257
G1 X112.750 Y146.593 E2.63464
G1 X112.923 Y147.032 E2.66897
G1 X112.979 Y147.469 E2.70104
G1 X112.960 Y147.766 E2.72267
G1 X112.858 Y148.163 E2.75248
G1 X112.732 Y148.432 E2.77411
G1 X112.491 Y148.764 E2.80393
G1 X112.274 Y148.967 E2.82557
G1 X111.946 Y149.175 E2.85381
G1 X111.633 Y148.633 F6000.000
G1 X111.345 Y148.727 E2.87585 F1347.880
G1 X111.167 Y148.750 E2.88889
G1 X110.876 Y148.731 E2.91012
G1 X110.703 Y148.687 E2.92315
G1 X110.439 Y148.563 E2.94436
G1 X110.298 Y148.460 E2.95701
G1 X110.150 Y148.312 E2.97228
G1 X110.001 Y148.101 E2.99102
G1 X109.887 Y147.812 E3.01370
G1 X109.847 Y147.500 E3.03654
G1 X109.885 Y147.200 E3.05857
G1 X110.009 Y146.887 E3.08298
G1 X110.180 Y146.651 E3.10421
G1 X110.311 Y146.529 E3.11725
G1 X110.567 Y146.367 E3.13927
G1 X110.855 Y146.273 E3.16131
G1 X111.032 Y146.250 E3.17435 F1347.880
G1 X111.324 Y146.269 E3.19558
G1 X111.497 Y146.313 E3.20861
G1 X111.761 Y146.437 E3.22982
G1 X112.020 Y146.651 E3.25424
G1 X112.198 Y146.896 E3.27628
G1 X112.313 Y147.188 E3.29912
G1 X112.351 Y147.489 E3.32115
G1 X112.340 Y147.668 E3.33419
G1 X112.268 Y147.950 E3.35541
G1 X112.191 Y148.113 E3.36845
G1 X112.020 Y148.349 E3.38967
G1 X111.889 Y148.471 E3.40271
G1 X111.678 Y148.605 E3.42092
G1 X111.595 Y148.934 F6000.000
G1 E1.42092 F2400.00000
G92 E0
G1 Z1.350 F6000.000
G1 X112.767 Y148.416 F6000.000
G1 X111.502 Y155.037 F6000.000
G1 X120.119 Y153.976 F6000.000
G1 X122.039 Y154.403 F6000.000
G1 X123.404 Y155.169 F6000.000
G1 X124.402 Y155.972 F6000.000
G1 X125.950 Y155.725 F6000.000
G1 X125.950 Y153.450 F6000.000
G1 X126.550 Y154.050 F6000.000
G1 Z0.350 F6000.000
G1 E2.00000 F2400.00000
G1 X126.550 Y148.947 E2.37121 F1347.880
G1 X126.809 Y148.863 E2.39102
G1 X127.038 Y149.179 E2.41944
G1 X127.342 Y149.463 E2.44969
G1 X127.788 Y149.746 E2.48811
G1 X128.126 Y149.880 E2.51459
G1 X128.480 Y149.971 E2.54115
G1 X129.007 Y150.004 E2.57957
G1 X129.419 Y149.952 E2.60979
G1 X129.900 Y149.796 E2.64661
G1 X129.900 Y153.400 E2.90877
G1 X130.900 Y153.400 E2.98151
G1 X130.900 Y158.400 E3.34526
G1 X129.500 Y158.400 E3.44713
G1 X129.500 Y157.400 E3.51988
G1 X125.300 Y157.400 E3.82537
G1 X125.300 Y158.400 E3.89811
G1 X121.519 Y158.400 E4.17316
G1 X121.862 Y158.079 E4.20732
G1 X122.172 Y157.651 E4.24574
G1 X122.349 Y157.275 E4.27597
G1 X122.480 Y156.764 E4.31436
G1 X122.506 Y156.349 E4.34459
G1 X122.434 Y155.775 E4.38669
G1 X122.202 Y155.190 E4.43249
G1 X121.862 Y154.721 E4.47461
G1 X121.576 Y154.453 E4.50309
G1 X121.372 Y154.315 E4.52106
G1 X121.453 Y154.050 E4.54123
G1 X126.497 Y154.050 E4.90817
G1 E2.90817 F2400.00000
G92 E0
G1 Z1.350 F6000.000
G1 X128.320 Y149.285 F6000.000
G1 Z0.350 F6000.000
G1 E2.00000 F2400.00000
G1 X128.072 Y149.187 E2.01935 F1347.880
G1 X127.726 Y148.967 E2.04917
G1 X127.509 Y148.764 E2.07082
G1 X127.250 Y148.407 E2.10289
G1 X127.077 Y147.968 E2.13722
G1 X127.021 Y147.531 E2.16928
G1 X127.040 Y147.234 E2.19092
G1 X127.142 Y146.837 E2.22072
G1 X127.268 Y146.568 E2.24235
G1 X127.509 Y146.236 E2.27218
G1 X127.726 Y146.033 E2.29382
G1 X128.098 Y145.797 E2.32588
G1 X128.518 Y145.660 E2.35797
G1 X128.813 Y145.623 E2.37960 F1347.880
G1 X129.222 Y145.649 E2.40942
G1 X129.480 Y145.715 E2.42882
G1 X129.728 Y145.813 E2.44817
G1 X130.074 Y146.033 E2.47799
G1 X130.291 Y146.236 E2.49963
G1 X130.550 Y146.593 E2.53171
G1 X130.723 Y147.032 E2.56604
G1 X130.779 Y147.469 E2.59810
G1 X130.760 Y147.766 E2.61973
G1 X130.658 Y148.163 E2.64954
G1 X130.532 Y148.432 E2.67117
G1 X130.291 Y148.764 E2.70099
G1 X130.074 Y148.967 E2.72263
G1 X129.702 Y149.203 E2.75470
G1 X129.282 Y149.340 E2.78679
G1 X128.987 Y149.377 E2.80841
G1 X128.578 Y149.351 E2.83823
G1 X128.371 Y149.298 E2.85381
G1 X128.513 Y148.689 F6000.000
G1 X128.357 Y148.628 E2.86603 F1347.880
G1 X128.111 Y148.471 E2.88725
G1 X127.980 Y148.349 E2.90030
G1 X127.802 Y148.104 E2.92233
G1 X127.687 Y147.812 E2.94517
G1 X127.649 Y147.511 E2.96720
G1 X127.660 Y147.332 E2.98024
G1 X127.732 Y147.050 E3.00146
G1 X127.809 Y146.887 E3.01450
G1 X127.980 Y146.651 E3.03572
G1 X128.111 Y146.529 E3.04876
G1 X128.367 Y146.367 E3.07079
G1 X128.655 Y146.273 E3.09284
G1 X128.833 Y146.250 E3.10587 F1347.880
G1 X129.124 Y146.269 E3.12709
G1 X129.443 Y146.372 E3.15150
G1 X129.689 Y146.529 E3.17272
G1 X129.820 Y146.651 E3.18576
G1 X129.998 Y146.896 E3.20780
G1 X130.113 Y147.188 E3.23064
G1 X130.151 Y147.489 E3.25267
G1 X130.140 Y147.668 E3.26571
G1 X130.068 Y147.950 E3.28693
G1 X129.991 Y148.113 E3.29996
G1 X129.820 Y148.349 E3.32119
G1 X129.689 Y148.471 E3.33423
G1 X129.433 Y148.633 E3.35626
G1 X129.145 Y148.727 E3.37830
G1 X128.967 Y148.750 E3.39133
G1 X128.676 Y148.731 E3.41256
G1 X128.564 Y148.702 E3.42097
G1 X128.386 Y148.799 F6000.000
G1 E1.42097 F2400.00000
G92 E0
G1 Z1.350 F6000.000
G1 X129.256 Y145.632 F6000.000
G1 X129.669 Y144.030 F6000.000
G1 X129.868 Y144.104 F6000.000
G1 X130.500 Y143.600 F6000.000
G1 X129.900 Y143.200 F6000.000
G1 Z0.350 F6000.000
G1 E2.00000 F2400.00000
G1 X130.900 Y143.200 E2.07274 F1347.880
G1 X130.900 Y145.952 E2.27292
G1 X130.458 Y145.537 E2.31701
G1 X130.012 Y145.254 E2.35543
G1 X129.674 Y145.120 E2.38192
G1 X129.320 Y145.029 E2.40847
G1 X128.793 Y144.996 E2.44689
G1 X128.381 Y145.048 E2.47711
G1 X127.830 Y145.227 E2.51924
G1 X127.342 Y145.537 E2.56134
G1 X127.038 Y145.821 E2.59159
G1 X126.809 Y146.137 E2.62001
G1 X126.550 Y146.053 E2.63982
G1 X126.550 Y123.947 E4.24792
G1 X126.809 Y123.863 E4.26774
G1 X127.038 Y124.179 E4.29616
G1 X127.342 Y124.463 E4.32640
G1 X127.788 Y124.746 E4.36483
G1 X128.126 Y124.880 E4.39131
G1 X128.480 Y124.971 E4.41786
G1 X129.007 Y125.004 E4.45628
G1 X129.419 Y124.952 E4.48651
G1 X129.970 Y124.773 E4.52863
G1 X130.458 Y124.463 E4.57073
G1 X130.900 Y124.048 E4.61482
G1 X130.900 Y128.800 E4.96049
G1 X129.900 Y128.800 E5.03323
G1 X129.900 Y133.000 E5.33872
G1 X130.900 Y133.000 E5.41147
G1 X130.900 Y139.000 E5.84796
G1 X129.900 Y139.000 E5.92070
G1 X129.900 Y143.147 E6.22238
G1 E4.22238 F2400.00000
G92 E0
G1 Z1.350 F6000.000
G1 X128.987 Y124.377 F6000.000
G1 Z0.350 F6000.000
G1 E2.00000 F2400.00000
G1 X128.578 Y124.351 E2.02982 F1347.880
G1 X128.320 Y124.285 E2.04922
G1 X128.072 Y124.187 E2.06857
G1 X127.726 Y123.967 E2.09839
G1 X127.509 Y123.764 E2.12004
G1 X127.250 Y123.407 E2.15211
G1 X127.077 Y122.968 E2.18644
G1 X127.021 Y122.531 E2.21850
G1 X127.040 Y122.234 E2.24014
G1 X127.142 Y121.837 E2.26994
G1 X127.268 Y121.568 E2.29157
G1 X127.509 Y121.236 E2.32140
G1 X127.726 Y121.033 E2.34304
G1 X128.098 Y120.797 E2.37510
G1 X128.518 Y120.660 E2.40719
G1 X128.813 Y120.623 E2.42882 F1347.880
G1 X129.222 Y120.649 E2.45864
G1 X129.480 Y120.715 E2.47803
G1 X129.728 Y120.813 E2.49738
G1 X130.074 Y121.033 E2.52721
G1 X130.291 Y121.236 E2.54885
G1 X130.550 Y121.593 E2.58093
G1 X130.723 Y122.032 E2.61525
G1 X130.779 Y122.469 E2.64732
G1 X130.760 Y122.766 E2.66895
G1 X130.658 Y123.163 E2.69876
G1 X130.532 Y123.432 E2.72039
G1 X130.291 Y123.764 E2.75021
G1 X130.074 Y123.967 E2.77185
G1 X129.702 Y124.203 E2.80392
G1 X129.282 Y124.340 E2.83600
G1 X129.039 Y124.370 E2.85381
G1 X128.967 Y123.750 F6000.000
G1 X128.676 Y123.731 E2.87503 F1347.880
G1 X128.513 Y123.689 E2.88727
G1 X128.357 Y123.628 E2.89949
G1 X128.111 Y123.471 E2.92071
G1 X127.980 Y123.349 E2.93375
G1 X127.802 Y123.104 E2.95579
G1 X127.687 Y122.812 E2.97863
G1 X127.649 Y122.511 E3.00066
G1 X127.660 Y122.332 E3.01370
G1 X127.732 Y122.050 E3.03492
G1 X127.809 Y121.887 E3.04796
G1 X127.980 Y121.651 E3.06918
G1 X128.111 Y121.529 E3.08222
G1 X128.367 Y121.367 E3.10425
G1 X128.655 Y121.273 E3.12629
G1 X128.833 Y121.250 E3.13933 F1347.880
G1 X129.124 Y121.269 E3.16055
G1 X129.443 Y121.372 E3.18495
G1 X129.689 Y121.529 E3.20618
G1 X129.820 Y121.651 E3.21922
G1 X129.998 Y121.896 E3.24126
G1 X130.113 Y122.188 E3.26410
G1 X130.151 Y122.489 E3.28613
G1 X130.140 Y122.668 E3.29917
G1 X130.068 Y122.950 E3.32039
G1 X129.991 Y123.113 E3.33342
G1 X129.820 Y123.349 E3.35465
G1 X129.689 Y123.471 E3.36769
G1 X129.433 Y123.633 E3.38972
G1 X129.145 Y123.727 E3.41176
G1 X129.020 Y123.743 E3.42097
G1 X128.822 Y124.002 F6000.000
G1 E1.42097 F2400.00000
G92 E0
G1 Z1.350 F6000.000
G1 X127.131 Y123.200 F6000.000
G1 X126.518 Y146.852 F6000.000
G1 X126.982 Y149.718 F6000.000
G1 X127.840 Y151.139 F6000.000
G1 X125.900 Y155.725 F6000.000
G1 X119.815 Y153.978 F6000.000
G1 X115.880 Y155.725 F6000.000
G1 X111.775 Y152.800 F6000.000
G1 X113.482 Y146.852 F6000.000
G1 X112.485 Y144.324 F6000.000
G1 X111.775 Y139.600 F6000.000
G1 X111.775 Y132.400 F6000.000
G1 X109.500 Y129.400 F6000.000
G1 X109.500 Y128.400 F6000.000
G1 X110.100 Y128.800 F6000.000
G1 Z0.350 F6000.000
G1 E2.00000 F2400.00000
G1 X109.100 Y128.800 E2.07274 F1347.880
G1 X109.100 Y124.048 E2.41841
G1 X109.505 Y124.429 E2.45881
G1 X109.800 Y124.643 E2.48538
G1 X110.277 Y124.868 E2.52373
G1 X110.680 Y124.971 E2.55396
G1 X111.207 Y125.004 E2.59238
G1 X111.619 Y124.952 E2.62261
G1 X112.170 Y124.773 E2.66474
G1 X112.659 Y124.463 E2.70684
G1 X112.961 Y124.179 E2.73708
G1 X113.191 Y123.863 E2.76550
G1 X113.450 Y123.947 E2.78532
G1 X113.450 Y146.053 E4.39342
G1 X113.191 Y146.137 E4.41324
G1 X112.961 Y145.821 E4.44166
G1 X112.695 Y145.571 E4.46821
G1 X112.400 Y145.357 E4.49478
G1 X111.923 Y145.132 E4.53313
G1 X111.520 Y145.029 E4.56336
G1 X110.993 Y144.996 E4.60178
G1 X110.581 Y145.048 E4.63201
G1 X110.030 Y145.227 E4.67414
G1 X109.541 Y145.537 E4.71624
G1 X109.100 Y145.952 E4.76033
G1 X109.100 Y143.200 E4.96051
G1 X110.100 Y143.200 E5.03325
G1 X110.100 Y139.000 E5.33874
G1 X109.100 Y139.000 E5.41149
G1 X109.100 Y133.000 E5.84798
G1 X110.100 Y133.000 E5.92072
G1 X110.100 Y128.853 E6.22240
G1 E4.22240 F2400.00000
G92 E0
G1 Z1.350 F6000.000
G1 X110.778 Y124.351 F6000.000
G1 Z0.350 F6000.000
G1 E2.00000 F2400.00000
G1 X110.490 Y124.277 E2.02163 F1347.880
G1 X110.119 Y124.103 E2.05142
G1 X109.904 Y123.946 E2.07082
G1 X109.709 Y123.764 E2.09021
G1 X109.450 Y123.407 E2.12228
G1 X109.276 Y122.968 E2.15661
G1 X109.217 Y122.500 E2.19094
G1 X109.273 Y122.063 E2.22301
G1 X109.355 Y121.809 E2.24239
G1 X109.468 Y121.568 E2.26178
G1 X109.709 Y121.236 E2.29160
G1 X109.926 Y121.033 E2.31324
G1 X110.298 Y120.797 E2.34530
