; generated by Slic3r 1.2.9 on 2016-02-20 at 14:45:51

; external perimeters extrusion width = 0.40mm
; perimeters extrusion width = 0.67mm
; infill extrusion width = 0.67mm
; solid infill extrusion width = 0.67mm
; top infill extrusion width = 0.67mm

M190 S60 ; set bed temperature
M104 S210 ; set temperature
G28 ; home all axes
G1 Z5 F5000 ; lift nozzle

M109 S210 ; wait for temperature to be reached
G21 ; set units to millimeters
G90 ; use absolute coordinates
M82 ; use absolute distances for extrusion
G92 E0
M106 S255
G1 E-2.00000 F2400.00000
G92 E0
G1 Z0.200 F7800.000
G1 Z0.400 F7800.000
G1 Z0.600 F7800.000
G1 X79.651 Y78.121 F7800.000
G1 Z0.400 F7800.000
G1 E2.00000 F2400.00000
G1 X81.949 Y76.837 E2.31268 F1200.000
G1 X85.000 Y76.286 E2.68087
G1 X135.000 Y76.286 E8.61913
G1 X137.603 Y76.684 E8.93180
G1 X139.968 Y77.840 E9.24448 F1200.000
G1 X141.879 Y79.651 E9.55716
G1 X143.163 Y81.949 E9.86984
G1 X143.714 Y85.000 E10.23803
G1 X143.714 Y135.000 E16.17629
G1 X143.316 Y137.603 E16.48896
G1 X142.160 Y139.968 E16.80164
G1 X140.349 Y141.879 E17.11432
G1 X138.051 Y143.163 E17.42700
G1 X135.000 Y143.714 E17.79519
G1 X85.000 Y143.714 E23.73345
G1 X82.397 Y143.316 E24.04613
G1 X80.032 Y142.160 E24.35880
G1 X78.121 Y140.349 E24.67148
G1 X76.837 Y138.051 E24.98416
G1 X76.286 Y135.000 E25.35235
G1 X76.286 Y85.000 E31.29061
G1 X76.684 Y82.397 E31.60329
G1 X77.840 Y80.032 E31.91596
G1 X79.609 Y78.165 E32.22152
G1 E30.22152 F2400.00000
G92 E0
G1 Z0.600 F7800.000
G1 X98.635 Y132.038 F7800.000
G1 Z0.400 F7800.000
G1 E2.00000 F2400.00000
G1 X98.457 Y132.282 E2.03578 F1200.000
G1 X98.320 Y132.411 E2.05819
G1 X98.066 Y132.572 E2.09395
G1 X97.890 Y132.642 E2.11636
G1 X97.582 Y132.701 E2.15365
G1 X97.269 Y132.681 E2.19092
G1 X97.086 Y132.634 E2.21334
G1 X96.813 Y132.506 E2.24910
G1 X96.543 Y132.282 E2.29084
G1 X96.358 Y132.028 E2.32813
G1 X96.238 Y131.724 E2.36693
G1 X96.198 Y131.413 E2.40420
G1 X96.210 Y131.224 E2.42661
G1 X96.285 Y130.933 E2.46238
G1 X96.365 Y130.762 E2.48478
G1 X96.543 Y130.518 E2.52056
G1 X96.680 Y130.389 E2.54298
G1 X96.934 Y130.228 E2.57873
G1 X97.110 Y130.158 E2.60114
G1 X97.418 Y130.099 E2.63844 F1200.000
G1 X97.731 Y130.119 E2.67571
G1 X97.914 Y130.166 E2.69813
G1 X98.187 Y130.294 E2.73389
G1 X98.457 Y130.518 E2.77563
G1 X98.642 Y130.772 E2.81292
G1 X98.762 Y131.076 E2.85171
G1 X98.802 Y131.387 E2.88899
G1 X98.790 Y131.576 E2.91140
G1 X98.715 Y131.867 E2.94716
G1 X98.660 Y131.984 E2.96244
G1 X98.774 Y132.305 F7800.000
G1 X120.481 Y131.435 F7800.000
G1 X120.502 Y131.112 E3.00089 F1200.000
G1 X120.610 Y130.690 E3.05268
G1 X120.748 Y130.397 E3.09112
G1 X121.004 Y130.044 E3.14294
G1 X121.240 Y129.822 E3.18141
G1 X121.609 Y129.589 E3.23317
G1 X121.909 Y129.469 E3.27162
G1 X122.373 Y129.381 E3.32766 F1200.000
G1 X122.843 Y129.411 E3.38364
G1 X123.157 Y129.491 E3.42212
G1 X123.552 Y129.677 E3.47390
G1 X123.785 Y129.846 E3.50815
G1 X123.996 Y130.044 E3.54245
G1 X124.273 Y130.425 E3.59847
G1 X124.459 Y130.897 E3.65870
G1 X124.519 Y131.365 E3.71470
G1 X124.498 Y131.688 E3.75314
G1 X124.390 Y132.110 E3.80493
G1 X124.252 Y132.403 E3.84337
G1 X123.996 Y132.756 E3.89519
G1 X123.810 Y132.930 E3.92543
G1 X123.819 Y132.940 E3.92699
G1 X123.391 Y133.211 E3.98709
G1 X123.091 Y133.331 E4.02553
G1 X122.627 Y133.419 E4.08158
G1 X122.157 Y133.389 E4.13756
G1 X121.843 Y133.309 E4.17604
G1 X121.448 Y133.123 E4.22782
G1 X121.215 Y132.954 E4.26207
G1 X121.004 Y132.756 E4.29637
G1 X120.727 Y132.375 E4.35239
G1 X120.541 Y131.903 E4.41261
G1 X120.489 Y131.495 E4.46149
G1 X121.198 Y131.413 F7800.000
G1 X121.210 Y131.224 E4.48389 F1200.000
G1 X121.285 Y130.933 E4.51966
G1 X121.365 Y130.762 E4.54207
G1 X121.543 Y130.518 E4.57784
G1 X121.680 Y130.389 E4.60026
G1 X121.934 Y130.228 E4.63602
G1 X122.110 Y130.158 E4.65843
G1 X122.418 Y130.099 E4.69572 F1200.000
G1 X122.731 Y130.119 E4.73299
G1 X122.914 Y130.166 E4.75541
G1 X123.187 Y130.294 E4.79117
G1 X123.457 Y130.518 E4.83291
G1 X123.642 Y130.772 E4.87020
G1 X123.762 Y131.076 E4.90899
G1 X123.802 Y131.387 E4.94627
G1 X123.790 Y131.576 E4.96868
G1 X123.715 Y131.867 E5.00444
G1 X123.635 Y132.038 E5.02685
G1 X123.457 Y132.282 E5.06263
G1 X123.320 Y132.411 E5.08504
G1 X123.066 Y132.572 E5.12080
G1 X122.890 Y132.642 E5.14321
G1 X122.582 Y132.701 E5.18050
G1 X122.269 Y132.681 E5.21777
G1 X122.086 Y132.634 E5.24019
G1 X121.813 Y132.506 E5.27596
G1 X121.543 Y132.282 E5.31770
G1 X121.358 Y132.028 E5.35498
G1 X121.238 Y131.724 E5.39378
G1 X121.206 Y131.472 E5.42393
G1 X121.035 Y131.318 F7800.000
G1 E3.42393 F2400.00000
G92 E0
G1 Z0.600 F7800.000
G1 X123.712 Y129.934 F7800.000
G1 X128.943 Y131.203 F7800.000
G1 X130.177 Y125.914 F7800.000
G1 X129.667 Y125.091 F7800.000
G1 X129.482 Y124.718 F7800.000
G1 X129.378 Y124.478 F7800.000
G1 X130.013 Y123.802 F7800.000
G1 X129.904 Y123.856 F7800.000
G1 Z0.400 F7800.000
G1 E2.00000 F2400.00000
G1 X129.627 Y123.475 E2.05602 F1200.000
G1 X129.441 Y123.003 E2.11625
G1 X129.381 Y122.535 E2.17225
G1 X129.402 Y122.212 E2.21069
G1 X129.510 Y121.790 E2.26248
G1 X129.648 Y121.497 E2.30092
G1 X129.904 Y121.144 E2.35274
G1 X130.140 Y120.922 E2.39121
G1 X130.539 Y120.670 E2.44721
G1 X130.987 Y120.524 E2.50325
G1 X131.308 Y120.483 E2.54169 F1200.000
G1 X131.744 Y120.511 E2.59350
G1 X132.023 Y120.583 E2.62778
G1 X132.291 Y120.688 E2.66196
G1 X132.660 Y120.922 E2.71378
G1 X132.896 Y121.144 E2.75225
G1 X133.173 Y121.525 E2.80828
G1 X133.359 Y121.997 E2.86850
G1 X133.419 Y122.465 E2.92450
G1 X133.398 Y122.788 E2.96294
G1 X133.290 Y123.210 E3.01473
G1 X133.152 Y123.503 E3.05317
G1 X132.922 Y123.832 E3.10083
G1 X132.660 Y124.078 E3.14354
G1 X132.261 Y124.330 E3.19954
G1 X131.813 Y124.476 E3.25558
G1 X131.492 Y124.517 E3.29402
G1 X131.056 Y124.489 E3.34584
G1 X130.777 Y124.417 E3.38011
G1 X130.509 Y124.312 E3.41429
G1 X130.140 Y124.078 E3.46612
G1 X129.948 Y123.897 E3.49746
G1 X130.443 Y123.382 F7800.000
G1 X130.258 Y123.128 E3.53474 F1200.000
G1 X130.138 Y122.824 E3.57354
G1 X130.098 Y122.513 E3.61082
G1 X130.110 Y122.324 E3.63322
G1 X130.185 Y122.033 E3.66899
G1 X130.265 Y121.862 E3.69140
G1 X130.443 Y121.618 E3.72717
G1 X130.580 Y121.489 E3.74959
G1 X130.845 Y121.321 E3.78687
G1 X131.144 Y121.224 E3.82417
G1 X131.331 Y121.200 E3.84657 F1200.000
G1 X131.632 Y121.219 E3.88234
G1 X131.802 Y121.263 E3.90325
G1 X131.966 Y121.328 E3.92413
G1 X132.220 Y121.489 E3.95991
G1 X132.357 Y121.618 E3.98232
G1 X132.542 Y121.872 E4.01961
G1 X132.662 Y122.176 E4.05841
G1 X132.702 Y122.487 E4.09568
G1 X132.690 Y122.676 E4.11809
G1 X132.615 Y122.967 E4.15386
G1 X132.535 Y123.138 E4.17626
G1 X132.357 Y123.382 E4.21204
G1 X132.220 Y123.511 E4.23446
G1 X131.955 Y123.679 E4.27173
G1 X131.656 Y123.776 E4.30903
G1 X131.469 Y123.800 E4.33143
G1 X131.168 Y123.781 E4.36721
G1 X130.998 Y123.737 E4.38812
G1 X130.834 Y123.672 E4.40900
G1 X130.580 Y123.511 E4.44477
G1 X130.486 Y123.423 E4.46006
G1 X130.133 Y123.434 F7800.000
G1 E2.46006 F2400.00000
G92 E0
G1 Z0.600 F7800.000
G1 X131.281 Y120.602 F7800.000
G1 X131.225 Y108.533 F7800.000
G1 X130.972 Y101.901 F7800.000
G1 X131.519 Y101.673 F7800.000
G1 X131.519 Y99.398 F7800.000
G1 X131.527 Y99.519 F7800.000
G1 Z0.400 F7800.000
G1 E2.00000 F2400.00000
G1 X131.057 Y99.489 E2.05598 F1200.000
G1 X130.743 Y99.409 E2.09446
G1 X130.348 Y99.223 E2.14624
G1 X130.115 Y99.054 E2.18049
G1 X129.904 Y98.856 E2.21479
G1 X129.627 Y98.475 E2.27081
G1 X129.441 Y98.003 E2.33103
G1 X129.381 Y97.535 E2.38703
G1 X129.402 Y97.212 E2.42548
G1 X129.510 Y96.790 E2.47727
G1 X129.648 Y96.497 E2.51571
G1 X129.904 Y96.144 E2.56753
G1 X130.140 Y95.922 E2.60600
G1 X130.509 Y95.689 E2.65776
G1 X130.809 Y95.569 E2.69621
G1 X131.273 Y95.481 E2.75225 F1200.000
G1 X131.743 Y95.511 E2.80823
G1 X132.057 Y95.591 E2.84671
G1 X132.452 Y95.777 E2.89849
G1 X132.685 Y95.946 E2.93274
G1 X132.922 Y96.168 E2.97129
G1 X133.173 Y96.525 E3.02315
G1 X133.359 Y96.997 E3.08337
G1 X133.419 Y97.465 E3.13937
G1 X133.398 Y97.788 E3.17781
G1 X133.290 Y98.210 E3.22960
G1 X133.152 Y98.503 E3.26804
G1 X132.896 Y98.856 E3.31986
G1 X132.660 Y99.078 E3.35833
G1 X132.291 Y99.311 E3.41010
G1 X131.991 Y99.431 E3.44854
G1 X131.586 Y99.508 E3.49746
G1 X131.482 Y98.801 F7800.000
G1 X131.169 Y98.781 E3.53473 F1200.000
G1 X130.986 Y98.734 E3.55715
G1 X130.713 Y98.606 E3.59291
G1 X130.571 Y98.502 E3.61381
G1 X130.443 Y98.382 E3.63473
G1 X130.258 Y98.128 E3.67202
G1 X130.138 Y97.824 E3.71082
G1 X130.098 Y97.513 E3.74809
G1 X130.110 Y97.324 E3.77050
G1 X130.185 Y97.033 E3.80627
G1 X130.265 Y96.862 E3.82867
G1 X130.443 Y96.618 E3.86445
G1 X130.580 Y96.489 E3.88687
G1 X130.834 Y96.328 E3.92262
G1 X131.010 Y96.258 E3.94503
G1 X131.318 Y96.199 E3.98233 F1200.000
G1 X131.631 Y96.219 E4.01959
G1 X131.814 Y96.266 E4.04201
G1 X132.087 Y96.394 E4.07778
G1 X132.357 Y96.618 E4.11952
G1 X132.542 Y96.872 E4.15680
G1 X132.662 Y97.176 E4.19560
G1 X132.702 Y97.487 E4.23288
G1 X132.690 Y97.676 E4.25529
G1 X132.615 Y97.967 E4.29105
G1 X132.535 Y98.138 E4.31346
G1 X132.357 Y98.382 E4.34923
G1 X132.220 Y98.511 E4.37165
G1 X131.966 Y98.672 E4.40741
G1 X131.790 Y98.742 E4.42982
G1 X131.541 Y98.789 E4.45999
G1 X131.331 Y99.076 F7800.000
G1 E2.45999 F2400.00000
G92 E0
G1 Z0.600 F7800.000
G1 X129.861 Y96.382 F7800.000
G1 X131.203 Y91.057 F7800.000
G1 X125.697 Y89.972 F7800.000
G1 X124.901 Y90.431 F7800.000
G1 X124.539 Y90.597 F7800.000
G1 X124.300 Y90.691 F7800.000
G1 X123.712 Y90.066 F7800.000
G1 X123.760 Y90.178 F7800.000
G1 Z0.400 F7800.000
G1 E2.00000 F2400.00000
G1 X123.391 Y90.412 E2.05181 F1200.000
G1 X123.090 Y90.531 E2.09025
G1 X122.627 Y90.619 E2.14626
G1 X122.121 Y90.587 E2.20648
G1 X121.639 Y90.430 E2.26671
G1 X121.240 Y90.178 E2.32273
G1 X121.004 Y89.956 E2.36117
G1 X120.748 Y89.603 E2.41300
G1 X120.610 Y89.310 E2.45144
G1 X120.502 Y88.888 E2.50323
G1 X120.484 Y88.600 E2.53749
G1 X120.502 Y88.312 E2.57174
G1 X120.610 Y87.890 E2.62354
G1 X120.748 Y87.597 E2.66198
G1 X121.004 Y87.244 E2.71381
G1 X121.240 Y87.022 E2.75225
G1 X121.609 Y86.788 E2.80406
G1 X121.910 Y86.669 E2.84250
G1 X122.373 Y86.581 E2.89851 F1200.000
G1 X122.844 Y86.611 E2.95452
G1 X123.123 Y86.682 E2.98878
G1 X123.391 Y86.788 E3.02304
G1 X123.819 Y87.060 E3.08316
G1 X123.810 Y87.070 E3.08472
G1 X123.996 Y87.244 E3.11495
G1 X124.273 Y87.625 E3.17098
G1 X124.458 Y88.093 E3.23074
G1 X124.519 Y88.553 E3.28582
G1 X124.498 Y88.888 E3.32566
G1 X124.390 Y89.310 E3.37746
G1 X124.252 Y89.603 E3.41590
G1 X123.996 Y89.956 E3.46772
G1 X123.803 Y90.137 E3.49904
G1 X123.320 Y89.611 F7800.000
G1 X123.066 Y89.772 E3.53482 F1200.000
G1 X122.890 Y89.842 E3.55722
G1 X122.582 Y89.901 E3.59451
G1 X122.256 Y89.880 E3.63330
G1 X121.945 Y89.779 E3.67210
G1 X121.680 Y89.611 E3.70938
G1 X121.543 Y89.482 E3.73179
G1 X121.365 Y89.238 E3.76757
G1 X121.285 Y89.067 E3.78997
G1 X121.210 Y88.776 E3.82574
G1 X121.210 Y88.424 E3.86747
G1 X121.285 Y88.133 E3.90324
G1 X121.365 Y87.962 E3.92564
G1 X121.543 Y87.718 E3.96142
G1 X121.680 Y87.589 E3.98383
G1 X121.934 Y87.428 E4.01960
G1 X122.110 Y87.358 E4.04201
G1 X122.418 Y87.299 E4.07929 F1200.000
G1 X122.731 Y87.319 E4.11657
G1 X123.066 Y87.428 E4.15830
G1 X123.320 Y87.589 E4.19407
G1 X123.457 Y87.718 E4.21648
G1 X123.642 Y87.972 E4.25377
G1 X123.762 Y88.275 E4.29240
G1 X123.802 Y88.578 E4.32875
G1 X123.790 Y88.776 E4.35226
G1 X123.715 Y89.067 E4.38803
G1 X123.635 Y89.238 E4.41044
G1 X123.457 Y89.482 E4.44622
G1 X123.364 Y89.570 E4.46150
G1 X123.351 Y89.911 F7800.000
G1 X99.519 Y88.553 F7800.000
G1 X99.498 Y88.888 E4.50134 F1200.000
G1 X99.390 Y89.310 E4.55314
G1 X99.252 Y89.603 E4.59158
G1 X98.996 Y89.956 E4.64340
G1 X98.760 Y90.178 E4.68185
G1 X98.391 Y90.412 E4.73366
G1 X98.090 Y90.531 E4.77209
G1 X97.627 Y90.619 E4.82811
G1 X97.121 Y90.587 E4.88833
G1 X96.639 Y90.430 E4.94855
G1 X96.240 Y90.178 E5.00457
G1 X96.004 Y89.956 E5.04302
G1 X95.748 Y89.603 E5.09484
G1 X95.610 Y89.310 E5.13328
G1 X95.502 Y88.888 E5.18508
G1 X95.484 Y88.600 E5.21933
G1 X95.502 Y88.312 E5.25359
G1 X95.610 Y87.890 E5.30539
G1 X95.748 Y87.597 E5.34383
G1 X96.004 Y87.244 E5.39565
G1 X96.190 Y87.070 E5.42589
G1 X96.181 Y87.060 E5.42745
G1 X96.609 Y86.788 E5.48756
G1 X96.910 Y86.669 E5.52600
G1 X97.373 Y86.581 E5.58202 F1200.000
G1 X97.844 Y86.611 E5.63802
G1 X98.123 Y86.682 E5.67228
G1 X98.391 Y86.788 E5.70654
G1 X98.760 Y87.022 E5.75835
G1 X98.996 Y87.244 E5.79679
G1 X99.273 Y87.625 E5.85283
G1 X99.458 Y88.093 E5.91259
G1 X99.511 Y88.494 E5.96054
G1 X98.802 Y88.578 F7800.000
G1 X98.790 Y88.776 E5.98405 F1200.000
G1 X98.715 Y89.067 E6.01982
G1 X98.635 Y89.238 E6.04223
G1 X98.457 Y89.482 E6.07801
G1 X98.320 Y89.611 E6.10041
G1 X98.066 Y89.772 E6.13619
G1 X97.890 Y89.842 E6.15859
G1 X97.582 Y89.901 E6.19588
G1 X97.256 Y89.880 E6.23467
G1 X96.945 Y89.779 E6.27347
G1 X96.680 Y89.611 E6.31075
G1 X96.543 Y89.482 E6.33316
G1 X96.365 Y89.238 E6.36894
G1 X96.285 Y89.067 E6.39134
G1 X96.210 Y88.776 E6.42711
G1 X96.210 Y88.424 E6.46884
G1 X96.285 Y88.133 E6.50461
G1 X96.365 Y87.962 E6.52701
G1 X96.543 Y87.718 E6.56279
G1 X96.680 Y87.589 E6.58520
G1 X96.934 Y87.428 E6.62097
G1 X97.110 Y87.358 E6.64338
G1 X97.418 Y87.299 E6.68066 F1200.000
G1 X97.731 Y87.319 E6.71794
G1 X98.066 Y87.428 E6.75967
G1 X98.320 Y87.589 E6.79544
G1 X98.457 Y87.718 E6.81785
G1 X98.642 Y87.972 E6.85514
G1 X98.762 Y88.275 E6.89377
G1 X98.794 Y88.519 E6.92300
G1 X98.974 Y88.677 F7800.000
G1 E4.92300 F2400.00000
G92 E0
G1 Z0.600 F7800.000
G1 X95.833 Y89.516 F7800.000
G1 X93.858 Y89.657 F7800.000
G1 X93.200 Y89.275 F7800.000
G1 X91.550 Y88.976 F7800.000
G1 X91.550 Y91.550 F7800.000
G1 X91.436 Y91.436 F7800.000
G1 Z0.400 F7800.000
G1 E2.00000 F2400.00000
G1 X128.564 Y91.436 E6.40955 F1200.000
G1 X128.564 Y128.564 E10.81910
G1 X91.436 Y128.564 E15.22865
G1 X91.436 Y91.496 E19.63108
G1 X92.150 Y92.150 F7800.000
G1 X127.850 Y92.150 E23.87100 F1200.000
G1 X127.850 Y127.850 E28.11091
G1 X92.150 Y127.850 E32.35083
G1 X92.150 Y92.210 E36.58362
G1 X92.150 Y91.750 F7800.000
G1 X89.652 Y95.777 F7800.000
G1 X89.885 Y95.946 E36.61788 F1200.000
G1 X90.096 Y96.144 E36.65215
G1 X90.373 Y96.525 E36.70816
G1 X90.559 Y96.997 E36.76839
G1 X90.619 Y97.465 E36.82440
G1 X90.598 Y97.788 E36.86284
G1 X90.490 Y98.210 E36.91464
G1 X90.352 Y98.503 E36.95309
G1 X90.096 Y98.856 E37.00489
G1 X89.860 Y99.078 E37.04335
G1 X89.491 Y99.311 E37.09512
G1 X89.191 Y99.431 E37.13356
G1 X88.727 Y99.519 E37.18961
G1 X88.256 Y99.489 E37.24560
G1 X87.943 Y99.409 E37.28407
G1 X87.548 Y99.223 E37.33588
G1 X87.315 Y99.054 E37.37013
G1 X87.104 Y98.856 E37.40440
G1 X86.827 Y98.475 E37.46041
G1 X86.641 Y98.003 E37.52064
G1 X86.577 Y97.500 E37.58086
G1 X86.636 Y97.032 E37.63688
G1 X86.725 Y96.758 E37.67112
G1 X86.848 Y96.497 E37.70539
G1 X87.077 Y96.169 E37.75289
G1 X87.340 Y95.922 E37.79574
G1 X87.709 Y95.689 E37.84750
G1 X88.009 Y95.569 E37.88595
G1 X88.473 Y95.481 E37.94200 F1200.000
G1 X88.944 Y95.511 E37.99799
G1 X89.257 Y95.591 E38.03646
G1 X89.598 Y95.751 E38.08113
G1 X89.287 Y96.394 F7800.000
G1 X89.557 Y96.618 E38.12286 F1200.000
G1 X89.742 Y96.872 E38.16014
G1 X89.862 Y97.176 E38.19894
G1 X89.902 Y97.487 E38.23622
G1 X89.890 Y97.676 E38.25863
G1 X89.815 Y97.967 E38.29440
G1 X89.735 Y98.138 E38.31681
G1 X89.557 Y98.382 E38.35258
G1 X89.420 Y98.511 E38.37499
G1 X89.166 Y98.672 E38.41075
G1 X88.990 Y98.742 E38.43316
G1 X88.682 Y98.801 E38.47045
G1 X88.369 Y98.781 E38.50773
G1 X88.186 Y98.734 E38.53014
G1 X87.913 Y98.606 E38.56592
G1 X87.643 Y98.382 E38.60764
G1 X87.458 Y98.128 E38.64492
G1 X87.338 Y97.824 E38.68373
G1 X87.297 Y97.500 E38.72252
G1 X87.336 Y97.189 E38.75980
G1 X87.391 Y97.021 E38.78070
G1 X87.465 Y96.862 E38.80161
G1 X87.643 Y96.618 E38.83738
G1 X87.780 Y96.489 E38.85980
G1 X88.034 Y96.328 E38.89555
G1 X88.210 Y96.258 E38.91796
G1 X88.518 Y96.199 E38.95526 F1200.000
G1 X88.831 Y96.219 E38.99253
G1 X89.014 Y96.266 E39.01495
G1 X89.232 Y96.369 E39.04359
G1 X89.605 Y96.245 F7800.000
G1 E37.04359 F2400.00000
G92 E0
G1 Z0.600 F7800.000
G1 X88.719 Y99.398 F7800.000
G1 X88.775 Y111.467 F7800.000
G1 X89.028 Y118.099 F7800.000
G1 X88.481 Y118.327 F7800.000
G1 X88.481 Y120.602 F7800.000
G1 X88.508 Y120.483 F7800.000
G1 Z0.400 F7800.000
