; generated by Slic3r 1.2.9 on 2016-03-11 at 17:26:41

; external perimeters extrusion width = 0.40mm
; perimeters extrusion width = 0.67mm
; infill extrusion width = 0.67mm
; solid infill extrusion width = 0.67mm
; top infill extrusion width = 0.67mm

M190 S60 ; set bed temperature
M104 S210 ; set temperature
G28 ; home all axes
G1 Z5 F5000 ; lift nozzle

M109 S210 ; wait for temperature to be reached
G21 ; set units to millimeters
G90 ; use absolute coordinates
M82 ; use absolute distances for extrusion
G92 E0
M106 S255
G1 E-2.00000 F2400.00000
G92 E0
G1 Z0.200 F7800.000
G1 Z0.400 F7800.000
G1 Z0.600 F7800.000
G1 X54.651 Y53.121 F7800.000
G1 Z0.400 F7800.000
G1 E2.00000 F2400.00000
G1 X56.949 Y51.837 E2.31268 F1200.000
G1 X60.000 Y51.286 E2.68087
G1 X160.000 Y51.286 E14.55739
G1 X162.603 Y51.684 E14.87006
G1 X164.968 Y52.840 E15.18274 F1200.000
G1 X166.879 Y54.651 E15.49542
G1 X168.163 Y56.949 E15.80810
G1 X168.714 Y60.000 E16.17629
G1 X168.714 Y160.000 E28.05280
G1 X168.316 Y162.603 E28.36548
G1 X167.160 Y164.968 E28.67816
G1 X165.349 Y166.879 E28.99084
G1 X163.051 Y168.163 E29.30352
G1 X160.000 Y168.714 E29.67171
G1 X60.000 Y168.714 E41.54822
G1 X57.397 Y168.316 E41.86090
G1 X55.032 Y167.160 E42.17358
G1 X53.121 Y165.349 E42.48626
G1 X51.837 Y163.051 E42.79894
G1 X51.286 Y160.000 E43.16713
G1 X51.286 Y60.000 E55.04364
G1 X51.684 Y57.397 E55.35632
G1 X52.840 Y55.032 E55.66900
G1 X54.609 Y53.165 E55.97455
G1 E53.97455 F2400.00000
G92 E0
G1 Z0.600 F7800.000
G1 X73.457 Y155.518 F7800.000
G1 Z0.400 F7800.000
G1 E2.00000 F2400.00000
G1 X73.642 Y155.772 E2.03729 F1200.000
G1 X73.762 Y156.076 E2.07608
G1 X73.802 Y156.387 E2.11336
G1 X73.790 Y156.576 E2.13577
G1 X73.715 Y156.867 E2.17153
G1 X73.635 Y157.038 E2.19394
G1 X73.457 Y157.282 E2.22972
G1 X73.320 Y157.411 E2.25213
G1 X73.066 Y157.572 E2.28789
G1 X72.890 Y157.642 E2.31030
G1 X72.582 Y157.701 E2.34759
G1 X72.269 Y157.681 E2.38486
G1 X72.086 Y157.634 E2.40728
G1 X71.813 Y157.506 E2.44305
G1 X71.671 Y157.402 E2.46395
G1 X71.543 Y157.282 E2.48487
G1 X71.358 Y157.028 E2.52216
G1 X71.238 Y156.724 E2.56095
G1 X71.198 Y156.413 E2.59823
G1 X71.210 Y156.224 E2.62064
G1 X71.285 Y155.933 E2.65640
G1 X71.365 Y155.762 E2.67881
G1 X71.543 Y155.518 E2.71459
G1 X71.680 Y155.389 E2.73700
G1 X71.945 Y155.221 E2.77428
G1 X72.244 Y155.124 E2.81158
G1 X72.431 Y155.100 E2.83398 F1200.000
G1 X72.732 Y155.119 E2.86975
G1 X72.911 Y155.165 E2.89179
G1 X73.138 Y155.268 E2.92132
G1 X73.324 Y155.393 E2.94794
G1 X73.414 Y155.477 E2.96259
G1 X73.767 Y155.466 F7800.000
G1 X72.144 Y154.532 F7800.000
G1 X70.461 Y154.403 F7800.000
G1 X68.609 Y155.536 F7800.000
G1 X64.275 Y152.800 F7800.000
G1 X65.930 Y146.536 F7800.000
G1 X64.474 Y143.622 F7800.000
G1 X64.275 Y129.400 F7800.000
G1 X64.244 Y126.656 F7800.000
G1 X64.660 Y126.139 F7800.000
G1 X64.188 Y124.309 F7800.000
G1 X63.856 Y123.776 F7800.000
G1 X63.669 Y123.800 E2.98499 F1200.000
G1 X63.368 Y123.781 E3.02077
G1 X63.186 Y123.734 E3.04318
G1 X62.913 Y123.606 E3.07893
G1 X62.765 Y123.498 E3.10069
G1 X62.607 Y123.339 E3.12732
G1 X62.457 Y123.125 E3.15838
G1 X62.338 Y122.824 E3.19680
G1 X62.297 Y122.500 E3.23560
G1 X62.336 Y122.189 E3.27288
G1 X62.465 Y121.862 E3.31460
G1 X62.643 Y121.618 E3.35038
G1 X62.780 Y121.489 E3.37279
G1 X63.045 Y121.321 E3.41007
G1 X63.344 Y121.224 E3.44736
G1 X63.531 Y121.200 E3.46977 F1200.000
G1 X63.832 Y121.219 E3.50554
G1 X64.014 Y121.266 E3.52795
G1 X64.287 Y121.394 E3.56370
G1 X64.557 Y121.618 E3.60544
G1 X64.742 Y121.872 E3.64272
G1 X64.862 Y122.176 E3.68152
G1 X64.902 Y122.487 E3.71880
G1 X64.890 Y122.676 E3.74121
G1 X64.815 Y122.967 E3.77698
G1 X64.735 Y123.138 E3.79938
G1 X64.557 Y123.382 E3.83516
G1 X64.420 Y123.511 E3.85757
G1 X64.155 Y123.679 E3.89485
G1 X63.913 Y123.758 E3.92502
G1 X63.794 Y123.954 F7800.000
G1 X65.368 Y123.200 F7800.000
G1 X65.667 Y149.365 F7800.000
G1 X64.275 Y151.621 F7800.000
G1 X66.057 Y156.203 F7800.000
G1 X71.767 Y154.030 F7800.000
G1 X93.370 Y155.733 F7800.000
G1 X96.136 Y154.166 F7800.000
G1 X120.806 Y154.270 F7800.000
G1 X124.539 Y154.403 F7800.000
G1 X127.267 Y156.225 F7800.000
G1 X142.600 Y155.725 F7800.000
G1 X143.609 Y155.536 F7800.000
G1 X144.096 Y155.169 F7800.000
G1 X145.731 Y155.700 F7800.000
G1 X145.610 Y155.690 F7800.000
G1 X145.748 Y155.397 E3.96346 F1200.000
G1 X146.004 Y155.044 E4.01528
G1 X146.240 Y154.822 E4.05375
G1 X146.639 Y154.570 E4.10975
G1 X147.087 Y154.424 E4.16579
G1 X147.409 Y154.383 E4.20422 F1200.000
G1 X147.844 Y154.411 E4.25604
G1 X148.149 Y154.489 E4.29344
G1 X148.486 Y154.641 E4.33742
G1 X148.771 Y154.832 E4.37808
G1 X148.996 Y155.044 E4.41476
G1 X149.273 Y155.425 E4.47078
G1 X149.459 Y155.897 E4.53100
G1 X149.519 Y156.365 E4.58700
G1 X149.498 Y156.688 E4.62545
G1 X149.390 Y157.110 E4.67724
G1 X149.252 Y157.403 E4.71568
G1 X148.996 Y157.756 E4.76750
G1 X148.760 Y157.978 E4.80596
G1 X148.391 Y158.211 E4.85773
G1 X148.091 Y158.331 E4.89618
G1 X147.627 Y158.419 E4.95222
G1 X147.157 Y158.389 E5.00820
G1 X146.843 Y158.309 E5.04668
G1 X146.448 Y158.123 E5.09846
G1 X146.215 Y157.954 E5.13271
G1 X146.004 Y157.756 E5.16701
G1 X145.727 Y157.375 E5.22303
G1 X145.541 Y156.903 E5.28325
G1 X145.481 Y156.435 E5.33925
G1 X145.502 Y156.112 E5.37770
G1 X145.595 Y155.748 E5.42236
G1 X146.285 Y155.933 F7800.000
G1 X146.365 Y155.762 E5.44477 F1200.000
G1 X146.543 Y155.518 E5.48055
G1 X146.680 Y155.389 E5.50296
G1 X146.945 Y155.221 E5.54024
G1 X147.244 Y155.124 E5.57754
G1 X147.431 Y155.100 E5.59994 F1200.000
G1 X147.732 Y155.119 E5.63571
G1 X147.911 Y155.165 E5.65775
G1 X148.138 Y155.268 E5.68727
G1 X148.324 Y155.393 E5.71390
G1 X148.457 Y155.518 E5.73567
G1 X148.642 Y155.772 E5.77296
G1 X148.762 Y156.076 E5.81175
G1 X148.802 Y156.387 E5.84903
G1 X148.790 Y156.576 E5.87144
G1 X148.715 Y156.867 E5.90721
G1 X148.635 Y157.038 E5.92961
G1 X148.457 Y157.282 E5.96539
G1 X148.320 Y157.411 E5.98780
G1 X148.066 Y157.572 E6.02356
G1 X147.890 Y157.642 E6.04597
G1 X147.582 Y157.701 E6.08326
G1 X147.269 Y157.681 E6.12053
G1 X147.086 Y157.634 E6.14295
G1 X146.813 Y157.506 E6.17872
G1 X146.543 Y157.282 E6.22045
G1 X146.358 Y157.028 E6.25774
G1 X146.238 Y156.724 E6.29654
G1 X146.198 Y156.413 E6.33382
G1 X146.210 Y156.224 E6.35622
G1 X146.270 Y155.991 E6.38486
G1 X146.168 Y155.785 F7800.000
G1 E4.38486 F2400.00000
G92 E0
G1 Z0.600 F7800.000
G1 X148.712 Y154.934 F7800.000
G1 X153.450 Y155.771 F7800.000
G1 X155.015 Y150.676 F7800.000
G1 X154.545 Y149.852 F7800.000
G1 X154.378 Y149.478 F7800.000
G1 X155.013 Y148.802 F7800.000
G1 X154.904 Y148.856 F7800.000
G1 Z0.400 F7800.000
G1 E2.00000 F2400.00000
G1 X154.627 Y148.475 E2.05603 F1200.000
G1 X154.441 Y148.003 E2.11625
G1 X154.381 Y147.535 E2.17225
G1 X154.402 Y147.212 E2.21070
G1 X154.510 Y146.790 E2.26248
G1 X154.648 Y146.497 E2.30092
G1 X154.904 Y146.144 E2.35275
G1 X155.140 Y145.922 E2.39121
G1 X155.539 Y145.670 E2.44721
G1 X155.987 Y145.524 E2.50326
G1 X156.308 Y145.483 E2.54169 F1200.000
G1 X156.744 Y145.511 E2.59350
G1 X157.023 Y145.583 E2.62778
G1 X157.291 Y145.688 E2.66197
G1 X157.660 Y145.922 E2.71379
G1 X157.896 Y146.144 E2.75226
G1 X158.173 Y146.525 E2.80828
G1 X158.354 Y146.983 E2.86669
G1 X158.411 Y147.356 E2.91150
G1 X158.405 Y147.762 E2.95978
G1 X158.290 Y148.210 E3.01472
G1 X158.152 Y148.503 E3.05316
G1 X157.896 Y148.856 E3.10498
G1 X157.660 Y149.078 E3.14344
G1 X157.261 Y149.330 E3.19945
G1 X156.813 Y149.476 E3.25549
G1 X156.491 Y149.517 E3.29392
G1 X156.056 Y149.489 E3.34574
G1 X155.777 Y149.417 E3.38001
G1 X155.509 Y149.312 E3.41420
G1 X155.140 Y149.078 E3.46602
G1 X154.948 Y148.897 E3.49736
G1 X155.443 Y148.382 F7800.000
G1 X155.258 Y148.128 E3.53464 F1200.000
G1 X155.138 Y147.824 E3.57344
G1 X155.098 Y147.513 E3.61072
G1 X155.110 Y147.324 E3.63313
G1 X155.185 Y147.033 E3.66889
G1 X155.265 Y146.862 E3.69130
G1 X155.443 Y146.618 E3.72708
G1 X155.580 Y146.489 E3.74949
G1 X155.845 Y146.321 E3.78677
G1 X156.144 Y146.224 E3.82407
G1 X156.331 Y146.200 E3.84647 F1200.000
G1 X156.632 Y146.219 E3.88224
G1 X156.802 Y146.263 E3.90315
G1 X156.966 Y146.328 E3.92403
G1 X157.220 Y146.489 E3.95981
G1 X157.357 Y146.618 E3.98222
G1 X157.542 Y146.872 E4.01951
G1 X157.660 Y147.171 E4.05766
G1 X157.696 Y147.405 E4.08577
G1 X157.692 Y147.666 E4.11684
G1 X157.615 Y147.967 E4.15374
G1 X157.535 Y148.138 E4.17615
G1 X157.357 Y148.382 E4.21192
G1 X157.220 Y148.511 E4.23434
G1 X156.955 Y148.679 E4.27162
G1 X156.656 Y148.776 E4.30892
G1 X156.469 Y148.800 E4.33132
G1 X156.168 Y148.781 E4.36709
G1 X155.998 Y148.737 E4.38800
G1 X155.834 Y148.672 E4.40888
G1 X155.580 Y148.511 E4.44466
G1 X155.486 Y148.423 E4.45995
G1 X155.133 Y148.434 F7800.000
G1 E2.45995 F2400.00000
G92 E0
G1 Z0.600 F7800.000
G1 X156.281 Y145.602 F7800.000
G1 X153.975 Y122.533 F7800.000
G1 X154.754 Y119.752 F7800.000
G1 X156.225 Y106.867 F7800.000
G1 X155.765 Y101.586 F7800.000
G1 X156.281 Y101.117 F7800.000
G1 X156.519 Y100.879 F7800.000
G1 X156.519 Y99.398 F7800.000
G1 X156.491 Y99.517 F7800.000
G1 Z0.400 F7800.000
G1 E2.00000 F2400.00000
G1 X156.056 Y99.489 E2.05181 F1200.000
G1 X155.777 Y99.417 E2.08609
G1 X155.509 Y99.312 E2.12027
G1 X155.140 Y99.078 E2.17209
G1 X154.904 Y98.856 E2.21056
G1 X154.627 Y98.475 E2.26659
G1 X154.441 Y98.003 E2.32681
G1 X154.381 Y97.535 E2.38281
G1 X154.402 Y97.212 E2.42126
G1 X154.510 Y96.790 E2.47304
G1 X154.648 Y96.497 E2.51148
G1 X154.904 Y96.144 E2.56331
G1 X155.140 Y95.922 E2.60177
G1 X155.539 Y95.670 E2.65778
G1 X155.987 Y95.524 E2.71381
G1 X156.308 Y95.483 E2.75225 F1200.000
G1 X156.744 Y95.511 E2.80406
G1 X157.023 Y95.583 E2.83834
G1 X157.291 Y95.688 E2.87253
G1 X157.660 Y95.922 E2.92435
G1 X157.896 Y96.144 E2.96282
G1 X158.173 Y96.525 E3.01884
G1 X158.354 Y96.983 E3.07724
G1 X158.411 Y97.356 E3.12206
G1 X158.405 Y97.762 E3.17034
G1 X158.290 Y98.210 E3.22528
G1 X158.152 Y98.503 E3.26372
G1 X157.922 Y98.832 E3.31136
G1 X157.660 Y99.078 E3.35408
G1 X157.261 Y99.330 E3.41009
G1 X156.813 Y99.476 E3.46613
G1 X156.551 Y99.509 E3.49744
G1 X156.469 Y98.800 F7800.000
G1 X156.168 Y98.781 E3.53321 F1200.000
G1 X155.998 Y98.737 E3.55412
G1 X155.834 Y98.672 E3.57500
G1 X155.580 Y98.511 E3.61078
G1 X155.443 Y98.382 E3.63319
G1 X155.258 Y98.128 E3.67048
G1 X155.138 Y97.824 E3.70928
G1 X155.098 Y97.513 E3.74656
G1 X155.110 Y97.324 E3.76896
G1 X155.185 Y97.033 E3.80473
G1 X155.265 Y96.862 E3.82713
G1 X155.442 Y96.618 E3.86291
G1 X155.580 Y96.489 E3.88533
G1 X155.845 Y96.321 E3.92261
G1 X156.144 Y96.224 E3.95990
G1 X156.331 Y96.200 E3.98230 F1200.000
G1 X156.632 Y96.219 E4.01808
G1 X156.966 Y96.328 E4.05979
G1 X157.220 Y96.489 E4.09556
G1 X157.357 Y96.618 E4.11798
G1 X157.542 Y96.872 E4.15527
G1 X157.660 Y97.171 E4.19341
G1 X157.696 Y97.405 E4.22152
G1 X157.692 Y97.666 E4.25260
G1 X157.615 Y97.967 E4.28950
G1 X157.535 Y98.138 E4.31190
G1 X157.357 Y98.382 E4.34768
G1 X157.220 Y98.511 E4.37009
G1 X156.955 Y98.679 E4.40737
G1 X156.656 Y98.776 E4.44467
G1 X156.529 Y98.792 E4.45995
G1 X156.318 Y99.061 F7800.000
G1 E2.45995 F2400.00000
G92 E0
G1 Z0.600 F7800.000
G1 X156.519 Y95.602 F7800.000
G1 X156.225 Y86.467 F7800.000
G1 X155.972 Y76.901 F7800.000
G1 X156.519 Y76.673 F7800.000
G1 X156.519 Y74.398 F7800.000
G1 X156.527 Y74.519 F7800.000
G1 Z0.400 F7800.000
G1 E2.00000 F2400.00000
G1 X156.057 Y74.489 E2.05598 F1200.000
G1 X155.743 Y74.409 E2.09446
G1 X155.348 Y74.223 E2.14624
G1 X155.115 Y74.054 E2.18049
G1 X154.904 Y73.856 E2.21478
G1 X154.627 Y73.475 E2.27081
G1 X154.441 Y73.003 E2.33104
G1 X154.381 Y72.535 E2.38704
G1 X154.402 Y72.212 E2.42548
G1 X154.510 Y71.790 E2.47726
G1 X154.648 Y71.497 E2.51571
G1 X154.904 Y71.144 E2.56753
G1 X155.140 Y70.922 E2.60600
G1 X155.509 Y70.689 E2.65776
G1 X155.809 Y70.569 E2.69621
G1 X156.273 Y70.481 E2.75225 F1200.000
G1 X156.743 Y70.511 E2.80823
G1 X157.057 Y70.591 E2.84671
G1 X157.452 Y70.777 E2.89849
G1 X157.685 Y70.946 E2.93274
G1 X157.922 Y71.168 E2.97130
G1 X158.173 Y71.525 E3.02314
G1 X158.354 Y71.983 E3.08155
G1 X158.411 Y72.356 E3.12637
G1 X158.405 Y72.762 E3.17464
G1 X158.290 Y73.210 E3.22958
G1 X158.152 Y73.503 E3.26803
G1 X157.896 Y73.856 E3.31984
G1 X157.660 Y74.078 E3.35831
G1 X157.291 Y74.311 E3.41008
G1 X156.991 Y74.431 E3.44852
G1 X156.586 Y74.508 E3.49744
G1 X156.482 Y73.801 F7800.000
G1 X156.169 Y73.781 E3.53471 F1200.000
G1 X155.986 Y73.734 E3.55713
G1 X155.713 Y73.606 E3.59289
G1 X155.571 Y73.502 E3.61379
G1 X155.443 Y73.382 E3.63471
G1 X155.258 Y73.128 E3.67200
G1 X155.138 Y72.824 E3.71080
G1 X155.098 Y72.513 E3.74808
G1 X155.110 Y72.324 E3.77048
G1 X155.185 Y72.033 E3.80625
G1 X155.265 Y71.862 E3.82865
G1 X155.443 Y71.618 E3.86443
G1 X155.580 Y71.489 E3.88685
G1 X155.834 Y71.328 E3.92261
G1 X156.010 Y71.258 E3.94502
G1 X156.318 Y71.199 E3.98231 F1200.000
G1 X156.631 Y71.219 E4.01958
G1 X156.814 Y71.266 E4.04200
G1 X157.087 Y71.394 E4.07776
G1 X157.357 Y71.618 E4.11950
G1 X157.542 Y71.872 E4.15679
G1 X157.660 Y72.171 E4.19493
G1 X157.696 Y72.405 E4.22304
G1 X157.692 Y72.666 E4.25412
G1 X157.615 Y72.967 E4.29102
G1 X157.535 Y73.138 E4.31342
G1 X157.357 Y73.382 E4.34920
G1 X157.220 Y73.511 E4.37161
G1 X156.966 Y73.672 E4.40737
G1 X156.790 Y73.742 E4.42978
G1 X156.541 Y73.789 E4.45995
G1 X156.331 Y74.076 F7800.000
G1 E2.45995 F2400.00000
G92 E0
G1 Z0.600 F7800.000
G1 X154.861 Y71.382 F7800.000
G1 X156.203 Y66.057 F7800.000
G1 X150.697 Y64.972 F7800.000
G1 X149.901 Y65.431 F7800.000
G1 X149.539 Y65.597 F7800.000
G1 X149.300 Y65.691 F7800.000
G1 X148.712 Y65.066 F7800.000
G1 X148.760 Y65.178 F7800.000
G1 Z0.400 F7800.000
G1 E2.00000 F2400.00000
G1 X148.391 Y65.412 E2.05181 F1200.000
G1 X148.090 Y65.531 E2.09025
G1 X147.627 Y65.619 E2.14626
G1 X147.121 Y65.587 E2.20648
G1 X146.639 Y65.430 E2.26671
G1 X146.240 Y65.178 E2.32273
G1 X146.004 Y64.956 E2.36117
G1 X145.748 Y64.603 E2.41299
G1 X145.610 Y64.310 E2.45144
G1 X145.502 Y63.888 E2.50323
G1 X145.484 Y63.600 E2.53749
G1 X145.502 Y63.312 E2.57175
G1 X145.610 Y62.890 E2.62354
G1 X145.748 Y62.597 E2.66198
G1 X146.004 Y62.244 E2.71381
G1 X146.240 Y62.022 E2.75225
G1 X146.609 Y61.788 E2.80406
G1 X146.910 Y61.669 E2.84250
G1 X147.373 Y61.581 E2.89851 F1200.000
G1 X147.879 Y61.613 E2.95873
G1 X148.361 Y61.770 E3.01896
G1 X148.760 Y62.022 E3.07498
G1 X148.996 Y62.244 E3.11342
G1 X149.252 Y62.597 E3.16524
G1 X149.390 Y62.890 E3.20369
G1 X149.498 Y63.312 E3.25548
G1 X149.516 Y63.600 E3.28974
G1 X149.498 Y63.888 E3.32400
G1 X149.390 Y64.310 E3.37579
G1 X149.252 Y64.603 E3.41423
G1 X148.996 Y64.956 E3.46606
G1 X148.803 Y65.137 E3.49737
G1 X148.320 Y64.611 F7800.000
G1 X148.066 Y64.772 E3.53315 F1200.000
G1 X147.890 Y64.842 E3.55555
G1 X147.582 Y64.901 E3.59284
G1 X147.256 Y64.880 E3.63163
G1 X146.945 Y64.779 E3.67043
G1 X146.680 Y64.611 E3.70771
G1 X146.543 Y64.482 E3.73012
G1 X146.365 Y64.238 E3.76590
G1 X146.285 Y64.067 E3.78830
G1 X146.210 Y63.776 E3.82407
G1 X146.210 Y63.424 E3.86580
G1 X146.285 Y63.133 E3.90156
G1 X146.365 Y62.962 E3.92397
G1 X146.543 Y62.718 E3.95975
G1 X146.680 Y62.589 E3.98216
G1 X146.934 Y62.428 E4.01793
G1 X147.110 Y62.358 E4.04034
G1 X147.418 Y62.299 E4.07762 F1200.000
G1 X147.744 Y62.320 E4.11641
G1 X148.055 Y62.421 E4.15521
G1 X148.320 Y62.589 E4.19250
G1 X148.457 Y62.718 E4.21490
G1 X148.635 Y62.962 E4.25068
G1 X148.715 Y63.133 E4.27309
G1 X148.790 Y63.424 E4.30886
G1 X148.790 Y63.776 E4.35058
G1 X148.715 Y64.067 E4.38635
G1 X148.635 Y64.238 E4.40875
G1 X148.457 Y64.482 E4.44453
G1 X148.364 Y64.570 E4.45981
G1 X148.351 Y64.911 F7800.000
G1 E2.45981 F2400.00000
G92 E0
G1 Z0.600 F7800.000
G1 X145.598 Y63.600 F7800.000
G1 X122.381 Y66.024 F7800.000
G1 X119.716 Y65.226 F7800.000
G1 X109.000 Y64.275 F7800.000
G1 X101.620 Y64.275 F7800.000
G1 X101.345 Y63.962 F7800.000
G1 X101.106 Y63.707 F7800.000
G1 X99.402 Y63.600 F7800.000
G1 X99.516 Y63.600 F7800.000
G1 Z0.400 F7800.000
G1 E2.00000 F2400.00000
G1 X99.498 Y63.888 E2.03426 F1200.000
G1 X99.390 Y64.310 E2.08605
G1 X99.252 Y64.603 E2.12449
G1 X98.996 Y64.956 E2.17632
G1 X98.760 Y65.178 E2.21476
G1 X98.391 Y65.412 E2.26657
G1 X98.090 Y65.531 E2.30501
G1 X97.627 Y65.619 E2.36103
G1 X97.121 Y65.587 E2.42124
G1 X96.639 Y65.430 E2.48147
G1 X96.240 Y65.178 E2.53749
