; generated by Slic3r 1.2.9 on 2016-03-22 at 18:12:10

; external perimeters extrusion width = 0.40mm
; perimeters extrusion width = 0.67mm
; infill extrusion width = 0.67mm
; solid infill extrusion width = 0.67mm
; top infill extrusion width = 0.67mm

M190 S60 ; set bed temperature
M104 S210 ; set temperature
G28 ; home all axes
G1 Z5 F5000 ; lift nozzle

M109 S210 ; wait for temperature to be reached
G21 ; set units to millimeters
G90 ; use absolute coordinates
M82 ; use absolute distances for extrusion
G92 E0
M106 S255
G1 E-2.00000 F2400.00000
G92 E0
G1 Z0.200 F7800.000
G1 Z0.400 F7800.000
G1 Z0.600 F7800.000
G1 X77.840 Y55.032 F7800.000
G1 Z0.400 F7800.000
G1 E2.00000 F2400.00000
G1 X79.651 Y53.121 E2.31268 F1200.000
G1 X81.949 Y51.837 E2.62536
G1 X85.000 Y51.286 E2.99355
G1 X135.000 Y51.286 E8.93180
G1 X137.603 Y51.684 E9.24448
G1 X139.968 Y52.840 E9.55716 F1200.000
G1 X141.879 Y54.651 E9.86984
G1 X143.163 Y56.949 E10.18252
G1 X143.714 Y60.000 E10.55071
G1 X143.714 Y160.000 E22.42722
G1 X143.316 Y162.603 E22.73990
G1 X142.160 Y164.968 E23.05258
G1 X140.349 Y166.879 E23.36526
G1 X138.051 Y168.163 E23.67794
G1 X135.000 Y168.714 E24.04613
G1 X85.000 Y168.714 E29.98438
G1 X82.397 Y168.316 E30.29706
G1 X80.032 Y167.160 E30.60974
G1 X78.121 Y165.349 E30.92242
G1 X76.837 Y163.051 E31.23510
G1 X76.286 Y160.000 E31.60329
G1 X76.286 Y60.000 E43.47980
G1 X76.684 Y57.397 E43.79248
G1 X77.814 Y55.086 E44.09803
G1 E42.09803 F2400.00000
G92 E0
G1 Z0.600 F7800.000
G1 X98.642 Y155.772 F7800.000
G1 Z0.400 F7800.000
G1 E2.00000 F2400.00000
G1 X98.762 Y156.076 E2.03880 F1200.000
G1 X98.802 Y156.387 E2.07607
G1 X98.790 Y156.576 E2.09848
G1 X98.715 Y156.867 E2.13425
G1 X98.635 Y157.038 E2.15665
G1 X98.457 Y157.282 E2.19243
G1 X98.320 Y157.411 E2.21485
G1 X98.066 Y157.572 E2.25060
G1 X97.890 Y157.642 E2.27301
G1 X97.582 Y157.701 E2.31031
G1 X97.269 Y157.681 E2.34758
G1 X97.086 Y157.634 E2.37000
G1 X96.813 Y157.506 E2.40576
G1 X96.671 Y157.402 E2.42666
G1 X96.543 Y157.282 E2.44758
G1 X96.358 Y157.028 E2.48487
G1 X96.238 Y156.724 E2.52367
G1 X96.198 Y156.413 E2.56094
G1 X96.210 Y156.224 E2.58335
G1 X96.285 Y155.933 E2.61911
G1 X96.365 Y155.762 E2.64152
G1 X96.543 Y155.518 E2.67730
G1 X96.680 Y155.389 E2.69972
G1 X96.945 Y155.221 E2.73699
G1 X97.244 Y155.124 E2.77429
G1 X97.431 Y155.100 E2.79669 F1200.000
G1 X97.732 Y155.119 E2.83246
G1 X97.911 Y155.165 E2.85450
G1 X98.138 Y155.268 E2.88403
G1 X98.324 Y155.393 E2.91065
G1 X98.457 Y155.518 E2.93243
G1 X98.607 Y155.724 E2.96259
G1 X98.968 Y155.793 F7800.000
G1 X97.144 Y154.532 F7800.000
G1 X95.461 Y154.403 F7800.000
G1 X93.609 Y155.536 F7800.000
G1 X89.275 Y152.800 F7800.000
G1 X90.930 Y146.536 F7800.000
G1 X89.474 Y143.622 F7800.000
G1 X89.275 Y129.400 F7800.000
G1 X89.244 Y126.656 F7800.000
G1 X89.660 Y126.139 F7800.000
G1 X89.188 Y124.309 F7800.000
G1 X88.856 Y123.776 F7800.000
G1 X88.669 Y123.800 E2.98499 F1200.000
G1 X88.368 Y123.781 E3.02077
G1 X88.186 Y123.734 E3.04318
G1 X87.913 Y123.606 E3.07893
G1 X87.643 Y123.382 E3.12066
G1 X87.458 Y123.128 E3.15794
G1 X87.338 Y122.824 E3.19675
G1 X87.297 Y122.500 E3.23554
G1 X87.336 Y122.189 E3.27282
G1 X87.465 Y121.862 E3.31455
G1 X87.643 Y121.618 E3.35032
G1 X87.780 Y121.489 E3.37273
G1 X88.045 Y121.321 E3.41001
G1 X88.344 Y121.224 E3.44730
G1 X88.531 Y121.200 E3.46971 F1200.000
G1 X88.832 Y121.219 E3.50549
G1 X89.014 Y121.266 E3.52790
G1 X89.287 Y121.394 E3.56364
G1 X89.557 Y121.618 E3.60538
G1 X89.742 Y121.872 E3.64266
G1 X89.862 Y122.176 E3.68146
G1 X89.902 Y122.487 E3.71875
G1 X89.890 Y122.676 E3.74115
G1 X89.815 Y122.967 E3.77692
G1 X89.735 Y123.138 E3.79933
G1 X89.557 Y123.382 E3.83510
G1 X89.420 Y123.511 E3.85751
G1 X89.155 Y123.679 E3.89479
G1 X88.913 Y123.758 E3.92496
G1 X88.794 Y123.954 F7800.000
G1 X90.502 Y122.500 F7800.000
G1 X90.667 Y149.365 F7800.000
G1 X89.229 Y153.450 F7800.000
G1 X124.300 Y154.309 F7800.000
G1 X126.800 Y155.725 F7800.000
G1 X130.771 Y153.450 F7800.000
G1 X129.018 Y148.148 F7800.000
G1 X131.225 Y137.467 F7800.000
G1 X129.545 Y124.852 F7800.000
G1 X129.070 Y123.464 F7800.000
G1 X128.986 Y122.839 F7800.000
G1 X128.975 Y122.533 F7800.000
G1 X129.498 Y122.500 F7800.000
G1 X130.098 Y122.513 F7800.000
G1 X130.110 Y122.324 E3.94737 F1200.000
G1 X130.185 Y122.033 E3.98313
G1 X130.265 Y121.862 E4.00554
G1 X130.443 Y121.618 E4.04132
G1 X130.580 Y121.489 E4.06373
G1 X130.845 Y121.321 E4.10101
G1 X131.144 Y121.224 E4.13831
G1 X131.331 Y121.200 E4.16071 F1200.000
G1 X131.632 Y121.219 E4.19648
G1 X131.966 Y121.328 E4.23819
G1 X132.220 Y121.489 E4.27397
G1 X132.357 Y121.618 E4.29638
G1 X132.542 Y121.872 E4.33367
G1 X132.662 Y122.176 E4.37247
G1 X132.702 Y122.487 E4.40975
G1 X132.690 Y122.676 E4.43215
G1 X132.615 Y122.967 E4.46792
G1 X132.535 Y123.138 E4.49033
G1 X132.357 Y123.382 E4.52610
G1 X132.220 Y123.511 E4.54852
G1 X131.955 Y123.679 E4.58580
G1 X131.656 Y123.776 E4.62309
G1 X131.469 Y123.800 E4.64549
G1 X131.168 Y123.781 E4.68127
G1 X130.998 Y123.737 E4.70218
G1 X130.834 Y123.672 E4.72306
G1 X130.580 Y123.511 E4.75883
G1 X130.443 Y123.382 E4.78125
G1 X130.258 Y123.128 E4.81854
G1 X130.138 Y122.824 E4.85733
G1 X130.106 Y122.572 E4.88749
G1 X129.935 Y122.418 F7800.000
G1 X130.812 Y124.309 F7800.000
G1 X129.124 Y148.703 F7800.000
G1 X130.015 Y150.676 F7800.000
G1 X130.749 Y155.749 F7800.000
G1 X124.663 Y154.457 F7800.000
G1 X123.756 Y154.138 F7800.000
G1 X123.306 Y154.041 F7800.000
G1 X122.993 Y154.000 F7800.000
G1 X122.856 Y154.532 F7800.000
G1 X122.844 Y154.411 F7800.000
G1 X123.149 Y154.489 E4.92489 F1200.000
G1 X123.486 Y154.641 E4.96887
G1 X123.771 Y154.832 E5.00953
G1 X123.996 Y155.044 E5.04620
G1 X124.273 Y155.425 E5.10223
G1 X124.459 Y155.897 E5.16245
G1 X124.519 Y156.365 E5.21845
G1 X124.498 Y156.688 E5.25690
G1 X124.390 Y157.110 E5.30868
G1 X124.252 Y157.403 E5.34713
G1 X123.996 Y157.756 E5.39895
G1 X123.810 Y157.930 E5.42919
G1 X123.819 Y157.940 E5.43075
G1 X123.391 Y158.211 E5.49084
G1 X123.091 Y158.331 E5.52929
G1 X122.627 Y158.419 E5.58533
G1 X122.157 Y158.389 E5.64131
G1 X121.843 Y158.309 E5.67979
G1 X121.448 Y158.123 E5.73157
G1 X121.215 Y157.954 E5.76582
G1 X121.004 Y157.756 E5.80012
G1 X120.727 Y157.375 E5.85614
G1 X120.541 Y156.903 E5.91637
G1 X120.481 Y156.435 E5.97236
G1 X120.502 Y156.112 E6.01081
G1 X120.610 Y155.690 E6.06260
G1 X120.748 Y155.397 E6.10104
G1 X121.004 Y155.044 E6.15286
G1 X121.240 Y154.822 E6.19133
G1 X121.639 Y154.570 E6.24733
G1 X122.087 Y154.424 E6.30337
G1 X122.409 Y154.383 E6.34181 F1200.000
G1 X122.784 Y154.407 E6.38649
G1 X122.732 Y155.119 F7800.000
G1 X122.911 Y155.165 E6.40853 F1200.000
G1 X123.138 Y155.268 E6.43806
G1 X123.324 Y155.393 E6.46468
G1 X123.457 Y155.518 E6.48646
G1 X123.642 Y155.772 E6.52374
G1 X123.762 Y156.076 E6.56254
G1 X123.802 Y156.387 E6.59982
G1 X123.790 Y156.576 E6.62222
G1 X123.715 Y156.867 E6.65799
G1 X123.635 Y157.038 E6.68040
G1 X123.457 Y157.282 E6.71617
G1 X123.320 Y157.411 E6.73859
G1 X123.066 Y157.572 E6.77435
G1 X122.890 Y157.642 E6.79676
G1 X122.582 Y157.701 E6.83405
G1 X122.269 Y157.681 E6.87132
G1 X122.086 Y157.634 E6.89374
G1 X121.813 Y157.506 E6.92950
G1 X121.671 Y157.402 E6.95041
G1 X121.543 Y157.282 E6.97132
G1 X121.358 Y157.028 E7.00861
G1 X121.238 Y156.724 E7.04741
G1 X121.198 Y156.413 E7.08468
G1 X121.210 Y156.224 E7.10709
G1 X121.285 Y155.933 E7.14286
G1 X121.365 Y155.762 E7.16526
G1 X121.543 Y155.518 E7.20104
G1 X121.680 Y155.389 E7.22346
G1 X121.945 Y155.221 E7.26074
G1 X122.244 Y155.124 E7.29803
G1 X122.431 Y155.100 E7.32043 F1200.000
G1 X122.672 Y155.115 E7.34908
G1 X122.853 Y154.979 F7800.000
G1 X123.712 Y154.934 F7800.000
G1 X128.943 Y156.203 F7800.000
G1 X130.177 Y150.914 F7800.000
G1 X129.667 Y150.091 F7800.000
G1 X129.482 Y149.718 F7800.000
G1 X129.378 Y149.478 F7800.000
G1 X130.013 Y148.802 F7800.000
G1 X129.904 Y148.856 F7800.000
G1 X129.627 Y148.475 E7.40510 F1200.000
G1 X129.441 Y148.003 E7.46533
G1 X129.381 Y147.535 E7.52133
G1 X129.402 Y147.212 E7.55977
G1 X129.510 Y146.790 E7.61156
G1 X129.648 Y146.497 E7.65000
G1 X129.904 Y146.144 E7.70182
G1 X130.140 Y145.922 E7.74029
G1 X130.539 Y145.670 E7.79629
G1 X130.987 Y145.524 E7.85233
G1 X131.309 Y145.483 E7.89077 F1200.000
G1 X131.744 Y145.511 E7.94258
G1 X132.023 Y145.583 E7.97686
G1 X132.291 Y145.688 E8.01104
G1 X132.660 Y145.922 E8.06287
G1 X132.896 Y146.144 E8.10133
G1 X133.173 Y146.525 E8.15735
G1 X133.359 Y146.997 E8.21758
G1 X133.419 Y147.465 E8.27358
G1 X133.398 Y147.788 E8.31202
G1 X133.290 Y148.210 E8.36381
G1 X133.152 Y148.503 E8.40225
G1 X132.896 Y148.856 E8.45407
G1 X132.660 Y149.078 E8.49254
G1 X132.261 Y149.330 E8.54854
G1 X131.813 Y149.476 E8.60458
G1 X131.491 Y149.517 E8.64302
G1 X131.056 Y149.489 E8.69483
G1 X130.777 Y149.417 E8.72911
G1 X130.509 Y149.312 E8.76329
G1 X130.140 Y149.078 E8.81512
G1 X129.948 Y148.897 E8.84645
G1 X130.443 Y148.382 F7800.000
G1 X130.258 Y148.128 E8.88374 F1200.000
G1 X130.138 Y147.824 E8.92254
G1 X130.098 Y147.513 E8.95982
G1 X130.110 Y147.324 E8.98222
G1 X130.185 Y147.033 E9.01799
G1 X130.265 Y146.862 E9.04040
G1 X130.443 Y146.618 E9.07617
G1 X130.580 Y146.489 E9.09859
G1 X130.845 Y146.321 E9.13587
G1 X131.144 Y146.224 E9.17317
G1 X131.331 Y146.200 E9.19557 F1200.000
G1 X131.632 Y146.219 E9.23134
G1 X131.802 Y146.263 E9.25225
G1 X131.966 Y146.328 E9.27313
G1 X132.220 Y146.489 E9.30891
G1 X132.357 Y146.618 E9.33132
G1 X132.542 Y146.872 E9.36861
G1 X132.662 Y147.176 E9.40740
G1 X132.702 Y147.487 E9.44468
G1 X132.690 Y147.676 E9.46709
G1 X132.615 Y147.967 E9.50285
G1 X132.535 Y148.138 E9.52526
G1 X132.357 Y148.382 E9.56104
G1 X132.220 Y148.511 E9.58345
G1 X131.955 Y148.679 E9.62073
G1 X131.656 Y148.776 E9.65803
G1 X131.469 Y148.800 E9.68043
G1 X131.168 Y148.781 E9.71620
G1 X130.998 Y148.737 E9.73712
G1 X130.834 Y148.672 E9.75799
G1 X130.580 Y148.511 E9.79377
G1 X130.486 Y148.423 E9.80906
G1 X130.133 Y148.434 F7800.000
G1 X129.498 Y147.500 F7800.000
G1 X129.146 Y148.789 F7800.000
G1 X128.943 Y156.203 F7800.000
G1 X121.456 Y154.087 F7800.000
G1 X97.076 Y153.993 F7800.000
G1 X89.229 Y153.450 F7800.000
G1 X90.667 Y149.365 F7800.000
G1 X90.944 Y148.387 F7800.000
G1 X91.014 Y147.839 F7800.000
G1 X91.025 Y147.533 F7800.000
G1 X90.502 Y147.500 F7800.000
G1 X90.619 Y147.465 F7800.000
G1 X90.598 Y147.788 E9.84750 F1200.000
G1 X90.490 Y148.210 E9.89930
G1 X90.352 Y148.503 E9.93775
G1 X90.096 Y148.856 E9.98955
G1 X89.860 Y149.078 E10.02801
G1 X89.461 Y149.330 E10.08401
G1 X89.013 Y149.476 E10.14006
G1 X88.691 Y149.517 E10.17850
G1 X88.256 Y149.489 E10.23032
G1 X87.943 Y149.409 E10.26877
G1 X87.548 Y149.223 E10.32051
G1 X87.315 Y149.054 E10.35479
G1 X87.104 Y148.856 E10.38906
G1 X86.827 Y148.475 E10.44507
G1 X86.641 Y148.003 E10.50530
G1 X86.577 Y147.500 E10.56552
G1 X86.636 Y147.032 E10.62154
G1 X86.725 Y146.758 E10.65578
G1 X86.848 Y146.497 E10.69005
G1 X87.120 Y146.122 E10.74501
G1 X87.429 Y145.858 E10.79329
G1 X87.753 Y145.665 E10.83811
G1 X88.187 Y145.524 E10.89234
G1 X88.509 Y145.483 E10.93078 F1200.000
G1 X88.944 Y145.511 E10.98260
G1 X89.257 Y145.591 E11.02105
G1 X89.652 Y145.777 E11.07279
G1 X89.885 Y145.946 E11.10707
G1 X90.096 Y146.144 E11.14134
G1 X90.373 Y146.525 E11.19735
G1 X90.559 Y146.997 E11.25758
G1 X90.611 Y147.405 E11.30646
G1 X89.902 Y147.487 F7800.000
G1 X89.890 Y147.676 E11.32887 F1200.000
G1 X89.815 Y147.967 E11.36464
G1 X89.735 Y148.138 E11.38705
G1 X89.557 Y148.382 E11.42282
G1 X89.420 Y148.511 E11.44523
G1 X89.155 Y148.679 E11.48251
G1 X88.856 Y148.776 E11.51981
G1 X88.669 Y148.800 E11.54221
G1 X88.368 Y148.781 E11.57799
G1 X88.186 Y148.734 E11.60040
G1 X87.913 Y148.606 E11.63615
G1 X87.771 Y148.502 E11.65706
G1 X87.643 Y148.382 E11.67797
G1 X87.458 Y148.128 E11.71525
G1 X87.338 Y147.824 E11.75405
G1 X87.297 Y147.500 E11.79284
G1 X87.336 Y147.189 E11.83012
G1 X87.465 Y146.862 E11.87185
G1 X87.648 Y146.610 E11.90876
G1 X87.847 Y146.441 E11.93983
G1 X88.050 Y146.319 E11.96795
G1 X88.344 Y146.224 E12.00459
G1 X88.531 Y146.200 E12.02699 F1200.000
G1 X88.832 Y146.219 E12.06277
G1 X89.014 Y146.266 E12.08518
G1 X89.287 Y146.394 E12.12093
G1 X89.429 Y146.498 E12.14184
G1 X89.557 Y146.618 E12.16275
G1 X89.742 Y146.872 E12.20003
G1 X89.862 Y147.176 E12.23883
G1 X89.894 Y147.428 E12.26899
G1 X90.065 Y147.582 F7800.000
G1 X88.719 Y145.602 F7800.000
G1 X91.018 Y122.772 F7800.000
G1 X90.334 Y119.910 F7800.000
G1 X89.275 Y112.000 F7800.000
G1 X89.275 Y101.800 F7800.000
G1 X89.235 Y101.586 F7800.000
G1 X88.964 Y101.347 F7800.000
G1 X88.719 Y99.398 F7800.000
G1 X88.692 Y99.517 F7800.000
G1 X88.256 Y99.489 E12.32081 F1200.000
G1 X87.943 Y99.409 E12.35926
G1 X87.548 Y99.223 E12.41100
G1 X87.315 Y99.054 E12.44528
G1 X87.078 Y98.831 E12.48393
G1 X86.827 Y98.475 E12.53564
G1 X86.641 Y98.003 E12.59588
G1 X86.577 Y97.500 E12.65610
G1 X86.636 Y97.032 E12.71211
G1 X86.725 Y96.758 E12.74636
G1 X86.848 Y96.497 E12.78062
G1 X87.104 Y96.144 E12.83243
G1 X87.340 Y95.922 E12.87089
G1 X87.739 Y95.670 E12.92689
G1 X88.187 Y95.524 E12.98293
G1 X88.508 Y95.483 E13.02137 F1200.000
G1 X88.944 Y95.511 E13.07319
G1 X89.257 Y95.591 E13.11164
G1 X89.652 Y95.777 E13.16338
G1 X89.885 Y95.946 E13.19766
G1 X90.096 Y96.144 E13.23193
G1 X90.373 Y96.525 E13.28794
G1 X90.559 Y96.997 E13.34818
G1 X90.619 Y97.465 E13.40418
G1 X90.598 Y97.788 E13.44263
G1 X90.490 Y98.210 E13.49442
G1 X90.352 Y98.503 E13.53287
G1 X90.096 Y98.856 E13.58468
G1 X89.860 Y99.078 E13.62314
G1 X89.461 Y99.330 E13.67914
G1 X89.013 Y99.476 E13.73518
G1 X88.751 Y99.509 E13.76649
G1 X88.669 Y98.800 F7800.000
G1 X88.368 Y98.781 E13.80227 F1200.000
G1 X88.186 Y98.734 E13.82468
G1 X87.913 Y98.606 E13.86043
G1 X87.643 Y98.382 E13.90216
G1 X87.458 Y98.128 E13.93945
G1 X87.338 Y97.824 E13.97825
G1 X87.297 Y97.500 E14.01704
G1 X87.336 Y97.189 E14.05432
G1 X87.391 Y97.021 E14.07522
G1 X87.465 Y96.862 E14.09613
G1 X87.643 Y96.618 E14.13190
G1 X87.780 Y96.489 E14.15432
G1 X88.045 Y96.321 E14.19159
G1 X88.344 Y96.224 E14.22889
G1 X88.531 Y96.200 E14.25129 F1200.000
G1 X88.832 Y96.219 E14.28707
G1 X89.014 Y96.266 E14.30948
G1 X89.287 Y96.394 E14.34523
G1 X89.557 Y96.618 E14.38696
G1 X89.742 Y96.872 E14.42425
G1 X89.862 Y97.176 E14.46305
G1 X89.902 Y97.487 E14.50033
G1 X89.890 Y97.676 E14.52273
G1 X89.815 Y97.967 E14.55850
G1 X89.735 Y98.138 E14.58091
G1 X89.557 Y98.382 E14.61669
G1 X89.420 Y98.511 E14.63910
G1 X89.155 Y98.679 E14.67637
G1 X88.856 Y98.776 E14.71367
G1 X88.729 Y98.792 E14.72895
G1 X88.518 Y99.061 F7800.000
G1 E12.72895 F2400.00000
G92 E0
G1 Z0.600 F7800.000
G1 X88.719 Y95.602 F7800.000
G1 X88.775 Y86.467 F7800.000
G1 X89.275 Y78.400 F7800.000
G1 X89.033 Y76.895 F7800.000
G1 X88.719 Y74.398 F7800.000
G1 X88.727 Y74.519 F7800.000
G1 Z0.400 F7800.000
G1 E2.00000 F2400.00000
G1 X88.256 Y74.489 E2.05599 F1200.000
G1 X87.943 Y74.409 E2.09446
G1 X87.548 Y74.223 E2.14627
G1 X87.315 Y74.054 E2.18052
G1 X87.104 Y73.856 E2.21479
G1 X86.827 Y73.475 E2.27080
G1 X86.641 Y73.003 E2.33103
G1 X86.577 Y72.500 E2.39125
G1 X86.636 Y72.032 E2.44727
G1 X86.725 Y71.758 E2.48152
G1 X86.848 Y71.497 E2.51578
G1 X87.077 Y71.169 E2.56327
G1 X87.340 Y70.922 E2.60613
G1 X87.709 Y70.689 E2.65789
G1 X88.009 Y70.569 E2.69634
G1 X88.473 Y70.481 E2.75239 F1200.000
G1 X88.944 Y70.511 E2.80838
G1 X89.257 Y70.591 E2.84685
G1 X89.652 Y70.777 E2.89865
G1 X89.918 Y70.970 E2.93769
G1 X90.258 Y71.339 E2.99729
G1 X90.414 Y71.613 E3.03479
G1 X90.561 Y72.009 E3.08489
G1 X90.619 Y72.465 E3.13947
G1 X90.598 Y72.788 E3.17792
G1 X90.490 Y73.210 E3.22971
G1 X90.352 Y73.503 E3.26816
G1 X90.096 Y73.856 E3.31997
G1 X89.860 Y74.078 E3.35842
G1 X89.491 Y74.311 E3.41019
G1 X89.191 Y74.431 E3.44864
G1 X88.786 Y74.508 E3.49756
G1 X88.682 Y73.801 F7800.000
G1 X88.369 Y73.781 E3.53483 F1200.000
G1 X88.186 Y73.734 E3.55725
G1 X87.913 Y73.606 E3.59302
G1 X87.771 Y73.502 E3.61392
G1 X87.643 Y73.382 E3.63483
G1 X87.458 Y73.128 E3.67211
G1 X87.338 Y72.824 E3.71091
G1 X87.297 Y72.500 E3.74971
G1 X87.336 Y72.189 E3.78699
G1 X87.465 Y71.862 E3.82871
G1 X87.643 Y71.618 E3.86449
G1 X87.780 Y71.489 E3.88690
G1 X88.034 Y71.328 E3.92266
G1 X88.210 Y71.258 E3.94506
G1 X88.518 Y71.199 E3.98236 F1200.000
G1 X88.831 Y71.219 E4.01964
