; generated by Slic3r 1.2.9 on 2016-04-12 at 22:47:16

; external perimeters extrusion width = 0.40mm
; perimeters extrusion width = 0.67mm
; infill extrusion width = 0.67mm
; solid infill extrusion width = 0.67mm
; top infill extrusion width = 0.67mm

M190 S60 ; set bed temperature
M104 S210 ; set temperature
G28 ; home all axes
G1 Z5 F5000 ; lift nozzle

M109 S210 ; wait for temperature to be reached
G21 ; set units to millimeters
G90 ; use absolute coordinates
M82 ; use absolute distances for extrusion
G92 E0
M106 S255
G1 E-2.00000 F2400.00000
G92 E0
G1 Z0.200 F7800.000
G1 Z0.400 F7800.000
G1 Z0.600 F7800.000
G1 X79.651 Y90.621 F7800.000
G1 Z0.400 F7800.000
G1 E2.00000 F2400.00000
G1 X81.949 Y89.337 E2.31268 F1200.000
G1 X85.000 Y88.786 E2.68087
G1 X135.000 Y88.786 E8.61913
G1 X137.603 Y89.184 E8.93180
G1 X139.968 Y90.340 E9.24448 F1200.000
G1 X141.879 Y92.151 E9.55716
G1 X143.163 Y94.449 E9.86984
G1 X143.714 Y97.500 E10.23803
G1 X143.714 Y122.500 E13.20716
G1 X143.316 Y125.103 E13.51984
G1 X142.160 Y127.468 E13.83251
G1 X140.349 Y129.379 E14.14519
G1 X138.051 Y130.663 E14.45787
G1 X135.000 Y131.214 E14.82606
G1 X85.000 Y131.214 E20.76432
G1 X82.397 Y130.816 E21.07700
G1 X80.032 Y129.660 E21.38967
G1 X78.121 Y127.849 E21.70235
G1 X76.837 Y125.551 E22.01503
G1 X76.286 Y122.500 E22.38322
G1 X76.286 Y97.500 E25.35235
G1 X76.684 Y94.897 E25.66503
G1 X77.840 Y92.532 E25.97771
G1 X79.609 Y90.665 E26.28326
G1 E24.28326 F2400.00000
G92 E0
G1 Z0.600 F7800.000
G1 X98.457 Y119.782 F7800.000
G1 Z0.400 F7800.000
G1 E2.00000 F2400.00000
G1 X98.320 Y119.911 E2.02242 F1200.000
G1 X98.066 Y120.072 E2.05817
G1 X97.890 Y120.142 E2.08058
G1 X97.582 Y120.201 E2.11788
G1 X97.269 Y120.181 E2.15514
G1 X97.086 Y120.134 E2.17756
G1 X96.813 Y120.006 E2.21333
G1 X96.543 Y119.782 E2.25507
G1 X96.358 Y119.528 E2.29235
G1 X96.238 Y119.224 E2.33115
G1 X96.198 Y118.913 E2.36843
G1 X96.210 Y118.724 E2.39083
G1 X96.285 Y118.433 E2.42660
G1 X96.365 Y118.262 E2.44901
G1 X96.543 Y118.018 E2.48478
G1 X96.680 Y117.889 E2.50720
G1 X96.934 Y117.728 E2.54296
G1 X97.110 Y117.658 E2.56537
G1 X97.418 Y117.599 E2.60266 F1200.000
G1 X97.731 Y117.619 E2.63993
G1 X97.914 Y117.666 E2.66235
G1 X98.187 Y117.794 E2.69811
G1 X98.329 Y117.898 E2.71902
G1 X98.457 Y118.018 E2.73994
G1 X98.642 Y118.272 E2.77722
G1 X98.762 Y118.576 E2.81602
G1 X98.802 Y118.887 E2.85330
G1 X98.790 Y119.076 E2.87570
G1 X98.715 Y119.367 E2.91147
G1 X98.635 Y119.538 E2.93388
G1 X98.493 Y119.733 E2.96253
G1 X98.512 Y119.962 F7800.000
G1 X120.481 Y118.935 F7800.000
G1 X120.502 Y118.612 E3.00097 F1200.000
G1 X120.610 Y118.190 E3.05276
G1 X120.748 Y117.897 E3.09120
G1 X121.004 Y117.544 E3.14302
G1 X121.240 Y117.322 E3.18149
G1 X121.609 Y117.089 E3.23326
G1 X121.909 Y116.969 E3.27170
G1 X122.373 Y116.881 E3.32774 F1200.000
G1 X122.843 Y116.911 E3.38373
G1 X123.157 Y116.991 E3.42220
G1 X123.552 Y117.177 E3.47398
G1 X123.785 Y117.346 E3.50824
G1 X123.996 Y117.544 E3.54253
G1 X124.273 Y117.925 E3.59856
G1 X124.459 Y118.397 E3.65878
G1 X124.519 Y118.865 E3.71478
G1 X124.498 Y119.188 E3.75323
G1 X124.390 Y119.610 E3.80501
G1 X124.252 Y119.903 E3.84346
G1 X123.996 Y120.256 E3.89527
G1 X123.810 Y120.430 E3.92551
G1 X123.819 Y120.440 E3.92707
G1 X123.391 Y120.711 E3.98717
G1 X123.091 Y120.831 E4.02562
G1 X122.627 Y120.919 E4.08166
G1 X122.157 Y120.889 E4.13764
G1 X121.843 Y120.809 E4.17612
G1 X121.448 Y120.623 E4.22790
G1 X121.215 Y120.454 E4.26215
G1 X121.004 Y120.256 E4.29645
G1 X120.727 Y119.875 E4.35247
G1 X120.541 Y119.403 E4.41270
G1 X120.489 Y118.995 E4.46157
G1 X121.198 Y118.913 F7800.000
G1 X121.210 Y118.724 E4.48398 F1200.000
G1 X121.285 Y118.433 E4.51974
G1 X121.365 Y118.262 E4.54215
G1 X121.543 Y118.018 E4.57793
G1 X121.680 Y117.889 E4.60034
G1 X121.934 Y117.728 E4.63610
G1 X122.110 Y117.658 E4.65851
G1 X122.418 Y117.599 E4.69580 F1200.000
G1 X122.731 Y117.619 E4.73307
G1 X122.914 Y117.666 E4.75549
G1 X123.187 Y117.794 E4.79125
G1 X123.457 Y118.018 E4.83299
G1 X123.642 Y118.272 E4.87028
G1 X123.762 Y118.576 E4.90908
G1 X123.802 Y118.887 E4.94635
G1 X123.790 Y119.076 E4.96876
G1 X123.715 Y119.367 E5.00453
G1 X123.635 Y119.538 E5.02693
G1 X123.457 Y119.782 E5.06271
G1 X123.320 Y119.911 E5.08513
G1 X123.066 Y120.072 E5.12089
G1 X122.890 Y120.142 E5.14329
G1 X122.582 Y120.201 E5.18059
G1 X122.269 Y120.181 E5.21786
G1 X122.086 Y120.134 E5.24028
G1 X121.813 Y120.006 E5.27604
G1 X121.543 Y119.782 E5.31778
G1 X121.358 Y119.528 E5.35507
G1 X121.238 Y119.224 E5.39386
G1 X121.206 Y118.972 E5.42401
G1 X121.035 Y118.818 F7800.000
G1 E3.42401 F2400.00000
G92 E0
G1 Z0.600 F7800.000
G1 X123.712 Y117.434 F7800.000
G1 X130.007 Y118.507 F7800.000
G1 X130.176 Y113.413 F7800.000
G1 X129.667 Y112.591 F7800.000
G1 X129.482 Y112.218 F7800.000
G1 X129.378 Y111.978 F7800.000
G1 X130.013 Y111.302 F7800.000
G1 X129.904 Y111.356 F7800.000
G1 Z0.400 F7800.000
G1 E2.00000 F2400.00000
G1 X129.627 Y110.975 E2.05602 F1200.000
G1 X129.441 Y110.503 E2.11625
G1 X129.381 Y110.035 E2.17225
G1 X129.402 Y109.712 E2.21069
G1 X129.510 Y109.290 E2.26248
G1 X129.648 Y108.997 E2.30092
G1 X129.904 Y108.644 E2.35274
G1 X130.140 Y108.422 E2.39121
G1 X130.509 Y108.189 E2.44298
G1 X130.809 Y108.069 E2.48142
G1 X131.273 Y107.981 E2.53746 F1200.000
G1 X131.743 Y108.011 E2.59345
G1 X132.057 Y108.091 E2.63192
G1 X132.452 Y108.277 E2.68370
G1 X132.685 Y108.446 E2.71796
G1 X132.922 Y108.668 E2.75651
G1 X133.173 Y109.025 E2.80836
G1 X133.359 Y109.497 E2.86858
G1 X133.419 Y109.965 E2.92458
G1 X133.398 Y110.288 E2.96303
G1 X133.290 Y110.710 E3.01481
G1 X133.152 Y111.003 E3.05326
G1 X132.896 Y111.356 E3.10508
G1 X132.660 Y111.578 E3.14354
G1 X132.291 Y111.811 E3.19531
G1 X131.991 Y111.931 E3.23375
G1 X131.527 Y112.019 E3.28980
G1 X131.057 Y111.989 E3.34578
G1 X130.743 Y111.909 E3.38425
G1 X130.348 Y111.723 E3.43603
G1 X130.115 Y111.554 E3.47029
G1 X129.948 Y111.397 E3.49746
G1 X130.443 Y110.882 F7800.000
G1 X130.258 Y110.628 E3.53475 F1200.000
G1 X130.138 Y110.324 E3.57354
G1 X130.098 Y110.013 E3.61082
G1 X130.110 Y109.824 E3.63323
G1 X130.185 Y109.533 E3.66899
G1 X130.265 Y109.362 E3.69140
G1 X130.443 Y109.118 E3.72718
G1 X130.580 Y108.989 E3.74959
G1 X130.834 Y108.828 E3.78535
G1 X131.010 Y108.758 E3.80776
G1 X131.318 Y108.699 E3.84505 F1200.000
G1 X131.631 Y108.719 E3.88232
G1 X131.814 Y108.766 E3.90474
G1 X132.087 Y108.894 E3.94050
G1 X132.229 Y108.998 E3.96141
G1 X132.357 Y109.118 E3.98233
G1 X132.542 Y109.372 E4.01961
G1 X132.662 Y109.676 E4.05841
G1 X132.702 Y109.987 E4.09569
G1 X132.690 Y110.176 E4.11809
G1 X132.615 Y110.467 E4.15386
G1 X132.535 Y110.638 E4.17627
G1 X132.357 Y110.882 E4.21204
G1 X132.220 Y111.011 E4.23446
G1 X131.966 Y111.172 E4.27022
G1 X131.790 Y111.242 E4.29263
G1 X131.482 Y111.301 E4.32992
G1 X131.169 Y111.281 E4.36719
G1 X130.986 Y111.234 E4.38961
G1 X130.713 Y111.106 E4.42537
G1 X130.486 Y110.923 E4.46000
G1 X130.134 Y110.941 F7800.000
G1 X129.558 Y109.527 F7800.000
G1 X130.725 Y105.700 F7800.000
G1 X126.391 Y101.964 F7800.000
G1 X123.626 Y103.395 F7800.000
G1 X120.099 Y102.931 F7800.000
G1 X113.600 Y101.775 F7800.000
G1 X101.902 Y101.528 F7800.000
G1 X101.142 Y102.157 F7800.000
G1 X100.904 Y102.331 F7800.000
G1 X99.268 Y101.800 F7800.000
G1 X99.390 Y101.810 F7800.000
G1 X99.252 Y102.103 E4.49844 F1200.000
G1 X98.996 Y102.456 E4.55027
G1 X98.760 Y102.678 E4.58871
G1 X98.391 Y102.912 E4.64052
G1 X98.090 Y103.031 E4.67896
G1 X97.627 Y103.119 E4.73498
G1 X97.121 Y103.087 E4.79519
G1 X96.639 Y102.930 E4.85542
G1 X96.240 Y102.678 E4.91144
G1 X96.004 Y102.456 E4.94988
G1 X95.748 Y102.103 E5.00171
G1 X95.610 Y101.810 E5.04015
G1 X95.502 Y101.388 E5.09194
G1 X95.484 Y101.100 E5.12620
G1 X95.502 Y100.812 E5.16046
G1 X95.610 Y100.390 E5.21225
G1 X95.748 Y100.097 E5.25069
G1 X96.004 Y99.744 E5.30252
G1 X96.190 Y99.570 E5.33275
G1 X96.181 Y99.560 E5.33431
G1 X96.609 Y99.288 E5.39443
G1 X96.910 Y99.169 E5.43287
G1 X97.373 Y99.081 E5.48888 F1200.000
G1 X97.870 Y99.112 E5.54804
G1 X98.259 Y99.232 E5.59631
G1 X98.596 Y99.402 E5.64113
G1 X98.975 Y99.715 E5.69955
G1 X99.252 Y100.097 E5.75560
G1 X99.390 Y100.390 E5.79404
G1 X99.498 Y100.812 E5.84583
G1 X99.516 Y101.100 E5.88009
G1 X99.498 Y101.388 E5.91435
G1 X99.405 Y101.752 E5.95901
G1 X98.715 Y101.567 F7800.000
G1 X98.635 Y101.738 E5.98142 F1200.000
G1 X98.457 Y101.982 E6.01720
G1 X98.320 Y102.111 E6.03961
G1 X98.066 Y102.272 E6.07538
G1 X97.890 Y102.342 E6.09779
G1 X97.582 Y102.401 E6.13507
G1 X97.256 Y102.380 E6.17386
G1 X96.945 Y102.279 E6.21266
G1 X96.680 Y102.111 E6.24995
G1 X96.543 Y101.982 E6.27235
G1 X96.365 Y101.738 E6.30813
G1 X96.285 Y101.567 E6.33054
G1 X96.210 Y101.276 E6.36631
G1 X96.210 Y100.924 E6.40803
G1 X96.285 Y100.633 E6.44380
G1 X96.365 Y100.462 E6.46620
G1 X96.543 Y100.218 E6.50198
G1 X96.680 Y100.089 E6.52439
G1 X96.934 Y99.928 E6.56016
G1 X97.110 Y99.858 E6.58257
G1 X97.418 Y99.799 E6.61985 F1200.000
G1 X97.741 Y99.820 E6.65826
G1 X97.991 Y99.897 E6.68934
G1 X98.202 Y100.003 E6.71745
G1 X98.450 Y100.208 E6.75560
G1 X98.635 Y100.462 E6.79290
G1 X98.715 Y100.633 E6.81530
G1 X98.790 Y100.924 E6.85107
G1 X98.790 Y101.276 E6.89279
G1 X98.730 Y101.509 E6.92144
G1 X98.832 Y101.715 F7800.000
G1 E4.92144 F2400.00000
G92 E0
G1 Z0.600 F7800.000
G1 X95.961 Y102.218 F7800.000
G1 X94.096 Y102.331 F7800.000
G1 X93.380 Y101.775 F7800.000
G1 X91.550 Y101.476 F7800.000
G1 X91.550 Y104.050 F7800.000
G1 X91.436 Y103.936 F7800.000
G1 Z0.400 F7800.000
G1 E2.00000 F2400.00000
G1 X128.564 Y103.936 E6.40955 F1200.000
G1 X128.564 Y116.064 E7.84997
G1 X91.436 Y116.064 E12.25952
G1 X91.436 Y103.996 E13.69282
G1 X92.150 Y104.650 F7800.000
G1 X127.850 Y104.650 E17.93274 F1200.000
G1 X127.850 Y115.350 E19.20352
G1 X92.150 Y115.350 E23.44344
G1 X92.150 Y104.710 E24.70710
G1 X92.150 Y104.250 F7800.000
G1 X89.652 Y108.277 F7800.000
G1 X89.885 Y108.446 E24.74136 F1200.000
G1 X90.096 Y108.644 E24.77563
G1 X90.373 Y109.025 E24.83164
G1 X90.559 Y109.497 E24.89187
G1 X90.619 Y109.965 E24.94788
G1 X90.598 Y110.288 E24.98632
G1 X90.490 Y110.710 E25.03812
G1 X90.352 Y111.003 E25.07657
G1 X90.096 Y111.356 E25.12837
G1 X89.860 Y111.578 E25.16683
G1 X89.491 Y111.811 E25.21860
G1 X89.191 Y111.931 E25.25704
G1 X88.727 Y112.019 E25.31309
G1 X88.256 Y111.989 E25.36908
G1 X87.943 Y111.909 E25.40755
G1 X87.548 Y111.723 E25.45936
G1 X87.315 Y111.554 E25.49361
G1 X87.104 Y111.356 E25.52788
G1 X86.827 Y110.975 E25.58389
G1 X86.641 Y110.503 E25.64412
G1 X86.577 Y110.000 E25.70434
G1 X86.636 Y109.532 E25.76036
G1 X86.725 Y109.258 E25.79461
G1 X86.848 Y108.997 E25.82887
G1 X87.077 Y108.669 E25.87637
G1 X87.340 Y108.422 E25.91922
G1 X87.709 Y108.189 E25.97098
G1 X88.009 Y108.069 E26.00943
G1 X88.473 Y107.981 E26.06548 F1200.000
G1 X88.944 Y108.011 E26.12147
G1 X89.257 Y108.091 E26.15994
G1 X89.598 Y108.251 E26.20461
G1 X89.287 Y108.894 F7800.000
G1 X89.557 Y109.118 E26.24634 F1200.000
G1 X89.742 Y109.372 E26.28362
G1 X89.862 Y109.676 E26.32242
G1 X89.902 Y109.987 E26.35971
G1 X89.890 Y110.176 E26.38211
G1 X89.815 Y110.467 E26.41788
G1 X89.735 Y110.638 E26.44029
G1 X89.557 Y110.882 E26.47606
G1 X89.420 Y111.011 E26.49847
G1 X89.166 Y111.172 E26.53423
G1 X88.990 Y111.242 E26.55664
G1 X88.682 Y111.301 E26.59393
G1 X88.369 Y111.281 E26.63121
G1 X88.186 Y111.234 E26.65363
G1 X87.913 Y111.106 E26.68940
G1 X87.643 Y110.882 E26.73113
G1 X87.458 Y110.628 E26.76841
G1 X87.338 Y110.324 E26.80721
G1 X87.297 Y110.000 E26.84600
G1 X87.336 Y109.689 E26.88328
G1 X87.391 Y109.521 E26.90418
G1 X87.465 Y109.362 E26.92509
G1 X87.643 Y109.118 E26.96086
G1 X87.780 Y108.989 E26.98328
G1 X88.034 Y108.828 E27.01903
G1 X88.210 Y108.758 E27.04144
G1 X88.518 Y108.699 E27.07874 F1200.000
G1 X88.831 Y108.719 E27.11601
G1 X89.014 Y108.766 E27.13843
G1 X89.232 Y108.869 E27.16707
G1 X89.605 Y108.745 F7800.000
G1 X87.114 Y105.586 F7800.000
G1 X86.114 Y105.586 E27.28584 F1200.000
G1 X86.114 Y98.614 E28.11383
G1 X93.086 Y98.614 E28.94183
G1 X93.086 Y99.614 E29.06059
G1 X95.485 Y99.614 E29.34556
G1 X95.915 Y99.258 E29.41187
G1 X96.146 Y99.520 E29.45336
G1 X95.941 Y99.237 E29.49492
G1 X96.314 Y98.928 E29.55253
G1 X96.314 Y98.614 E29.58975
G1 X103.286 Y98.614 E30.41775
G1 X103.286 Y99.614 E30.53651
G1 X106.514 Y99.614 E30.91992
G1 X106.514 Y98.614 E31.03869
G1 X113.486 Y98.614 E31.86668
G1 X113.486 Y99.614 E31.98545
G1 X116.714 Y99.614 E32.36886
G1 X116.714 Y98.614 E32.48762
G1 X123.686 Y98.614 E33.31562
G1 X123.686 Y98.928 E33.35284
G1 X123.974 Y99.166 E33.39729
G1 X123.764 Y99.487 E33.44276
G1 X123.259 Y99.232 E33.51004
G1 X122.870 Y99.112 E33.55831
G1 X122.373 Y99.081 E33.61747
G1 X121.910 Y99.169 E33.67349
G1 X121.609 Y99.288 E33.71192
G1 X121.240 Y99.522 E33.76373
G1 X121.004 Y99.744 E33.80218
G1 X120.748 Y100.097 E33.85400
G1 X120.610 Y100.390 E33.89244
G1 X120.502 Y100.812 E33.94424
G1 X120.484 Y101.100 E33.97850
G1 X120.502 Y101.388 E34.01275
G1 X120.610 Y101.810 E34.06455
G1 X120.748 Y102.103 E34.10299
G1 X121.004 Y102.456 E34.15481
G1 X121.240 Y102.678 E34.19326
G1 X121.639 Y102.930 E34.24928
G1 X122.121 Y103.087 E34.30950
G1 X122.627 Y103.119 E34.36972
G1 X123.090 Y103.031 E34.42574
G1 X123.391 Y102.912 E34.46418
G1 X123.760 Y102.678 E34.51598
G1 X123.996 Y102.456 E34.55443
G1 X124.252 Y102.103 E34.60625
G1 X124.390 Y101.810 E34.64469
G1 X124.498 Y101.388 E34.69649
G1 X124.516 Y101.100 E34.73075
G1 X124.498 Y100.812 E34.76500
G1 X124.390 Y100.390 E34.81680
G1 X124.252 Y100.097 E34.85524
G1 X123.863 Y99.561 E34.93391
G1 X124.138 Y99.302 E34.97879
G1 X124.515 Y99.614 E35.03684
G1 X126.914 Y99.614 E35.32181
G1 X126.914 Y98.614 E35.44058
G1 X133.886 Y98.614 E36.26857
G1 X133.886 Y105.586 E37.09656
G1 X132.886 Y105.586 E37.21533
G1 X132.886 Y107.985 E37.50032
G1 X133.573 Y108.814 E37.62814
G1 X133.886 Y108.814 E37.66534
G1 X133.886 Y115.786 E38.49334
G1 X132.886 Y115.786 E38.61210
G1 X132.886 Y119.014 E38.99551
G1 X133.886 Y119.014 E39.11428
G1 X133.886 Y121.386 E39.39595
G1 X126.914 Y121.386 E40.22395
G1 X126.914 Y120.386 E40.34271
G1 X124.515 Y120.386 E40.62771
G1 X124.085 Y120.742 E40.69397
G1 X123.857 Y120.484 E40.73489
G1 X124.060 Y120.763 E40.77587
G1 X123.686 Y121.073 E40.83356
G1 X123.686 Y121.386 E40.87076
G1 X116.714 Y121.386 E41.69875
G1 X116.714 Y120.386 E41.81752
G1 X113.486 Y120.386 E42.20093
G1 X113.486 Y121.386 E42.31970
G1 X106.514 Y121.386 E43.14769
G1 X106.514 Y120.386 E43.26645
G1 X103.286 Y120.386 E43.64987
G1 X103.286 Y121.386 E43.76863
G1 X96.314 Y121.386 E44.59662
G1 X96.314 Y121.073 E44.63383
G1 X95.981 Y120.797 E44.68516
G1 X96.236 Y120.469 E44.73444
G1 X96.448 Y120.623 E44.76563
G1 X96.843 Y120.809 E44.81741
G1 X97.157 Y120.889 E44.85588
G1 X97.627 Y120.919 E44.91186
G1 X98.091 Y120.831 E44.96791
G1 X98.391 Y120.711 E45.00635
G1 X98.760 Y120.478 E45.05812
G1 X98.996 Y120.256 E45.09658
G1 X99.252 Y119.903 E45.14840
G1 X99.390 Y119.610 E45.18685
G1 X99.498 Y119.188 E45.23863
G1 X99.519 Y118.865 E45.27708
G1 X99.459 Y118.397 E45.33308
G1 X99.273 Y117.925 E45.39330
G1 X98.996 Y117.544 E45.44933
G1 X98.785 Y117.346 E45.48362
G1 X98.552 Y117.177 E45.51788
G1 X98.157 Y116.991 E45.56966
G1 X97.843 Y116.911 E45.60813
G1 X97.373 Y116.881 E45.66411
G1 X96.909 Y116.969 E45.72016
G1 X96.609 Y117.089 E45.75860
G1 X96.240 Y117.322 E45.81037
G1 X96.004 Y117.544 E45.84884
G1 X95.748 Y117.897 E45.90066
G1 X95.610 Y118.190 E45.93910
G1 X95.502 Y118.612 E45.99089
G1 X95.481 Y118.935 E46.02933
G1 X95.541 Y119.403 E46.08533
G1 X95.727 Y119.875 E46.14555
G1 X96.004 Y120.256 E46.20158
G1 X96.190 Y120.430 E46.23181
G1 X95.915 Y120.742 E46.28115
G1 X95.485 Y120.386 E46.34741
G1 X93.086 Y120.386 E46.63241
G1 X93.086 Y121.386 E46.75117
G1 X86.114 Y121.386 E47.57916
G1 X86.114 Y119.014 E47.86084
G1 X87.114 Y119.014 E47.97960
G1 X87.114 Y115.786 E48.36302
G1 X86.114 Y115.786 E48.48178
G1 X86.114 Y108.814 E49.30977
G1 X86.428 Y108.814 E49.34700
G1 X87.114 Y107.985 E49.47482
G1 X87.114 Y105.646 E49.75267
G1 X121.210 Y101.276 F7800.000
G1 X121.210 Y100.924 E49.79439 F1200.000
G1 X121.285 Y100.633 E49.83016
G1 X121.365 Y100.462 E49.85257
G1 X121.543 Y100.218 E49.88835
G1 X121.680 Y100.089 E49.91075
G1 X121.934 Y99.928 E49.94653
