; generated by Slic3r 1.2.9 on 2016-06-01 at 21:24:26

; external perimeters extrusion width = 0.40mm
; perimeters extrusion width = 0.67mm
; infill extrusion width = 0.67mm
; solid infill extrusion width = 0.67mm
; top infill extrusion width = 0.67mm

M190 S60 ; set bed temperature
M104 S210 ; set temperature
G28 ; home all axes
G1 Z5 F5000 ; lift nozzle

M109 S210 ; wait for temperature to be reached
G21 ; set units to millimeters
G90 ; use absolute coordinates
M82 ; use absolute distances for extrusion
G92 E0
M106 S255
G1 E-2.00000 F2400.00000
G92 E0
G1 Z0.200 F7800.000
G1 Z0.400 F7800.000
G1 Z0.600 F7800.000
G1 X54.651 Y78.121 F7800.000
G1 Z0.400 F7800.000
G1 E2.00000 F2400.00000
G1 X56.949 Y76.837 E2.31268 F1200.000
G1 X60.000 Y76.286 E2.68087
G1 X160.000 Y76.286 E14.55739
G1 X162.603 Y76.684 E14.87006
G1 X164.968 Y77.840 E15.18274 F1200.000
G1 X166.879 Y79.651 E15.49542
G1 X168.163 Y81.949 E15.80810
G1 X168.714 Y85.000 E16.17629
G1 X168.714 Y135.000 E22.11455
G1 X168.316 Y137.603 E22.42722
G1 X167.160 Y139.968 E22.73990
G1 X165.349 Y141.879 E23.05258
G1 X163.051 Y143.163 E23.36526
G1 X160.000 Y143.714 E23.73345
G1 X60.000 Y143.714 E35.60996
G1 X57.397 Y143.316 E35.92264
G1 X55.032 Y142.160 E36.23532
G1 X53.121 Y140.349 E36.54800
G1 X51.837 Y138.051 E36.86068
G1 X51.286 Y135.000 E37.22887
G1 X51.286 Y85.000 E43.16713
G1 X51.684 Y82.397 E43.47980
G1 X52.840 Y80.032 E43.79248
G1 X54.609 Y78.165 E44.09803
G1 E42.09803 F2400.00000
G92 E0
G1 Z0.600 F7800.000
G1 X122.269 Y132.681 F7800.000
G1 Z0.400 F7800.000
G1 E2.00000 F2400.00000
G1 X122.086 Y132.634 E2.02242 F1200.000
G1 X121.813 Y132.506 E2.05818
G1 X121.543 Y132.282 E2.09992
G1 X121.358 Y132.028 E2.13721
G1 X121.238 Y131.724 E2.17601
G1 X121.198 Y131.413 E2.21328
G1 X121.210 Y131.224 E2.23569
G1 X121.285 Y130.933 E2.27146
G1 X121.365 Y130.762 E2.29386
G1 X121.543 Y130.518 E2.32964
G1 X121.680 Y130.389 E2.35206
G1 X121.934 Y130.228 E2.38781
G1 X122.110 Y130.158 E2.41022
G1 X122.418 Y130.099 E2.44752 F1200.000
G1 X122.731 Y130.119 E2.48478
G1 X122.914 Y130.166 E2.50720
G1 X123.187 Y130.294 E2.54297
G1 X123.329 Y130.398 E2.56387
G1 X123.457 Y130.518 E2.58479
G1 X123.642 Y130.772 E2.62208
G1 X123.762 Y131.076 E2.66087
G1 X123.802 Y131.387 E2.69815
G1 X123.790 Y131.576 E2.72056
G1 X123.715 Y131.867 E2.75632
G1 X123.635 Y132.038 E2.77873
G1 X123.457 Y132.282 E2.81451
G1 X123.320 Y132.411 E2.83692
G1 X123.066 Y132.572 E2.87268
G1 X122.890 Y132.642 E2.89509
G1 X122.582 Y132.701 E2.93239
G1 X122.329 Y132.685 E2.96253
G1 X122.145 Y132.824 F7800.000
G1 E0.96253 F2400.00000
G92 E0
G1 Z0.600 F7800.000
G1 X122.381 Y129.502 F7800.000
G1 X148.955 Y129.193 F7800.000
G1 X151.391 Y130.536 F7800.000
G1 X156.203 Y128.943 F7800.000
G1 X153.986 Y122.839 F7800.000
G1 X153.450 Y89.229 F7800.000
G1 X148.232 Y90.970 F7800.000
G1 X137.467 Y88.775 F7800.000
G1 X124.662 Y90.543 F7800.000
G1 X123.305 Y90.959 F7800.000
G1 X122.686 Y91.022 F7800.000
G1 X122.381 Y91.024 F7800.000
G1 X122.381 Y90.498 F7800.000
G1 X122.582 Y89.901 F7800.000
G1 Z0.400 F7800.000
G1 E2.00000 F2400.00000
G1 X122.256 Y89.880 E2.03879 F1200.000
G1 X121.945 Y89.779 E2.07759
G1 X121.680 Y89.611 E2.11488
G1 X121.543 Y89.482 E2.13728
G1 X121.365 Y89.238 E2.17306
G1 X121.285 Y89.067 E2.19547
G1 X121.210 Y88.776 E2.23124
G1 X121.210 Y88.424 E2.27296
G1 X121.285 Y88.133 E2.30873
G1 X121.365 Y87.962 E2.33113
G1 X121.543 Y87.718 E2.36691
G1 X121.680 Y87.589 E2.38932
G1 X121.934 Y87.428 E2.42509
G1 X122.110 Y87.358 E2.44750
G1 X122.418 Y87.299 E2.48478 F1200.000
G1 X122.744 Y87.320 E2.52357
G1 X123.055 Y87.421 E2.56237
G1 X123.320 Y87.589 E2.59966
G1 X123.457 Y87.718 E2.62207
G1 X123.635 Y87.962 E2.65785
G1 X123.715 Y88.133 E2.68025
G1 X123.790 Y88.424 E2.71602
G1 X123.790 Y88.776 E2.75774
G1 X123.715 Y89.067 E2.79351
G1 X123.635 Y89.238 E2.81592
G1 X123.457 Y89.482 E2.85170
G1 X123.320 Y89.611 E2.87410
G1 X123.066 Y89.772 E2.90988
G1 X122.890 Y89.842 E2.93228
G1 X122.641 Y89.889 E2.96244
G1 X122.424 Y90.187 F7800.000
G1 X123.519 Y90.206 F7800.000
G1 X148.232 Y90.970 F7800.000
G1 X153.450 Y89.229 F7800.000
G1 X154.215 Y120.972 F7800.000
G1 X154.124 Y123.703 F7800.000
G1 X155.341 Y126.140 F7800.000
G1 X151.620 Y130.725 F7800.000
G1 X148.626 Y129.105 F7800.000
G1 X147.381 Y128.976 F7800.000
G1 X146.768 Y129.030 F7800.000
G1 X146.455 Y129.087 F7800.000
G1 X146.690 Y129.679 F7800.000
G1 X146.609 Y129.589 F7800.000
G1 X146.909 Y129.469 E3.00089 F1200.000
G1 X147.373 Y129.381 E3.05693 F1200.000
G1 X147.843 Y129.411 E3.11291
G1 X148.157 Y129.491 E3.15139
G1 X148.552 Y129.677 E3.20317
G1 X148.785 Y129.846 E3.23742
G1 X148.996 Y130.044 E3.27172
G1 X149.273 Y130.425 E3.32774
G1 X149.459 Y130.897 E3.38796
G1 X149.519 Y131.365 E3.44396
G1 X149.498 Y131.688 E3.48241
G1 X149.390 Y132.110 E3.53420
G1 X149.252 Y132.403 E3.57264
G1 X148.996 Y132.756 E3.62446
G1 X148.760 Y132.978 E3.66293
G1 X148.391 Y133.211 E3.71469
G1 X148.091 Y133.331 E3.75314
G1 X147.627 Y133.419 E3.80918
G1 X147.157 Y133.389 E3.86516
G1 X146.843 Y133.309 E3.90364
G1 X146.448 Y133.123 E3.95542
G1 X146.215 Y132.954 E3.98967
G1 X146.004 Y132.756 E4.02397
G1 X145.727 Y132.375 E4.07999
G1 X145.541 Y131.903 E4.14021
G1 X145.481 Y131.435 E4.19622
G1 X145.502 Y131.112 E4.23466
G1 X145.610 Y130.690 E4.28645
G1 X145.748 Y130.397 E4.32489
G1 X146.004 Y130.044 E4.37671
G1 X146.240 Y129.822 E4.41518
G1 X146.558 Y129.621 E4.45982
G1 X146.934 Y130.228 F7800.000
G1 X147.110 Y130.158 E4.48223 F1200.000
G1 X147.418 Y130.099 E4.51952 F1200.000
G1 X147.731 Y130.119 E4.55679
G1 X147.914 Y130.166 E4.57921
G1 X148.187 Y130.294 E4.61497
G1 X148.329 Y130.398 E4.63588
G1 X148.457 Y130.518 E4.65679
G1 X148.642 Y130.772 E4.69408
G1 X148.762 Y131.076 E4.73288
G1 X148.802 Y131.387 E4.77016
G1 X148.790 Y131.576 E4.79256
G1 X148.715 Y131.867 E4.82833
G1 X148.635 Y132.038 E4.85074
G1 X148.457 Y132.282 E4.88651
G1 X148.320 Y132.411 E4.90893
G1 X148.066 Y132.572 E4.94469
G1 X147.890 Y132.642 E4.96710
G1 X147.582 Y132.701 E5.00439
G1 X147.269 Y132.681 E5.04166
G1 X147.086 Y132.634 E5.06408
G1 X146.813 Y132.506 E5.09984
G1 X146.671 Y132.402 E5.12074
G1 X146.543 Y132.282 E5.14166
G1 X146.358 Y132.028 E5.17895
G1 X146.238 Y131.724 E5.21775
G1 X146.198 Y131.413 E5.25502
G1 X146.210 Y131.224 E5.27743
G1 X146.285 Y130.933 E5.31320
G1 X146.365 Y130.762 E5.33560
G1 X146.543 Y130.518 E5.37138
G1 X146.680 Y130.389 E5.39380
G1 X146.884 Y130.260 E5.42243
G1 X146.950 Y130.040 F7800.000
G1 X148.712 Y129.934 F7800.000
G1 X155.037 Y130.998 F7800.000
G1 X155.177 Y125.914 F7800.000
G1 X154.667 Y125.091 F7800.000
G1 X154.482 Y124.718 F7800.000
G1 X154.378 Y124.478 F7800.000
G1 X155.013 Y123.802 F7800.000
G1 X154.904 Y123.856 F7800.000
G1 X154.627 Y123.474 E5.47845 F1200.000
G1 X154.441 Y123.003 E5.53868
G1 X154.381 Y122.535 E5.59468
G1 X154.402 Y122.212 E5.63312
G1 X154.510 Y121.790 E5.68490
G1 X154.648 Y121.497 E5.72335
G1 X154.904 Y121.144 E5.77518
G1 X155.140 Y120.922 E5.81364
G1 X155.539 Y120.670 E5.86964
G1 X155.987 Y120.524 E5.92568
G1 X156.308 Y120.483 E5.96411 F1200.000
G1 X156.744 Y120.511 E6.01593
G1 X157.023 Y120.583 E6.05021
G1 X157.291 Y120.688 E6.08439
G1 X157.660 Y120.922 E6.13622
G1 X157.896 Y121.144 E6.17468
G1 X158.173 Y121.525 E6.23070
G1 X158.354 Y121.983 E6.28911
G1 X158.411 Y122.356 E6.33392
G1 X158.405 Y122.762 E6.38220
G1 X158.290 Y123.210 E6.43714
G1 X158.152 Y123.503 E6.47559
G1 X157.922 Y123.832 E6.52324
G1 X157.660 Y124.078 E6.56595
G1 X157.261 Y124.330 E6.62195
G1 X156.813 Y124.476 E6.67799
G1 X156.491 Y124.517 E6.71643
G1 X156.056 Y124.489 E6.76824
G1 X155.777 Y124.417 E6.80252
G1 X155.509 Y124.312 E6.83670
G1 X155.140 Y124.078 E6.88852
G1 X154.948 Y123.897 E6.91987
G1 X155.443 Y123.382 F7800.000
G1 X155.258 Y123.128 E6.95715 F1200.000
G1 X155.138 Y122.824 E6.99595
G1 X155.098 Y122.513 E7.03323
G1 X155.110 Y122.324 E7.05563
G1 X155.185 Y122.033 E7.09140
G1 X155.265 Y121.862 E7.11381
G1 X155.443 Y121.618 E7.14958
G1 X155.580 Y121.489 E7.17200
G1 X155.845 Y121.321 E7.20928
G1 X156.144 Y121.224 E7.24657
G1 X156.331 Y121.200 E7.26898 F1200.000
G1 X156.632 Y121.219 E7.30475
G1 X156.802 Y121.263 E7.32566
G1 X156.966 Y121.328 E7.34654
G1 X157.220 Y121.489 E7.38232
G1 X157.357 Y121.618 E7.40473
G1 X157.542 Y121.872 E7.44202
G1 X157.660 Y122.171 E7.48016
G1 X157.696 Y122.405 E7.50828
G1 X157.692 Y122.666 E7.53935
G1 X157.615 Y122.967 E7.57625
G1 X157.535 Y123.138 E7.59866
G1 X157.357 Y123.382 E7.63443
G1 X157.220 Y123.511 E7.65685
G1 X156.955 Y123.679 E7.69413
G1 X156.656 Y123.776 E7.73142
G1 X156.469 Y123.800 E7.75382
G1 X156.168 Y123.781 E7.78960
G1 X155.998 Y123.737 E7.81051
G1 X155.834 Y123.672 E7.83139
G1 X155.580 Y123.511 E7.86716
G1 X155.486 Y123.423 E7.88245
G1 X155.133 Y123.434 F7800.000
G1 E5.88245 F2400.00000
G92 E0
G1 Z0.600 F7800.000
G1 X156.281 Y120.602 F7800.000
G1 X156.225 Y111.467 F7800.000
G1 X155.725 Y103.400 F7800.000
G1 X155.013 Y100.674 F7800.000
G1 X155.590 Y99.221 F7800.000
G1 X156.241 Y99.512 F7800.000
G1 Z0.400 F7800.000
G1 E2.00000 F2400.00000
G1 X155.817 Y99.434 E2.05120 F1200.000
G1 X155.509 Y99.311 E2.09063
G1 X155.140 Y99.078 E2.14240
G1 X154.904 Y98.856 E2.18086
G1 X154.627 Y98.475 E2.23689
G1 X154.441 Y98.003 E2.29711
G1 X154.381 Y97.535 E2.35312
G1 X154.402 Y97.212 E2.39156
G1 X154.510 Y96.790 E2.44334
G1 X154.648 Y96.497 E2.48179
G1 X154.904 Y96.144 E2.53361
G1 X155.140 Y95.922 E2.57208
G1 X155.509 Y95.689 E2.62384
G1 X155.809 Y95.569 E2.66229
G1 X156.273 Y95.481 E2.71833 F1200.000
G1 X156.743 Y95.511 E2.77431
G1 X157.057 Y95.591 E2.81279
G1 X157.452 Y95.777 E2.86457
G1 X157.685 Y95.946 E2.89882
G1 X157.922 Y96.168 E2.93738
G1 X158.173 Y96.525 E2.98922
G1 X158.354 Y96.983 E3.04763
G1 X158.411 Y97.356 E3.09245
G1 X158.405 Y97.762 E3.14072
G1 X158.290 Y98.210 E3.19566
G1 X158.152 Y98.503 E3.23411
G1 X157.896 Y98.856 E3.28592
G1 X157.660 Y99.078 E3.32439
G1 X157.291 Y99.311 E3.37616
G1 X156.991 Y99.431 E3.41460
G1 X156.562 Y99.512 E3.46646
G1 X156.301 Y99.512 E3.49740
G1 X156.307 Y98.798 F7800.000
G1 X156.016 Y98.744 E3.53254 F1200.000
G1 X155.834 Y98.672 E3.55573
G1 X155.580 Y98.511 E3.59149
G1 X155.443 Y98.382 E3.61390
G1 X155.258 Y98.128 E3.65119
G1 X155.138 Y97.824 E3.68999
G1 X155.098 Y97.513 E3.72727
G1 X155.110 Y97.324 E3.74967
G1 X155.185 Y97.033 E3.78543
G1 X155.265 Y96.862 E3.80784
G1 X155.443 Y96.618 E3.84362
G1 X155.580 Y96.489 E3.86604
G1 X155.834 Y96.328 E3.90179
G1 X156.010 Y96.258 E3.92420
G1 X156.318 Y96.199 E3.96150 F1200.000
G1 X156.631 Y96.219 E3.99877
G1 X156.814 Y96.266 E4.02119
G1 X157.087 Y96.394 E4.05695
G1 X157.357 Y96.618 E4.09869
G1 X157.542 Y96.872 E4.13597
G1 X157.660 Y97.171 E4.17412
G1 X157.696 Y97.405 E4.20223
G1 X157.692 Y97.666 E4.23331
G1 X157.615 Y97.967 E4.27020
G1 X157.535 Y98.138 E4.29261
G1 X157.357 Y98.382 E4.32839
G1 X157.220 Y98.511 E4.35080
G1 X156.966 Y98.672 E4.38656
G1 X156.790 Y98.742 E4.40897
G1 X156.494 Y98.798 E4.44476
G1 X156.367 Y98.798 E4.45991
G1 X156.129 Y99.034 F7800.000
G1 E2.45991 F2400.00000
G92 E0
G1 Z0.600 F7800.000
G1 X154.861 Y96.382 F7800.000
G1 X156.203 Y91.057 F7800.000
G1 X150.697 Y89.972 F7800.000
G1 X149.901 Y90.431 F7800.000
G1 X149.539 Y90.597 F7800.000
G1 X149.300 Y90.691 F7800.000
G1 X148.712 Y90.066 F7800.000
G1 X148.760 Y90.178 F7800.000
G1 Z0.400 F7800.000
G1 E2.00000 F2400.00000
G1 X148.391 Y90.412 E2.05181 F1200.000
G1 X148.090 Y90.531 E2.09025
G1 X147.627 Y90.619 E2.14626
G1 X147.121 Y90.587 E2.20648
G1 X146.639 Y90.430 E2.26671
G1 X146.240 Y90.178 E2.32273
G1 X146.004 Y89.956 E2.36117
G1 X145.748 Y89.603 E2.41299
G1 X145.610 Y89.310 E2.45143
G1 X145.502 Y88.888 E2.50323
G1 X145.484 Y88.600 E2.53749
G1 X145.502 Y88.312 E2.57175
G1 X145.610 Y87.890 E2.62354
G1 X145.748 Y87.597 E2.66198
G1 X146.004 Y87.244 E2.71381
G1 X146.240 Y87.022 E2.75225
G1 X146.609 Y86.788 E2.80406
G1 X146.910 Y86.669 E2.84250
G1 X147.373 Y86.581 E2.89851 F1200.000
G1 X147.870 Y86.612 E2.95767
G1 X148.259 Y86.732 E3.00594
G1 X148.596 Y86.902 E3.05076
G1 X148.975 Y87.215 E3.10918
G1 X149.252 Y87.597 E3.16523
G1 X149.390 Y87.890 E3.20367
G1 X149.498 Y88.312 E3.25546
G1 X149.516 Y88.600 E3.28972
G1 X149.498 Y88.888 E3.32398
G1 X149.390 Y89.310 E3.37577
G1 X149.252 Y89.603 E3.41421
G1 X148.996 Y89.956 E3.46604
G1 X148.803 Y90.137 E3.49735
G1 X148.320 Y89.611 F7800.000
G1 X148.066 Y89.772 E3.53313 F1200.000
G1 X147.890 Y89.842 E3.55554
G1 X147.582 Y89.901 E3.59282
G1 X147.256 Y89.880 E3.63161
G1 X146.945 Y89.779 E3.67041
G1 X146.680 Y89.611 E3.70769
G1 X146.543 Y89.482 E3.73010
G1 X146.365 Y89.238 E3.76588
G1 X146.285 Y89.067 E3.78828
G1 X146.210 Y88.776 E3.82405
G1 X146.210 Y88.424 E3.86578
G1 X146.285 Y88.133 E3.90155
G1 X146.365 Y87.962 E3.92395
G1 X146.543 Y87.718 E3.95973
G1 X146.680 Y87.589 E3.98214
G1 X146.934 Y87.428 E4.01791
G1 X147.110 Y87.358 E4.04032
G1 X147.418 Y87.299 E4.07760 F1200.000
G1 X147.741 Y87.320 E4.11601
G1 X147.991 Y87.397 E4.14708
G1 X148.202 Y87.503 E4.17520
G1 X148.450 Y87.708 E4.21335
G1 X148.635 Y87.962 E4.25065
G1 X148.715 Y88.133 E4.27305
G1 X148.790 Y88.424 E4.30882
G1 X148.790 Y88.776 E4.35054
G1 X148.715 Y89.067 E4.38631
G1 X148.635 Y89.238 E4.40872
G1 X148.457 Y89.482 E4.44450
G1 X148.364 Y89.570 E4.45978
G1 X148.351 Y89.911 F7800.000
G1 E2.45978 F2400.00000
G92 E0
G1 Z0.600 F7800.000
G1 X145.598 Y88.600 F7800.000
G1 X122.686 Y91.022 F7800.000
G1 X119.954 Y90.357 F7800.000
G1 X109.000 Y89.275 F7800.000
G1 X101.620 Y89.275 F7800.000
G1 X101.345 Y88.962 F7800.000
G1 X101.106 Y88.707 F7800.000
G1 X99.402 Y88.600 F7800.000
G1 X99.516 Y88.600 F7800.000
G1 Z0.400 F7800.000
G1 E2.00000 F2400.00000
G1 X99.498 Y88.888 E2.03426 F1200.000
G1 X99.390 Y89.310 E2.08605
G1 X99.252 Y89.603 E2.12449
G1 X98.996 Y89.956 E2.17632
G1 X98.760 Y90.178 E2.21476
G1 X98.391 Y90.412 E2.26657
G1 X98.090 Y90.531 E2.30501
G1 X97.627 Y90.619 E2.36102
G1 X97.121 Y90.587 E2.42124
G1 X96.639 Y90.430 E2.48147
G1 X96.240 Y90.178 E2.53749
G1 X96.004 Y89.956 E2.57593
G1 X95.748 Y89.603 E2.62776
G1 X95.610 Y89.310 E2.66620
G1 X95.502 Y88.888 E2.71799
G1 X95.484 Y88.600 E2.75225
G1 X95.502 Y88.312 E2.78651
G1 X95.610 Y87.890 E2.83830
G1 X95.748 Y87.597 E2.87674
G1 X96.004 Y87.244 E2.92857
G1 X96.240 Y87.022 E2.96701
G1 X96.609 Y86.788 E3.01882
G1 X96.910 Y86.669 E3.05726
G1 X97.373 Y86.581 E3.11327 F1200.000
G1 X97.879 Y86.613 E3.17349
G1 X98.361 Y86.770 E3.23372
G1 X98.819 Y87.060 E3.29804
G1 X98.810 Y87.070 E3.29960
G1 X98.996 Y87.244 E3.32984
G1 X99.252 Y87.597 E3.38166
G1 X99.390 Y87.890 E3.42010
G1 X99.498 Y88.312 E3.47190
G1 X99.513 Y88.540 E3.49903
G1 X98.801 Y88.600 F7800.000
G1 X98.790 Y88.776 E3.51993 F1200.000
G1 X98.715 Y89.067 E3.55570
G1 X98.635 Y89.238 E3.57811
G1 X98.457 Y89.482 E3.61389
G1 X98.320 Y89.611 E3.63629
G1 X98.066 Y89.772 E3.67207
G1 X97.890 Y89.842 E3.69447
G1 X97.582 Y89.901 E3.73176
G1 X97.256 Y89.880 E3.77055
G1 X96.945 Y89.779 E3.80935
G1 X96.680 Y89.611 E3.84663
G1 X96.543 Y89.482 E3.86904
G1 X96.365 Y89.238 E3.90482
G1 X96.285 Y89.067 E3.92722
G1 X96.210 Y88.776 E3.96299
G1 X96.210 Y88.424 E4.00472
G1 X96.285 Y88.133 E4.04049
G1 X96.365 Y87.962 E4.06289
G1 X96.543 Y87.718 E4.09867
G1 X96.680 Y87.589 E4.12108
G1 X96.934 Y87.428 E4.15685
G1 X97.110 Y87.358 E4.17926
G1 X97.418 Y87.299 E4.21654 F1200.000
G1 X97.744 Y87.320 E4.25533
G1 X98.055 Y87.421 E4.29413
G1 X98.320 Y87.589 E4.33142
G1 X98.457 Y87.718 E4.35382
G1 X98.635 Y87.962 E4.38960
G1 X98.715 Y88.133 E4.41201
G1 X98.790 Y88.424 E4.44778
G1 X98.797 Y88.540 E4.46155
G1 X98.951 Y88.691 F7800.000
G1 E2.46155 F2400.00000
G92 E0
G1 Z0.600 F7800.000
G1 X95.598 Y88.600 F7800.000
G1 X86.467 Y88.775 F7800.000
G1 X76.902 Y89.028 F7800.000
G1 X76.781 Y88.750 F7800.000
G1 X74.402 Y88.600 F7800.000
G1 X74.516 Y88.600 F7800.000
G1 Z0.400 F7800.000
G1 E2.00000 F2400.00000
G1 X74.498 Y88.888 E2.03426 F1200.000
G1 X74.390 Y89.310 E2.08605
G1 X74.252 Y89.603 E2.12449
G1 X73.996 Y89.956 E2.17632
G1 X73.760 Y90.178 E2.21476
G1 X73.391 Y90.412 E2.26657
G1 X73.090 Y90.531 E2.30501
G1 X72.627 Y90.619 E2.36102
G1 X72.121 Y90.587 E2.42124
G1 X71.639 Y90.430 E2.48147
G1 X71.240 Y90.178 E2.53749
G1 X71.004 Y89.956 E2.57593
