; generated by Slic3r 1.2.9 on 2016-03-26 at 12:04:04

; external perimeters extrusion width = 0.40mm
; perimeters extrusion width = 0.67mm
; infill extrusion width = 0.67mm
; solid infill extrusion width = 0.67mm
; top infill extrusion width = 0.67mm

M190 S60 ; set bed temperature
M104 S210 ; set temperature
G28 ; home all axes
G1 Z5 F5000 ; lift nozzle

M109 S210 ; wait for temperature to be reached
G21 ; set units to millimeters
G90 ; use absolute coordinates
M82 ; use absolute distances for extrusion
G92 E0
M106 S255
G1 E-2.00000 F2400.00000
G92 E0
G1 Z0.200 F7800.000
G1 Z0.400 F7800.000
G1 Z0.600 F7800.000
G1 X99.222 Y99.222 F7800.000
G1 Z0.400 F7800.000
G1 E2.00000 F2400.00000
G1 X118.703 Y79.744 E5.27177 F1200.000
G1 X119.734 Y78.744 E5.44239
G1 X121.879 Y77.218 E5.75506
G1 X124.383 Y76.402 E6.06774
G1 X125.800 Y76.286 E6.23664
G1 X135.000 Y76.286 E7.32928
G1 X137.603 Y76.684 E7.64196
G1 X139.968 Y77.840 E7.95463 F1200.000
G1 X141.879 Y79.651 E8.26731
G1 X143.163 Y81.949 E8.57999
G1 X143.714 Y85.000 E8.94818
G1 X143.714 Y135.000 E14.88644
G1 X143.316 Y137.603 E15.19912
G1 X142.160 Y139.968 E15.51179
G1 X140.349 Y141.879 E15.82447
G1 X138.051 Y143.163 E16.13715
G1 X135.000 Y143.714 E16.50534
G1 X85.000 Y143.714 E22.44360
G1 X82.397 Y143.316 E22.75628
G1 X80.032 Y142.160 E23.06895
G1 X78.121 Y140.349 E23.38163
G1 X76.837 Y138.051 E23.69431
G1 X76.286 Y135.000 E24.06250
G1 X76.286 Y125.800 E25.15514
G1 X76.684 Y123.197 E25.46782
G1 X77.840 Y120.832 E25.78050
G1 X78.744 Y119.734 E25.94939
G1 X79.838 Y118.607 E26.13600
G1 X99.180 Y99.265 E29.38465
G1 E27.38465 F2400.00000
G92 E0
G1 Z0.600 F7800.000
G1 X98.635 Y132.038 F7800.000
G1 Z0.400 F7800.000
G1 E2.00000 F2400.00000
G1 X98.457 Y132.282 E2.03578 F1200.000
G1 X98.320 Y132.411 E2.05819
G1 X98.066 Y132.572 E2.09395
G1 X97.890 Y132.642 E2.11636
G1 X97.582 Y132.701 E2.15365
G1 X97.269 Y132.681 E2.19092
G1 X97.086 Y132.634 E2.21334
G1 X96.813 Y132.506 E2.24910
G1 X96.543 Y132.282 E2.29084
G1 X96.358 Y132.028 E2.32813
G1 X96.238 Y131.724 E2.36693
G1 X96.198 Y131.413 E2.40420
G1 X96.210 Y131.224 E2.42661
G1 X96.285 Y130.933 E2.46238
G1 X96.365 Y130.762 E2.48478
G1 X96.543 Y130.518 E2.52056
G1 X96.680 Y130.389 E2.54298
G1 X96.934 Y130.228 E2.57873
G1 X97.110 Y130.158 E2.60114
G1 X97.418 Y130.099 E2.63844 F1200.000
G1 X97.731 Y130.119 E2.67571
G1 X97.914 Y130.166 E2.69813
G1 X98.187 Y130.294 E2.73389
G1 X98.457 Y130.518 E2.77563
G1 X98.642 Y130.772 E2.81292
G1 X98.762 Y131.076 E2.85171
G1 X98.802 Y131.387 E2.88899
G1 X98.790 Y131.576 E2.91140
G1 X98.715 Y131.867 E2.94716
G1 X98.660 Y131.984 E2.96244
G1 X98.774 Y132.305 F7800.000
G1 X120.481 Y131.435 F7800.000
G1 X120.502 Y131.112 E3.00089 F1200.000
G1 X120.610 Y130.690 E3.05268
G1 X120.748 Y130.397 E3.09112
G1 X121.004 Y130.044 E3.14294
G1 X121.240 Y129.822 E3.18141
G1 X121.609 Y129.589 E3.23317
G1 X121.909 Y129.469 E3.27162
G1 X122.373 Y129.381 E3.32766 F1200.000
G1 X122.843 Y129.411 E3.38364
G1 X123.157 Y129.491 E3.42212
G1 X123.552 Y129.677 E3.47390
G1 X123.785 Y129.846 E3.50815
G1 X123.996 Y130.044 E3.54245
G1 X124.273 Y130.425 E3.59847
G1 X124.459 Y130.897 E3.65870
G1 X124.519 Y131.365 E3.71470
G1 X124.498 Y131.688 E3.75314
G1 X124.390 Y132.110 E3.80493
G1 X124.252 Y132.403 E3.84337
G1 X123.996 Y132.756 E3.89519
G1 X123.810 Y132.930 E3.92543
G1 X123.819 Y132.940 E3.92699
G1 X123.391 Y133.211 E3.98709
G1 X123.091 Y133.331 E4.02553
G1 X122.627 Y133.419 E4.08158
G1 X122.157 Y133.389 E4.13756
G1 X121.843 Y133.309 E4.17604
G1 X121.448 Y133.123 E4.22782
G1 X121.215 Y132.954 E4.26207
G1 X121.004 Y132.756 E4.29637
G1 X120.727 Y132.375 E4.35239
G1 X120.541 Y131.903 E4.41261
G1 X120.489 Y131.495 E4.46149
G1 X121.198 Y131.413 F7800.000
G1 X121.210 Y131.224 E4.48389 F1200.000
G1 X121.285 Y130.933 E4.51966
G1 X121.365 Y130.762 E4.54207
G1 X121.543 Y130.518 E4.57784
G1 X121.680 Y130.389 E4.60026
G1 X121.934 Y130.228 E4.63602
G1 X122.110 Y130.158 E4.65843
G1 X122.418 Y130.099 E4.69572 F1200.000
G1 X122.731 Y130.119 E4.73299
G1 X122.914 Y130.166 E4.75541
G1 X123.187 Y130.294 E4.79117
G1 X123.457 Y130.518 E4.83291
G1 X123.642 Y130.772 E4.87020
G1 X123.762 Y131.076 E4.90899
G1 X123.802 Y131.387 E4.94627
G1 X123.790 Y131.576 E4.96868
G1 X123.715 Y131.867 E5.00444
G1 X123.635 Y132.038 E5.02685
G1 X123.457 Y132.282 E5.06263
G1 X123.320 Y132.411 E5.08504
G1 X123.066 Y132.572 E5.12080
G1 X122.890 Y132.642 E5.14321
G1 X122.582 Y132.701 E5.18050
G1 X122.269 Y132.681 E5.21777
G1 X122.086 Y132.634 E5.24019
G1 X121.813 Y132.506 E5.27596
G1 X121.543 Y132.282 E5.31770
G1 X121.358 Y132.028 E5.35498
G1 X121.238 Y131.724 E5.39378
G1 X121.206 Y131.472 E5.42393
G1 X121.035 Y131.318 F7800.000
G1 E3.42393 F2400.00000
G92 E0
G1 Z0.600 F7800.000
G1 X123.712 Y129.934 F7800.000
G1 X128.943 Y131.203 F7800.000
G1 X130.177 Y125.914 F7800.000
G1 X129.667 Y125.091 F7800.000
G1 X129.482 Y124.718 F7800.000
G1 X129.378 Y124.478 F7800.000
G1 X130.013 Y123.802 F7800.000
G1 X129.904 Y123.856 F7800.000
G1 Z0.400 F7800.000
G1 E2.00000 F2400.00000
G1 X129.627 Y123.475 E2.05602 F1200.000
G1 X129.441 Y123.003 E2.11625
G1 X129.381 Y122.535 E2.17225
G1 X129.402 Y122.212 E2.21069
G1 X129.510 Y121.790 E2.26248
G1 X129.648 Y121.497 E2.30092
G1 X129.904 Y121.144 E2.35274
G1 X130.140 Y120.922 E2.39121
G1 X130.539 Y120.670 E2.44721
G1 X130.987 Y120.524 E2.50325
G1 X131.308 Y120.483 E2.54169 F1200.000
G1 X131.744 Y120.511 E2.59350
G1 X132.023 Y120.583 E2.62778
G1 X132.291 Y120.688 E2.66196
G1 X132.660 Y120.922 E2.71378
G1 X132.896 Y121.144 E2.75225
G1 X133.173 Y121.525 E2.80828
G1 X133.359 Y121.997 E2.86850
G1 X133.419 Y122.465 E2.92450
G1 X133.398 Y122.788 E2.96294
G1 X133.290 Y123.210 E3.01473
G1 X133.152 Y123.503 E3.05317
G1 X132.922 Y123.832 E3.10083
G1 X132.660 Y124.078 E3.14354
G1 X132.261 Y124.330 E3.19954
G1 X131.813 Y124.476 E3.25558
G1 X131.492 Y124.517 E3.29402
G1 X131.056 Y124.489 E3.34584
G1 X130.777 Y124.417 E3.38011
G1 X130.509 Y124.312 E3.41429
G1 X130.140 Y124.078 E3.46612
G1 X129.948 Y123.897 E3.49746
G1 X130.443 Y123.382 F7800.000
G1 X130.258 Y123.128 E3.53474 F1200.000
G1 X130.138 Y122.824 E3.57354
G1 X130.098 Y122.513 E3.61082
G1 X130.110 Y122.324 E3.63322
G1 X130.185 Y122.033 E3.66899
G1 X130.265 Y121.862 E3.69140
G1 X130.443 Y121.618 E3.72717
G1 X130.580 Y121.489 E3.74959
G1 X130.845 Y121.321 E3.78687
G1 X131.144 Y121.224 E3.82417
G1 X131.331 Y121.200 E3.84657 F1200.000
G1 X131.632 Y121.219 E3.88234
G1 X131.802 Y121.263 E3.90325
G1 X131.966 Y121.328 E3.92413
G1 X132.220 Y121.489 E3.95991
G1 X132.357 Y121.618 E3.98232
G1 X132.542 Y121.872 E4.01961
G1 X132.662 Y122.176 E4.05841
G1 X132.702 Y122.487 E4.09568
G1 X132.690 Y122.676 E4.11809
G1 X132.615 Y122.967 E4.15386
G1 X132.535 Y123.138 E4.17626
G1 X132.357 Y123.382 E4.21204
G1 X132.220 Y123.511 E4.23446
G1 X131.955 Y123.679 E4.27173
G1 X131.656 Y123.776 E4.30903
G1 X131.469 Y123.800 E4.33143
G1 X131.168 Y123.781 E4.36721
G1 X130.998 Y123.737 E4.38812
G1 X130.834 Y123.672 E4.40900
G1 X130.580 Y123.511 E4.44477
G1 X130.486 Y123.423 E4.46006
G1 X130.133 Y123.434 F7800.000
G1 X128.564 Y128.564 F7800.000
G1 X108.727 Y128.564 E6.81605 F1200.000
G1 X108.258 Y126.850 E7.02707
G1 X110.658 Y125.431 E7.35825
G1 X113.146 Y123.740 E7.71553
G1 X115.523 Y121.896 E8.07280
G1 X117.780 Y119.907 E8.43006
G1 X119.907 Y117.780 E8.78734
G1 X121.896 Y115.523 E9.14461
G1 X123.740 Y113.147 E9.50179
G1 X125.466 Y110.598 E9.86743
G1 X126.850 Y108.258 E10.19032
G1 X128.564 Y108.727 E10.40134
G1 X128.564 Y128.504 E12.75020
G1 X127.850 Y127.850 F7800.000
G1 X109.272 Y127.850 E14.95664 F1200.000
G1 X109.091 Y127.188 E15.03820
G1 X111.041 Y126.034 E15.30731
G1 X113.566 Y124.318 E15.66992
G1 X115.979 Y122.447 E16.03253
G1 X118.269 Y120.428 E16.39512
G1 X120.428 Y118.269 E16.75773
G1 X122.447 Y115.979 E17.12033
G1 X124.318 Y113.566 E17.48290
G1 X126.070 Y110.981 E17.85388
G1 X127.188 Y109.091 E18.11464
G1 X127.850 Y109.272 E18.19620
G1 X127.850 Y127.790 E20.39551
G1 X127.850 Y128.250 F7800.000
G1 X131.057 Y99.489 F7800.000
G1 X130.743 Y99.409 E20.43399 F1200.000
G1 X130.348 Y99.223 E20.48577
G1 X130.115 Y99.054 E20.52002
G1 X129.904 Y98.856 E20.55431
G1 X129.627 Y98.475 E20.61034
G1 X129.441 Y98.003 E20.67056
G1 X129.381 Y97.535 E20.72656
G1 X129.402 Y97.212 E20.76501
G1 X129.510 Y96.790 E20.81679
G1 X129.648 Y96.497 E20.85524
G1 X129.904 Y96.144 E20.90706
G1 X130.140 Y95.922 E20.94552
G1 X130.509 Y95.689 E20.99729
G1 X130.809 Y95.569 E21.03573
G1 X131.273 Y95.481 E21.09178 F1200.000
G1 X131.743 Y95.511 E21.14776
G1 X132.057 Y95.591 E21.18624
G1 X132.452 Y95.777 E21.23802
G1 X132.685 Y95.946 E21.27227
G1 X132.922 Y96.168 E21.31082
G1 X133.173 Y96.525 E21.36267
G1 X133.359 Y96.997 E21.42290
G1 X133.419 Y97.465 E21.47889
G1 X133.398 Y97.788 E21.51734
G1 X133.290 Y98.210 E21.56913
G1 X133.152 Y98.503 E21.60757
G1 X132.896 Y98.856 E21.65939
G1 X132.660 Y99.078 E21.69786
G1 X132.291 Y99.311 E21.74962
G1 X131.991 Y99.431 E21.78807
G1 X131.527 Y99.519 E21.84411
G1 X131.116 Y99.493 E21.89297
G1 X131.169 Y98.781 F7800.000
G1 X130.986 Y98.734 E21.91539 F1200.000
G1 X130.713 Y98.606 E21.95115
G1 X130.443 Y98.382 E21.99289
G1 X130.258 Y98.128 E22.03018
G1 X130.138 Y97.824 E22.06897
G1 X130.098 Y97.513 E22.10625
G1 X130.110 Y97.324 E22.12866
G1 X130.185 Y97.033 E22.16442
G1 X130.265 Y96.862 E22.18683
G1 X130.443 Y96.618 E22.22261
G1 X130.580 Y96.489 E22.24502
G1 X130.834 Y96.328 E22.28078
G1 X131.010 Y96.258 E22.30319
G1 X131.318 Y96.199 E22.34048 F1200.000
G1 X131.631 Y96.219 E22.37775
G1 X131.814 Y96.266 E22.40017
G1 X132.087 Y96.394 E22.43594
G1 X132.229 Y96.498 E22.45684
G1 X132.357 Y96.618 E22.47776
G1 X132.542 Y96.872 E22.51505
G1 X132.662 Y97.176 E22.55384
G1 X132.702 Y97.487 E22.59112
G1 X132.690 Y97.676 E22.61353
G1 X132.615 Y97.967 E22.64929
G1 X132.535 Y98.138 E22.67170
G1 X132.357 Y98.382 E22.70748
G1 X132.220 Y98.511 E22.72989
G1 X131.966 Y98.672 E22.76565
G1 X131.790 Y98.742 E22.78806
G1 X131.482 Y98.801 E22.82535
G1 X131.229 Y98.785 E22.85550
G1 X131.045 Y98.924 F7800.000
G1 X132.886 Y103.286 F7800.000
G1 X132.886 Y106.514 E23.23891 F1200.000
G1 X133.886 Y106.514 E23.35767
G1 X133.886 Y113.486 E24.18567
G1 X132.886 Y113.486 E24.30443
G1 X132.886 Y116.714 E24.68784
G1 X133.886 Y116.714 E24.80661
G1 X133.886 Y123.686 E25.63460
G1 X133.573 Y123.686 E25.67180
G1 X132.886 Y124.515 E25.79962
G1 X132.886 Y126.914 E26.08462
G1 X133.886 Y126.914 E26.20338
G1 X133.886 Y133.886 E27.03138
G1 X126.914 Y133.886 E27.85937
G1 X126.914 Y132.886 E27.97813
G1 X124.515 Y132.886 E28.26313
G1 X124.085 Y133.242 E28.32939
G1 X123.857 Y132.984 E28.37031
G1 X124.060 Y133.263 E28.41129
G1 X123.686 Y133.573 E28.46898
G1 X123.686 Y133.886 E28.50618
G1 X116.714 Y133.886 E29.33418
G1 X116.714 Y132.886 E29.45294
G1 X113.486 Y132.886 E29.83635
G1 X113.486 Y133.886 E29.95512
G1 X106.514 Y133.886 E30.78311
G1 X106.514 Y132.886 E30.90188
G1 X103.286 Y132.886 E31.28529
G1 X103.286 Y133.886 E31.40405
G1 X96.314 Y133.886 E32.23205
G1 X96.314 Y133.573 E32.26925
G1 X95.981 Y133.297 E32.32058
G1 X96.236 Y132.969 E32.36986
G1 X96.448 Y133.123 E32.40105
G1 X96.843 Y133.309 E32.45283
G1 X97.157 Y133.389 E32.49130
G1 X97.627 Y133.419 E32.54729
G1 X98.091 Y133.331 E32.60333
G1 X98.391 Y133.211 E32.64177
G1 X98.760 Y132.978 E32.69354
G1 X98.996 Y132.756 E32.73201
G1 X99.252 Y132.403 E32.78383
G1 X99.390 Y132.110 E32.82227
G1 X99.498 Y131.688 E32.87406
G1 X99.519 Y131.365 E32.91250
G1 X99.459 Y130.897 E32.96850
G1 X99.273 Y130.425 E33.02873
G1 X98.996 Y130.044 E33.08475
G1 X98.785 Y129.846 E33.11905
G1 X98.552 Y129.677 E33.15330
G1 X98.157 Y129.491 E33.20508
G1 X97.843 Y129.411 E33.24356
G1 X97.373 Y129.381 E33.29954
G1 X96.909 Y129.469 E33.35558
G1 X96.609 Y129.589 E33.39403
G1 X96.240 Y129.822 E33.44579
G1 X96.004 Y130.044 E33.48426
G1 X95.748 Y130.397 E33.53608
G1 X95.610 Y130.690 E33.57452
G1 X95.502 Y131.112 E33.62631
G1 X95.481 Y131.435 E33.66476
G1 X95.541 Y131.903 E33.72076
G1 X95.727 Y132.375 E33.78098
G1 X96.004 Y132.756 E33.83700
G1 X96.190 Y132.930 E33.86724
G1 X95.915 Y133.242 E33.91657
G1 X95.485 Y132.886 E33.98284
G1 X93.086 Y132.886 E34.26783
G1 X93.086 Y133.886 E34.38659
G1 X86.114 Y133.886 E35.21459
G1 X86.114 Y126.914 E36.04258
G1 X87.114 Y126.914 E36.16135
G1 X87.114 Y125.848 E36.28793
G1 X87.569 Y125.834 E36.34198
G1 X90.128 Y125.592 E36.64725
G1 X92.667 Y125.190 E36.95252
G1 X93.303 Y125.048 E37.02992
G1 X93.556 Y126.029 E37.15028
G1 X96.699 Y125.286 E37.53376
G1 X96.434 Y124.263 E37.65917
G1 X97.643 Y123.912 E37.80870
G1 X100.062 Y123.042 E38.11397
G1 X102.421 Y122.021 E38.41923
G1 X103.169 Y121.639 E38.51903
G1 X103.654 Y122.514 E38.63783
G1 X105.193 Y121.730 E38.84289
G1 X106.487 Y120.965 E39.02144
G1 X106.002 Y120.090 E39.14018
G1 X106.923 Y119.545 E39.26729
G1 X109.049 Y118.101 E39.57257
G1 X111.080 Y116.525 E39.87784
G1 X111.840 Y115.855 E39.99820
G1 X112.529 Y116.580 E40.11699
G1 X113.693 Y115.555 E40.30124
G1 X114.880 Y114.368 E40.50058
G1 X114.191 Y113.642 E40.61935
G1 X114.826 Y113.008 E40.72591
G1 X116.525 Y111.080 E41.03117
G1 X118.101 Y109.049 E41.33643
G1 X118.755 Y108.086 E41.47477
G1 X119.604 Y108.616 E41.59355
G1 X120.390 Y107.459 E41.75966
G1 X121.322 Y105.883 E41.97715
G1 X120.474 Y105.353 E42.09589
G1 X120.854 Y104.711 E42.18448
G1 X122.021 Y102.421 E42.48975
G1 X123.042 Y100.062 E42.79501
G1 X123.478 Y98.849 E42.94811
G1 X124.432 Y99.150 E43.06695
G1 X124.863 Y97.952 E43.21808
G1 X125.409 Y96.073 E43.45051
G1 X124.456 Y95.772 E43.56925
G1 X124.629 Y95.175 E43.64310
G1 X125.190 Y92.667 E43.94836
G1 X125.592 Y90.128 E44.25363
G1 X125.834 Y87.569 E44.55889
G1 X125.848 Y87.114 E44.61295
G1 X126.914 Y87.114 E44.73953
G1 X126.914 Y86.114 E44.85830
G1 X133.886 Y86.114 E45.68629
G1 X133.886 Y93.086 E46.51428
G1 X132.886 Y93.086 E46.63305
G1 X132.886 Y95.485 E46.91804
G1 X133.573 Y96.314 E47.04587
G1 X133.886 Y96.314 E47.08307
G1 X133.886 Y103.286 E47.91106
G1 X132.946 Y103.286 E48.02270
G1 X133.600 Y104.000 F7800.000
G1 X133.600 Y105.800 E48.23648 F1200.000
G1 X134.600 Y105.800 E48.35524
G1 X134.600 Y114.200 E49.35287
G1 X133.600 Y114.200 E49.47164
G1 X133.600 Y116.000 E49.68541
G1 X134.600 Y116.000 E49.80418
G1 X134.600 Y124.400 E50.80181
G1 X133.908 Y124.400 E50.88396
G1 X133.600 Y124.772 E50.94134
G1 X133.600 Y126.200 E51.11093
G1 X134.600 Y126.200 E51.22970
G1 X134.600 Y134.600 E52.22733
G1 X126.200 Y134.600 E53.22495
G1 X126.200 Y133.600 E53.34372
G1 X124.772 Y133.600 E53.51332
G1 X124.400 Y133.908 E53.57070
G1 X124.400 Y134.600 E53.65285
G1 X116.000 Y134.600 E54.65048
G1 X116.000 Y133.600 E54.76924
G1 X114.200 Y133.600 E54.98302
G1 X114.200 Y134.600 E55.10178
G1 X105.800 Y134.600 E56.09941
G1 X105.800 Y133.600 E56.21818
G1 X104.000 Y133.600 E56.43195
G1 X104.000 Y134.600 E56.55072
G1 X95.600 Y134.600 E57.54835
G1 X95.600 Y133.908 E57.63050
G1 X95.228 Y133.600 E57.68788
G1 X93.800 Y133.600 E57.85747
G1 X93.800 Y134.600 E57.97624
G1 X85.400 Y134.600 E58.97387
G1 X85.400 Y126.200 E59.97149
G1 X86.400 Y126.200 E60.09026
G1 X86.400 Y125.156 E60.21422
G1 X87.524 Y125.121 E60.34780
G1 X90.038 Y124.883 E60.64774
G1 X92.533 Y124.488 E60.94767
G1 X93.821 Y124.200 E61.10446
G1 X94.073 Y125.173 E61.22380
G1 X95.825 Y124.759 E61.43762
G1 X95.569 Y123.771 E61.55876
G1 X97.423 Y123.233 E61.78796
G1 X99.799 Y122.377 E62.08790
G1 X102.116 Y121.374 E62.38783
G1 X103.460 Y120.690 E62.56687
G1 X103.945 Y121.565 E62.68566
G1 X104.848 Y121.104 E62.80614
G1 X105.525 Y120.704 E62.89955
G1 X105.041 Y119.829 E63.01829
G1 X106.540 Y118.942 E63.22522
G1 X108.629 Y117.523 E63.52516
G1 X110.625 Y115.975 E63.82510
G1 X111.884 Y114.864 E64.02457
G1 X112.573 Y115.590 E64.14335
G1 X113.203 Y115.034 E64.24319
G1 X113.883 Y114.355 E64.35723
G1 X113.194 Y113.629 E64.47599
G1 X114.305 Y112.519 E64.66251
G1 X115.975 Y110.625 E64.96244
G1 X117.523 Y108.629 E65.26237
G1 X118.551 Y107.116 E65.47967
G1 X119.399 Y107.646 E65.59845
G1 X119.786 Y107.076 E65.68027
G1 X120.352 Y106.119 E65.81233
G1 X119.505 Y105.589 E65.93107
G1 X120.228 Y104.367 E66.09977
G1 X121.374 Y102.116 E66.39970
G1 X122.377 Y99.799 E66.69963
G1 X123.039 Y97.961 E66.93155
