; generated by Slic3r 1.2.9 on 2016-04-03 at 13:00:20

; external perimeters extrusion width = 0.40mm
; perimeters extrusion width = 0.67mm
; infill extrusion width = 0.67mm
; solid infill extrusion width = 0.67mm
; top infill extrusion width = 0.67mm

M190 S60 ; set bed temperature
M104 S210 ; set temperature
G28 ; home all axes
G1 Z5 F5000 ; lift nozzle

M109 S210 ; wait for temperature to be reached
G21 ; set units to millimeters
G90 ; use absolute coordinates
M82 ; use absolute distances for extrusion
G92 E0
M106 S255
G1 E-2.00000 F2400.00000
G92 E0
G1 Z0.200 F7800.000
G1 Z0.400 F7800.000
G1 Z0.600 F7800.000
G1 X77.872 Y73.749 F7800.000
G1 Z0.400 F7800.000
G1 E2.00000 F2400.00000
G1 X79.651 Y71.871 E2.30716 F1200.000
G1 X81.949 Y70.587 E2.61983
G1 X85.000 Y70.036 E2.98802
G1 X135.000 Y70.036 E8.92628
G1 X137.603 Y70.434 E9.23896
G1 X139.968 Y71.590 E9.55164 F1200.000
G1 X141.879 Y73.401 E9.86432
G1 X143.163 Y75.699 E10.17699
G1 X143.714 Y78.750 E10.54518
G1 X143.714 Y141.250 E17.96801
G1 X143.316 Y143.853 E18.28069
G1 X142.160 Y146.218 E18.59336
G1 X140.349 Y148.129 E18.90604
G1 X138.051 Y149.413 E19.21872
G1 X135.000 Y149.964 E19.58691
G1 X85.000 Y149.964 E25.52517
G1 X82.397 Y149.566 E25.83785
G1 X80.032 Y148.410 E26.15052
G1 X78.121 Y146.599 E26.46320
G1 X76.837 Y144.301 E26.77588
G1 X76.286 Y141.250 E27.14407
G1 X76.286 Y78.750 E34.56689
G1 X76.684 Y76.147 E34.87957
G1 X77.834 Y73.795 E35.19065
G1 E33.19065 F2400.00000
G92 E0
G1 Z0.600 F7800.000
G1 X98.790 Y137.826 F7800.000
G1 Z0.400 F7800.000
G1 E2.00000 F2400.00000
G1 X98.715 Y138.117 E2.03577 F1200.000
G1 X98.635 Y138.288 E2.05817
G1 X98.457 Y138.532 E2.09395
G1 X98.320 Y138.661 E2.11637
G1 X98.066 Y138.822 E2.15212
G1 X97.890 Y138.892 E2.17453
G1 X97.582 Y138.951 E2.21183
G1 X97.269 Y138.931 E2.24909
G1 X97.086 Y138.884 E2.27151
G1 X96.813 Y138.756 E2.30728
G1 X96.671 Y138.652 E2.32818
G1 X96.543 Y138.532 E2.34910
G1 X96.358 Y138.278 E2.38639
G1 X96.238 Y137.974 E2.42518
G1 X96.198 Y137.663 E2.46246
G1 X96.210 Y137.474 E2.48487
G1 X96.285 Y137.183 E2.52063
G1 X96.365 Y137.012 E2.54304
G1 X96.543 Y136.768 E2.57882
G1 X96.680 Y136.639 E2.60123
G1 X96.934 Y136.478 E2.63699
G1 X97.110 Y136.408 E2.65940
G1 X97.418 Y136.349 E2.69669 F1200.000
G1 X97.731 Y136.369 E2.73396
G1 X97.914 Y136.416 E2.75638
G1 X98.187 Y136.544 E2.79215
G1 X98.329 Y136.648 E2.81305
G1 X98.457 Y136.768 E2.83397
G1 X98.642 Y137.022 E2.87126
G1 X98.762 Y137.326 E2.91005
G1 X98.802 Y137.637 E2.94733
G1 X98.794 Y137.766 E2.96261
G1 E0.96261 F2400.00000
G92 E0
G1 Z0.600 F7800.000
G1 X96.912 Y135.841 F7800.000
G1 X93.609 Y136.786 F7800.000
G1 X89.927 Y137.238 F7800.000
G1 X88.775 Y122.683 F7800.000
G1 X89.660 Y119.889 F7800.000
G1 X89.985 Y119.426 F7800.000
G1 X89.410 Y117.971 F7800.000
G1 X89.155 Y117.429 F7800.000
G1 Z0.400 F7800.000
G1 E2.00000 F2400.00000
G1 X88.856 Y117.526 E2.03730 F1200.000
G1 X88.669 Y117.550 E2.05970
G1 X88.368 Y117.531 E2.09548
G1 X88.186 Y117.484 E2.11789
G1 X87.913 Y117.356 E2.15364
G1 X87.643 Y117.132 E2.19537
G1 X87.458 Y116.878 E2.23265
G1 X87.338 Y116.574 E2.27146
G1 X87.297 Y116.250 E2.31025
G1 X87.336 Y115.939 E2.34753
G1 X87.465 Y115.612 E2.38926
G1 X87.643 Y115.368 E2.42503
G1 X87.780 Y115.239 E2.44744
G1 X88.045 Y115.071 E2.48472
G1 X88.344 Y114.974 E2.52201
G1 X88.531 Y114.950 E2.54442 F1200.000
G1 X88.832 Y114.969 E2.58020
G1 X89.014 Y115.016 E2.60261
G1 X89.287 Y115.144 E2.63835
G1 X89.557 Y115.368 E2.68009
G1 X89.742 Y115.622 E2.71737
G1 X89.862 Y115.926 E2.75617
G1 X89.902 Y116.237 E2.79345
G1 X89.890 Y116.426 E2.81586
G1 X89.815 Y116.717 E2.85163
G1 X89.735 Y116.888 E2.87404
G1 X89.557 Y117.132 E2.90981
G1 X89.420 Y117.261 E2.93222
G1 X89.206 Y117.397 E2.96237
G1 E0.96237 F2400.00000
G92 E0
G1 Z0.600 F7800.000
G1 X88.719 Y114.352 F7800.000
G1 X88.775 Y105.217 F7800.000
G1 X89.275 Y97.150 F7800.000
G1 X89.033 Y95.645 F7800.000
G1 X88.719 Y93.148 F7800.000
G1 X88.682 Y92.551 F7800.000
G1 Z0.400 F7800.000
G1 E2.00000 F2400.00000
G1 X88.369 Y92.531 E2.03728 F1200.000
G1 X88.186 Y92.484 E2.05969
G1 X87.913 Y92.356 E2.09546
G1 X87.771 Y92.252 E2.11637
G1 X87.643 Y92.132 E2.13727
G1 X87.458 Y91.878 E2.17456
G1 X87.338 Y91.574 E2.21336
G1 X87.297 Y91.250 E2.25215
G1 X87.336 Y90.939 E2.28943
G1 X87.465 Y90.612 E2.33116
G1 X87.643 Y90.368 E2.36693
G1 X87.780 Y90.239 E2.38934
G1 X88.034 Y90.078 E2.42510
G1 X88.210 Y90.008 E2.44751
G1 X88.518 Y89.949 E2.48480 F1200.000
G1 X88.831 Y89.969 E2.52208
G1 X89.014 Y90.016 E2.54449
G1 X89.287 Y90.144 E2.58027
G1 X89.441 Y90.256 E2.60289
G1 X89.678 Y90.513 E2.64436
G1 X89.765 Y90.666 E2.66530
G1 X89.863 Y90.930 E2.69875
G1 X89.902 Y91.237 E2.73552
G1 X89.890 Y91.426 E2.75792
G1 X89.815 Y91.717 E2.79369
G1 X89.735 Y91.888 E2.81610
G1 X89.557 Y92.132 E2.85188
G1 X89.420 Y92.261 E2.87429
G1 X89.166 Y92.422 E2.91005
G1 X88.990 Y92.492 E2.93245
G1 X88.741 Y92.539 E2.96262
G1 E0.96262 F2400.00000
G92 E0
G1 Z0.600 F7800.000
G1 X89.812 Y89.784 F7800.000
G1 X89.987 Y88.076 F7800.000
G1 X89.275 Y87.129 F7800.000
G1 X88.976 Y85.300 F7800.000
G1 X91.550 Y85.300 F7800.000
G1 X92.150 Y85.900 F7800.000
G1 Z0.400 F7800.000
G1 E2.00000 F2400.00000
G1 X127.850 Y85.900 E6.23992 F1200.000
G1 X127.850 Y134.100 E11.96440
G1 X92.150 Y134.100 E16.20432
G1 X92.150 Y85.960 E21.92167
G1 X96.365 Y82.988 F7800.000
G1 X96.285 Y82.817 E21.94407 F1200.000
G1 X96.210 Y82.526 E21.97984
G1 X96.210 Y82.174 E22.02157
G1 X96.285 Y81.883 E22.05734
G1 X96.365 Y81.712 E22.07974
G1 X96.543 Y81.468 E22.11552
G1 X96.680 Y81.339 E22.13793
G1 X96.934 Y81.178 E22.17370
G1 X97.110 Y81.108 E22.19611
G1 X97.418 Y81.049 E22.23339 F1200.000
G1 X97.731 Y81.069 E22.27067
G1 X97.902 Y81.113 E22.29158
G1 X98.066 Y81.178 E22.31248
G1 X98.320 Y81.339 E22.34825
G1 X98.457 Y81.468 E22.37066
G1 X98.642 Y81.722 E22.40795
G1 X98.762 Y82.025 E22.44658
G1 X98.802 Y82.328 E22.48294
G1 X98.790 Y82.526 E22.50645
G1 X98.715 Y82.817 E22.54222
G1 X98.635 Y82.988 E22.56462
G1 X98.457 Y83.232 E22.60040
G1 X98.320 Y83.361 E22.62281
G1 X98.066 Y83.522 E22.65858
G1 X97.890 Y83.592 E22.68099
G1 X97.582 Y83.651 E22.71827
G1 X97.256 Y83.630 E22.75706
G1 X96.945 Y83.529 E22.79586
G1 X96.680 Y83.361 E22.83315
G1 X96.543 Y83.232 E22.85556
G1 X96.401 Y83.037 E22.88421
G1 E20.88421 F2400.00000
G92 E0
G1 Z0.600 F7800.000
G1 X99.387 Y82.588 F7800.000
G1 X108.533 Y82.525 F7800.000
G1 X118.098 Y82.778 F7800.000
G1 X118.219 Y82.500 F7800.000
G1 X120.598 Y82.350 F7800.000
G1 X121.199 Y82.350 F7800.000
G1 Z0.400 F7800.000
G1 E2.00000 F2400.00000
G1 X121.210 Y82.174 E2.02090 F1200.000
G1 X121.285 Y81.883 E2.05667
G1 X121.365 Y81.712 E2.07908
G1 X121.543 Y81.468 E2.11486
G1 X121.680 Y81.339 E2.13726
G1 X121.934 Y81.178 E2.17304
G1 X122.110 Y81.108 E2.19544
G1 X122.418 Y81.049 E2.23273 F1200.000
G1 X122.731 Y81.069 E2.27001
G1 X122.902 Y81.113 E2.29091
G1 X123.066 Y81.178 E2.31182
G1 X123.320 Y81.339 E2.34759
G1 X123.457 Y81.468 E2.37000
G1 X123.642 Y81.722 E2.40729
G1 X123.762 Y82.025 E2.44592
G1 X123.802 Y82.328 E2.48227
G1 X123.790 Y82.526 E2.50578
G1 X123.715 Y82.817 E2.54155
G1 X123.635 Y82.988 E2.56396
G1 X123.457 Y83.232 E2.59974
G1 X123.320 Y83.361 E2.62214
G1 X123.066 Y83.522 E2.65792
G1 X122.890 Y83.592 E2.68032
G1 X122.582 Y83.651 E2.71761
G1 X122.256 Y83.630 E2.75640
G1 X121.945 Y83.529 E2.79520
G1 X121.680 Y83.361 E2.83248
G1 X121.543 Y83.232 E2.85489
G1 X121.365 Y82.988 E2.89067
G1 X121.285 Y82.817 E2.91308
G1 X121.210 Y82.526 E2.94884
G1 X121.203 Y82.410 E2.96262
G1 E0.96262 F2400.00000
G92 E0
G1 Z0.600 F7800.000
G1 X123.712 Y83.816 F7800.000
G1 X128.943 Y82.547 F7800.000
G1 X130.176 Y87.837 F7800.000
G1 X129.667 Y88.659 F7800.000
G1 X129.482 Y89.032 F7800.000
G1 X129.378 Y89.272 F7800.000
G1 X130.013 Y89.948 F7800.000
G1 X130.443 Y90.368 F7800.000
G1 Z0.400 F7800.000
G1 E2.00000 F2400.00000
G1 X130.580 Y90.239 E2.02242 F1200.000
G1 X130.834 Y90.078 E2.05817
G1 X131.010 Y90.008 E2.08058
G1 X131.318 Y89.949 E2.11788 F1200.000
G1 X131.631 Y89.969 E2.15514
G1 X131.814 Y90.016 E2.17756
G1 X132.087 Y90.144 E2.21333
G1 X132.229 Y90.248 E2.23423
G1 X132.357 Y90.368 E2.25515
G1 X132.542 Y90.622 E2.29244
G1 X132.662 Y90.926 E2.33123
G1 X132.702 Y91.237 E2.36851
G1 X132.690 Y91.426 E2.39092
G1 X132.615 Y91.717 E2.42668
G1 X132.535 Y91.888 E2.44909
G1 X132.357 Y92.132 E2.48487
G1 X132.220 Y92.261 E2.50728
G1 X131.966 Y92.422 E2.54304
G1 X131.790 Y92.492 E2.56545
G1 X131.482 Y92.551 E2.60274
G1 X131.169 Y92.531 E2.64001
G1 X130.986 Y92.484 E2.66243
G1 X130.713 Y92.356 E2.69820
G1 X130.443 Y92.132 E2.73994
G1 X130.258 Y91.878 E2.77722
G1 X130.138 Y91.574 E2.81602
G1 X130.098 Y91.263 E2.85330
G1 X130.110 Y91.074 E2.87570
G1 X130.185 Y90.783 E2.91147
G1 X130.265 Y90.612 E2.93388
G1 X130.407 Y90.417 E2.96253
G1 X131.331 Y114.950 F7800.000
G1 X131.632 Y114.969 E2.99830 F1200.000
G1 X131.802 Y115.013 E3.01921
G1 X131.966 Y115.078 E3.04009
G1 X132.220 Y115.239 E3.07587
G1 X132.357 Y115.368 E3.09828
G1 X132.542 Y115.622 E3.13557
G1 X132.662 Y115.926 E3.17437
G1 X132.702 Y116.237 E3.21164
G1 X132.690 Y116.426 E3.23405
G1 X132.615 Y116.717 E3.26982
G1 X132.535 Y116.888 E3.29222
G1 X132.357 Y117.132 E3.32800
G1 X132.220 Y117.261 E3.35042
G1 X131.955 Y117.429 E3.38770
G1 X131.656 Y117.526 E3.42499
G1 X131.469 Y117.550 E3.44739
G1 X131.168 Y117.531 E3.48317
G1 X130.998 Y117.487 E3.50408
G1 X130.834 Y117.422 E3.52496
G1 X130.580 Y117.261 E3.56073
G1 X130.443 Y117.132 E3.58315
G1 X130.258 Y116.878 E3.62044
G1 X130.138 Y116.574 E3.65923
G1 X130.098 Y116.263 E3.69651
G1 X130.110 Y116.074 E3.71892
G1 X130.185 Y115.783 E3.75468
G1 X130.265 Y115.612 E3.77709
G1 X130.443 Y115.368 E3.81287
G1 X130.580 Y115.239 E3.83528
G1 X130.845 Y115.071 E3.87256
G1 X131.144 Y114.974 E3.90986
G1 X131.271 Y114.958 E3.92513 F1200.000
G1 E1.92513 F2400.00000
G92 E0
G1 Z0.600 F7800.000
G1 X130.590 Y117.971 F7800.000
G1 X128.450 Y137.274 F7800.000
G1 X125.045 Y135.893 F7800.000
G1 X124.194 Y135.520 F7800.000
G1 X123.864 Y135.416 F7800.000
G1 X123.626 Y135.355 F7800.000
G1 X123.310 Y135.929 F7800.000
G1 X122.914 Y136.416 F7800.000
G1 Z0.400 F7800.000
G1 E2.00000 F2400.00000
G1 X123.187 Y136.544 E2.03576 F1200.000
G1 X123.329 Y136.648 E2.05667
G1 X123.457 Y136.768 E2.07759
G1 X123.642 Y137.022 E2.11487
G1 X123.762 Y137.326 E2.15367
G1 X123.802 Y137.637 E2.19095
G1 X123.790 Y137.826 E2.21335
G1 X123.715 Y138.117 E2.24912
G1 X123.635 Y138.288 E2.27153
G1 X123.457 Y138.532 E2.30730
G1 X123.320 Y138.661 E2.32972
G1 X123.066 Y138.822 E2.36548
G1 X122.890 Y138.892 E2.38789
G1 X122.582 Y138.951 E2.42518
G1 X122.269 Y138.931 E2.46245
G1 X122.086 Y138.884 E2.48487
G1 X121.813 Y138.756 E2.52063
G1 X121.671 Y138.652 E2.54154
G1 X121.543 Y138.532 E2.56245
G1 X121.358 Y138.278 E2.59974
G1 X121.238 Y137.974 E2.63854
G1 X121.198 Y137.663 E2.67582
G1 X121.210 Y137.474 E2.69822
G1 X121.285 Y137.183 E2.73399
G1 X121.365 Y137.012 E2.75640
G1 X121.543 Y136.768 E2.79217
G1 X121.680 Y136.639 E2.81459
G1 X121.934 Y136.478 E2.85035
G1 X122.110 Y136.408 E2.87276
G1 X122.418 Y136.349 E2.91005 F1200.000
G1 X122.731 Y136.369 E2.94732
G1 X122.856 Y136.401 E2.96261
G1 X126.200 Y139.850 F7800.000
G1 X124.772 Y139.850 E3.13221 F1200.000
G1 X124.400 Y140.158 E3.18959
G1 X124.400 Y140.850 E3.27174
G1 X116.000 Y140.850 E4.26937
G1 X116.000 Y139.850 E4.38813
G1 X114.200 Y139.850 E4.60191
G1 X114.200 Y140.850 E4.72067
G1 X105.800 Y140.850 E5.71830
G1 X105.800 Y139.850 E5.83707
G1 X104.000 Y139.850 E6.05084
G1 X104.000 Y140.850 E6.16961
G1 X95.600 Y140.850 E7.16724
G1 X95.600 Y140.158 E7.24939
G1 X95.228 Y139.850 E7.30677
G1 X93.800 Y139.850 E7.47637
G1 X93.800 Y140.850 E7.59513
G1 X85.400 Y140.850 E8.59276
G1 X85.400 Y140.350 E8.65214
G1 X86.400 Y140.350 E8.77091
G1 X86.400 Y138.550 E8.98468
G1 X85.400 Y138.550 E9.10345
G1 X85.400 Y130.150 E10.10108
G1 X86.400 Y130.150 E10.21984
G1 X86.400 Y128.350 E10.43362
G1 X85.400 Y128.350 E10.55238
G1 X85.400 Y119.950 E11.55001
G1 X86.400 Y119.950 E11.66878
G1 X86.400 Y118.522 E11.83837
G1 X86.092 Y118.150 E11.89574
G1 X85.400 Y118.150 E11.97791
G1 X85.400 Y109.750 E12.97554
G1 X86.400 Y109.750 E13.09430
G1 X86.400 Y107.950 E13.30808
G1 X85.400 Y107.950 E13.42684
G1 X85.400 Y99.550 E14.42447
G1 X86.400 Y99.550 E14.54324
G1 X86.400 Y97.750 E14.75701
G1 X85.400 Y97.750 E14.87578
G1 X85.400 Y89.350 E15.87341
G1 X86.092 Y89.350 E15.95557
G1 X86.400 Y88.978 E16.01295
G1 X86.400 Y87.550 E16.18254
G1 X85.400 Y87.550 E16.30130
G1 X85.400 Y79.150 E17.29893
G1 X93.800 Y79.150 E18.29656
G1 X93.800 Y80.150 E18.41532
G1 X95.228 Y80.150 E18.58491
G1 X95.600 Y79.842 E18.64229
G1 X95.600 Y79.150 E18.72445
G1 X104.000 Y79.150 E19.72208
G1 X104.000 Y80.150 E19.84085
G1 X105.800 Y80.150 E20.05462
G1 X105.800 Y79.150 E20.17339
G1 X114.200 Y79.150 E21.17102
G1 X114.200 Y80.150 E21.28978
G1 X116.000 Y80.150 E21.50356
G1 X116.000 Y79.150 E21.62232
G1 X124.400 Y79.150 E22.61995
G1 X124.400 Y79.842 E22.70212
G1 X124.772 Y80.150 E22.75949
G1 X126.200 Y80.150 E22.92908
G1 X126.200 Y79.150 E23.04785
G1 X134.600 Y79.150 E24.04548
G1 X134.600 Y87.550 E25.04310
G1 X133.600 Y87.550 E25.16187
G1 X133.600 Y88.978 E25.33147
G1 X133.908 Y89.350 E25.38885
G1 X134.600 Y89.350 E25.47100
G1 X134.600 Y97.750 E26.46863
G1 X133.600 Y97.750 E26.58739
G1 X133.600 Y99.550 E26.80117
G1 X134.600 Y99.550 E26.91993
G1 X134.600 Y107.950 E27.91756
G1 X133.600 Y107.950 E28.03633
G1 X133.600 Y109.750 E28.25010
G1 X134.600 Y109.750 E28.36887
G1 X134.600 Y118.150 E29.36650
G1 X133.908 Y118.150 E29.44865
G1 X133.600 Y118.522 E29.50603
G1 X133.600 Y119.950 E29.67562
G1 X134.600 Y119.950 E29.79439
G1 X134.600 Y128.350 E30.79202
G1 X133.600 Y128.350 E30.91078
G1 X133.600 Y130.150 E31.12456
G1 X134.600 Y130.150 E31.24332
G1 X134.600 Y138.550 E32.24095
G1 X133.600 Y138.550 E32.35972
G1 X133.600 Y140.350 E32.57349
G1 X134.600 Y140.350 E32.69226
G1 X134.600 Y140.850 E32.75164
G1 X126.200 Y140.850 E33.74927
G1 X126.200 Y139.910 E33.86091
G1 X124.190 Y137.885 F7800.000
G1 X125.720 Y139.414 E34.11885 F1195.369
G1 X124.709 Y139.417 E34.23942
G1 X123.880 Y138.589 E34.37911
G1 X123.361 Y139.083 E34.46462
G1 X124.154 Y139.877 E34.59845
G1 X123.678 Y140.414 E34.68409
G1 X122.624 Y139.360 E34.86192
G1 E32.86192 F2400.00000
G92 E0
G1 Z0.600 F7800.000
G1 X123.519 Y136.044 F7800.000
G1 X126.391 Y136.786 F7800.000
G1 X131.225 Y134.700 F7800.000
G1 X131.225 Y125.617 F7800.000
G1 X133.000 Y121.550 F7800.000
G1 X133.000 Y120.550 F7800.000
G1 X133.164 Y119.484 F7800.000
G1 Z0.400 F7800.000
G1 E2.00000 F2400.00000
G1 X131.631 Y117.950 E2.25856 F1195.369
G1 X132.332 Y117.638 E2.35008
G1 X133.164 Y118.470 E2.49046
G1 X133.620 Y117.912 E2.57637
G1 X132.829 Y117.121 E2.70972
G1 X133.114 Y116.392 E2.80305
G1 X134.164 Y117.442 E2.98016
G1 X134.164 Y116.428 E3.10104
G1 X128.286 Y110.549 E4.09229
G1 X128.286 Y111.563 E4.21317
G1 X131.260 Y114.538 E4.71474
G1 X130.531 Y114.823 E4.80807
G1 X128.286 Y112.577 E5.18667
G1 X128.286 Y113.591 E5.30755
G1 X130.014 Y115.319 E5.59897
G1 X129.707 Y116.026 E5.69085
G1 X128.286 Y114.605 E5.93051
G1 X128.286 Y115.619 E6.05140
G1 X134.164 Y121.498 E7.04265
G1 X134.164 Y122.512 E7.16353
G1 X128.286 Y116.633 E8.15478
G1 X128.286 Y117.647 E8.27566
G1 X134.164 Y123.526 E9.26691
G1 X134.164 Y124.540 E9.38779
G1 X128.286 Y118.661 E10.37905
G1 X128.286 Y119.674 E10.49993
G1 X134.164 Y125.553 E11.49118
G1 X134.164 Y126.567 E11.61206
G1 X128.286 Y120.688 E12.60331
G1 X128.286 Y121.702 E12.72419
G1 X134.164 Y127.581 E13.71545
G1 X133.484 Y127.914 E13.80580
G1 X128.286 Y122.716 E14.68230
G1 X128.286 Y123.730 E14.80318
G1 X133.164 Y128.609 E15.62582
G1 X133.164 Y129.623 E15.74670
G1 X128.286 Y124.744 E16.56934
G1 X128.286 Y125.758 E16.69022
G1 X134.164 Y131.637 E17.68147
G1 X134.164 Y132.651 E17.80236
G1 X128.286 Y126.772 E18.79361
G1 X128.286 Y127.786 E18.91449
G1 X134.164 Y133.664 E19.90574
G1 X134.164 Y134.678 E20.02662
G1 X128.286 Y128.799 E21.01787
G1 X128.286 Y129.813 E21.13875
G1 X134.164 Y135.692 E22.13001
G1 X134.164 Y136.706 E22.25089
G1 X128.286 Y130.827 E23.24214
G1 X128.286 Y131.841 E23.36302
G1 X134.164 Y137.720 E24.35427
G1 X133.545 Y138.114 E24.44183
