; generated by Slic3r 1.2.9 on 2016-03-17 at 22:31:43

; external perimeters extrusion width = 0.40mm
; perimeters extrusion width = 0.67mm
; infill extrusion width = 0.67mm
; solid infill extrusion width = 0.67mm
; top infill extrusion width = 0.67mm

M190 S60 ; set bed temperature
M104 S210 ; set temperature
G28 ; home all axes
G1 Z5 F5000 ; lift nozzle

M109 S210 ; wait for temperature to be reached
G21 ; set units to millimeters
G90 ; use absolute coordinates
M82 ; use absolute distances for extrusion
G92 E0
M106 S255
G1 E-2.00000 F2400.00000
G92 E0
G1 Z0.200 F7800.000
G1 Z0.400 F7800.000
G1 Z0.600 F7800.000
G1 X79.651 Y78.121 F7800.000
G1 Z0.400 F7800.000
G1 E2.00000 F2400.00000
G1 X81.949 Y76.837 E2.31268 F1200.000
G1 X85.000 Y76.286 E2.68087
G1 X135.000 Y76.286 E8.61913
G1 X137.603 Y76.684 E8.93180
G1 X139.968 Y77.840 E9.24448 F1200.000
G1 X141.879 Y79.651 E9.55716
G1 X143.163 Y81.949 E9.86984
G1 X143.714 Y85.000 E10.23803
G1 X143.714 Y92.212 E11.09462
G1 X143.316 Y94.815 E11.40730
G1 X142.160 Y97.180 E11.71998
G1 X141.162 Y98.374 E11.90481
G1 X98.374 Y141.162 E19.09137
G1 X96.253 Y142.721 E19.40405
G1 X93.763 Y143.575 E19.71673
G1 X92.212 Y143.714 E19.90156
G1 X85.000 Y143.714 E20.75815
G1 X82.397 Y143.316 E21.07083
G1 X80.032 Y142.160 E21.38351
G1 X78.121 Y140.349 E21.69619
G1 X76.837 Y138.051 E22.00887
G1 X76.286 Y135.000 E22.37705
G1 X76.286 Y85.000 E28.31531
G1 X76.684 Y82.397 E28.62799
G1 X77.840 Y80.032 E28.94067
G1 X79.609 Y78.165 E29.24622
G1 E27.24622 F2400.00000
G92 E0
G1 Z0.600 F7800.000
G1 X125.756 Y91.436 F7800.000
G1 Z0.400 F7800.000
G1 E2.00000 F2400.00000
G1 X91.436 Y125.756 E7.76434 F1200.000
G1 X91.436 Y91.436 E11.84035
G1 X125.696 Y91.436 E15.90923
G1 X124.032 Y92.150 F7800.000
G1 X92.150 Y124.032 E21.26404 F1200.000
G1 X92.150 Y92.150 E25.05046
G1 X123.972 Y92.150 E28.82976
G1 X124.378 Y92.350 F7800.000
G1 X91.550 Y91.550 F7800.000
G1 X90.455 Y95.149 F7800.000
G1 X90.854 Y96.211 F7800.000
G1 X90.944 Y96.613 F7800.000
G1 X90.982 Y96.852 F7800.000
G1 X90.442 Y97.027 F7800.000
G1 X90.559 Y96.997 F7800.000
G1 X90.619 Y97.465 E28.88577 F1200.000
G1 X90.598 Y97.788 E28.92421
G1 X90.490 Y98.210 E28.97601
G1 X90.352 Y98.503 E29.01445
G1 X90.096 Y98.856 E29.06626
G1 X89.860 Y99.078 E29.10472
G1 X89.491 Y99.311 E29.15649
G1 X89.191 Y99.431 E29.19493
G1 X88.727 Y99.519 E29.25098
G1 X88.256 Y99.489 E29.30697
G1 X87.943 Y99.409 E29.34544
G1 X87.548 Y99.223 E29.39724
G1 X87.315 Y99.054 E29.43150
G1 X87.104 Y98.856 E29.46577
G1 X86.827 Y98.475 E29.52177
G1 X86.641 Y98.003 E29.58201
G1 X86.577 Y97.500 E29.64223
G1 X86.636 Y97.032 E29.69824
G1 X86.725 Y96.758 E29.73249
G1 X86.848 Y96.497 E29.76675
G1 X87.077 Y96.169 E29.81426
G1 X87.340 Y95.922 E29.85710
G1 X87.709 Y95.689 E29.90887
G1 X88.009 Y95.569 E29.94731
G1 X88.473 Y95.481 E30.00336 F1200.000
G1 X88.944 Y95.511 E30.05935
G1 X89.257 Y95.591 E30.09782
G1 X89.652 Y95.777 E30.14963
G1 X89.885 Y95.946 E30.18388
G1 X90.096 Y96.144 E30.21815
G1 X90.373 Y96.525 E30.27416
G1 X90.537 Y96.941 E30.32727
G1 X89.862 Y97.176 F7800.000
G1 X89.902 Y97.487 E30.36455 F1200.000
G1 X89.890 Y97.676 E30.38695
G1 X89.815 Y97.967 E30.42272
G1 X89.735 Y98.138 E30.44513
G1 X89.557 Y98.382 E30.48091
G1 X89.420 Y98.511 E30.50332
G1 X89.166 Y98.672 E30.53908
G1 X88.990 Y98.742 E30.56148
G1 X88.682 Y98.801 E30.59878
G1 X88.369 Y98.781 E30.63605
G1 X88.186 Y98.734 E30.65847
G1 X87.913 Y98.606 E30.69424
G1 X87.643 Y98.382 E30.73597
G1 X87.458 Y98.128 E30.77325
G1 X87.338 Y97.824 E30.81205
G1 X87.297 Y97.500 E30.85085
G1 X87.336 Y97.189 E30.88813
G1 X87.391 Y97.021 E30.90903
G1 X87.465 Y96.862 E30.92994
G1 X87.643 Y96.618 E30.96571
G1 X87.780 Y96.489 E30.98812
G1 X88.034 Y96.328 E31.02388
G1 X88.210 Y96.258 E31.04629
G1 X88.518 Y96.199 E31.08358 F1200.000
G1 X88.831 Y96.219 E31.12086
G1 X89.014 Y96.266 E31.14327
G1 X89.287 Y96.394 E31.17905
G1 X89.557 Y96.618 E31.22077
G1 X89.742 Y96.872 E31.25805
G1 X89.840 Y97.120 E31.28973
G1 X90.161 Y97.273 F7800.000
G1 X89.987 Y96.198 F7800.000
G1 X89.251 Y89.251 F7800.000
G1 X94.303 Y89.972 F7800.000
G1 X95.099 Y90.431 F7800.000
G1 X95.461 Y90.597 F7800.000
G1 X95.700 Y90.691 F7800.000
G1 X96.288 Y90.066 F7800.000
G1 X96.240 Y90.178 F7800.000
G1 X96.004 Y89.956 E31.32817 F1200.000
G1 X95.748 Y89.603 E31.38000
G1 X95.610 Y89.310 E31.41844
G1 X95.502 Y88.888 E31.47023
G1 X95.484 Y88.600 E31.50449
G1 X95.502 Y88.312 E31.53875
G1 X95.610 Y87.890 E31.59054
G1 X95.748 Y87.597 E31.62898
G1 X96.004 Y87.244 E31.68081
G1 X96.190 Y87.070 E31.71104
G1 X96.181 Y87.060 E31.71260
G1 X96.609 Y86.788 E31.77272
G1 X96.910 Y86.669 E31.81116
G1 X97.373 Y86.581 E31.86717 F1200.000
G1 X97.844 Y86.611 E31.92318
G1 X98.123 Y86.682 E31.95744
G1 X98.391 Y86.788 E31.99170
G1 X98.760 Y87.022 E32.04351
G1 X98.996 Y87.244 E32.08195
G1 X99.273 Y87.625 E32.13799
G1 X99.458 Y88.093 E32.19774
G1 X99.519 Y88.553 E32.25282
G1 X99.498 Y88.888 E32.29267
G1 X99.390 Y89.310 E32.34446
G1 X99.252 Y89.603 E32.38290
G1 X98.996 Y89.956 E32.43473
G1 X98.760 Y90.178 E32.47317
G1 X98.391 Y90.412 E32.52498
G1 X98.090 Y90.531 E32.56342
G1 X97.627 Y90.619 E32.61943
G1 X97.121 Y90.587 E32.67965
G1 X96.639 Y90.430 E32.73988
G1 X96.291 Y90.210 E32.78877
G1 X96.680 Y89.611 F7800.000
G1 X96.543 Y89.482 E32.81118 F1200.000
G1 X96.365 Y89.238 E32.84696
G1 X96.285 Y89.067 E32.86936
G1 X96.210 Y88.776 E32.90513
G1 X96.210 Y88.424 E32.94686
G1 X96.285 Y88.133 E32.98262
G1 X96.365 Y87.962 E33.00503
G1 X96.543 Y87.718 E33.04081
G1 X96.680 Y87.589 E33.06321
G1 X96.934 Y87.428 E33.09899
G1 X97.110 Y87.358 E33.12140
G1 X97.418 Y87.299 E33.15868 F1200.000
G1 X97.731 Y87.319 E33.19596
G1 X98.066 Y87.428 E33.23768
G1 X98.320 Y87.589 E33.27346
G1 X98.457 Y87.718 E33.29587
G1 X98.642 Y87.972 E33.33316
G1 X98.762 Y88.275 E33.37179
G1 X98.802 Y88.578 E33.40814
G1 X98.790 Y88.776 E33.43165
G1 X98.715 Y89.067 E33.46742
G1 X98.635 Y89.238 E33.48983
G1 X98.457 Y89.482 E33.52561
G1 X98.320 Y89.611 E33.54801
G1 X98.066 Y89.772 E33.58379
G1 X97.890 Y89.842 E33.60619
G1 X97.582 Y89.901 E33.64348
G1 X97.256 Y89.880 E33.68227
G1 X96.945 Y89.779 E33.72107
G1 X96.731 Y89.643 E33.75123
G1 X96.503 Y89.677 F7800.000
G1 X120.484 Y88.600 F7800.000
G1 X120.502 Y88.312 E33.78549 F1200.000
G1 X120.610 Y87.890 E33.83728
G1 X120.748 Y87.597 E33.87572
G1 X121.004 Y87.244 E33.92755
G1 X121.240 Y87.022 E33.96599
G1 X121.609 Y86.788 E34.01780
G1 X121.910 Y86.669 E34.05624
G1 X122.373 Y86.581 E34.11225 F1200.000
G1 X122.844 Y86.611 E34.16826
G1 X123.123 Y86.682 E34.20252
G1 X123.391 Y86.788 E34.23678
G1 X123.819 Y87.060 E34.29690
G1 X123.810 Y87.070 E34.29846
G1 X123.996 Y87.244 E34.32869
G1 X124.273 Y87.625 E34.38472
G1 X124.458 Y88.093 E34.44448
G1 X124.519 Y88.553 E34.49956
G1 X124.498 Y88.888 E34.53940
G1 X124.390 Y89.310 E34.59120
G1 X124.252 Y89.603 E34.62964
G1 X123.996 Y89.956 E34.68146
G1 X123.760 Y90.178 E34.71991
G1 X123.391 Y90.412 E34.77172
G1 X123.090 Y90.531 E34.81016
G1 X122.627 Y90.619 E34.86617
G1 X122.121 Y90.587 E34.92639
G1 X121.639 Y90.430 E34.98662
G1 X121.240 Y90.178 E35.04263
G1 X121.004 Y89.956 E35.08108
G1 X120.748 Y89.603 E35.13290
G1 X120.610 Y89.310 E35.17134
G1 X120.502 Y88.888 E35.22314
G1 X120.487 Y88.660 E35.25027
G1 X121.199 Y88.600 F7800.000
G1 X121.210 Y88.424 E35.27117 F1200.000
G1 X121.285 Y88.133 E35.30694
G1 X121.365 Y87.962 E35.32935
G1 X121.543 Y87.718 E35.36513
G1 X121.680 Y87.589 E35.38753
G1 X121.934 Y87.428 E35.42331
G1 X122.110 Y87.358 E35.44571
G1 X122.418 Y87.299 E35.48300 F1200.000
G1 X122.731 Y87.319 E35.52028
G1 X122.902 Y87.363 E35.54118
G1 X123.066 Y87.428 E35.56209
G1 X123.320 Y87.589 E35.59786
G1 X123.457 Y87.718 E35.62027
G1 X123.642 Y87.972 E35.65756
G1 X123.762 Y88.275 E35.69619
G1 X123.802 Y88.578 E35.73254
G1 X123.790 Y88.776 E35.75605
G1 X123.715 Y89.067 E35.79182
G1 X123.635 Y89.238 E35.81423
G1 X123.457 Y89.482 E35.85001
G1 X123.320 Y89.611 E35.87241
G1 X123.066 Y89.772 E35.90819
G1 X122.890 Y89.842 E35.93060
G1 X122.582 Y89.901 E35.96788
G1 X122.256 Y89.880 E36.00667
G1 X121.945 Y89.779 E36.04547
G1 X121.680 Y89.611 E36.08275
G1 X121.543 Y89.482 E36.10516
G1 X121.365 Y89.238 E36.14094
G1 X121.285 Y89.067 E36.16335
G1 X121.210 Y88.776 E36.19911
G1 X121.203 Y88.660 E36.21289
G1 X121.049 Y88.509 F7800.000
G1 X121.113 Y89.902 F7800.000
G1 X88.797 Y91.057 F7800.000
G1 X90.854 Y96.211 F7800.000
G1 X89.987 Y100.674 F7800.000
G1 X89.028 Y118.099 F7800.000
G1 X90.105 Y119.513 F7800.000
G1 X90.455 Y120.149 F7800.000
G1 X90.622 Y120.522 F7800.000
G1 X89.987 Y121.198 F7800.000
G1 X90.096 Y121.144 F7800.000
G1 X90.373 Y121.525 E36.26890 F1200.000
G1 X90.559 Y121.997 E36.32913
G1 X90.619 Y122.465 E36.38514
G1 X90.598 Y122.788 E36.42359
G1 X90.490 Y123.210 E36.47538
G1 X90.352 Y123.503 E36.51383
G1 X90.096 Y123.856 E36.56564
G1 X89.860 Y124.078 E36.60409
G1 X89.461 Y124.330 E36.66010
G1 X89.013 Y124.476 E36.71613
G1 X88.692 Y124.517 E36.75458
G1 X88.256 Y124.489 E36.80640
G1 X87.943 Y124.409 E36.84485
G1 X87.548 Y124.223 E36.89659
G1 X87.315 Y124.054 E36.93087
G1 X87.078 Y123.831 E36.96952
G1 X86.827 Y123.475 E37.02123
G1 X86.641 Y123.003 E37.08147
G1 X86.577 Y122.500 E37.14169
G1 X86.636 Y122.032 E37.19770
G1 X86.725 Y121.758 E37.23195
G1 X86.848 Y121.497 E37.26621
G1 X87.104 Y121.144 E37.31802
G1 X87.340 Y120.922 E37.35648
G1 X87.739 Y120.670 E37.41248
G1 X88.187 Y120.524 E37.46852
G1 X88.508 Y120.483 E37.50696 F1200.000
G1 X88.944 Y120.511 E37.55879
G1 X89.257 Y120.591 E37.59723
G1 X89.652 Y120.777 E37.64897
G1 X89.885 Y120.946 E37.68325
G1 X90.052 Y121.103 E37.71040
G1 X89.557 Y121.618 F7800.000
G1 X89.742 Y121.872 E37.74768 F1200.000
G1 X89.862 Y122.176 E37.78648
G1 X89.902 Y122.487 E37.82376
G1 X89.890 Y122.676 E37.84617
G1 X89.815 Y122.967 E37.88194
G1 X89.735 Y123.138 E37.90435
G1 X89.557 Y123.382 E37.94012
G1 X89.420 Y123.511 E37.96253
G1 X89.155 Y123.679 E37.99981
G1 X88.856 Y123.776 E38.03710
G1 X88.669 Y123.800 E38.05951
G1 X88.368 Y123.781 E38.09529
G1 X88.186 Y123.734 E38.11770
G1 X87.913 Y123.606 E38.15344
G1 X87.771 Y123.502 E38.17435
G1 X87.643 Y123.382 E38.19526
G1 X87.458 Y123.128 E38.23254
G1 X87.338 Y122.824 E38.27135
G1 X87.297 Y122.500 E38.31014
G1 X87.336 Y122.189 E38.34742
G1 X87.391 Y122.021 E38.36832
G1 X87.465 Y121.862 E38.38923
G1 X87.643 Y121.618 E38.42500
G1 X87.780 Y121.489 E38.44741
G1 X88.045 Y121.321 E38.48469
G1 X88.344 Y121.224 E38.52199
G1 X88.531 Y121.200 E38.54439 F1200.000
G1 X88.832 Y121.219 E38.58017
G1 X89.014 Y121.266 E38.60258
G1 X89.287 Y121.394 E38.63832
G1 X89.514 Y121.577 E38.67295
G1 X89.866 Y121.559 F7800.000
G1 X87.114 Y116.714 F7800.000
G1 X87.114 Y113.486 E39.05636 F1200.000
G1 X86.114 Y113.486 E39.17513
G1 X86.114 Y106.514 E40.00312
G1 X87.114 Y106.514 E40.12189
G1 X87.114 Y103.286 E40.50530
G1 X86.114 Y103.286 E40.62407
G1 X86.114 Y96.314 E41.45206
G1 X86.428 Y96.314 E41.48928
G1 X87.114 Y95.485 E41.61711
G1 X87.114 Y93.086 E41.90208
G1 X86.114 Y93.086 E42.02085
G1 X86.114 Y86.114 E42.84884
G1 X93.086 Y86.114 E43.67683
G1 X93.086 Y87.114 E43.79560
G1 X95.485 Y87.114 E44.08057
G1 X95.915 Y86.758 E44.14688
G1 X96.146 Y87.020 E44.18837
G1 X95.941 Y86.737 E44.22993
G1 X96.314 Y86.428 E44.28753
G1 X96.314 Y86.114 E44.32476
G1 X103.286 Y86.114 E45.15275
G1 X103.286 Y87.114 E45.27152
G1 X106.514 Y87.114 E45.65493
G1 X106.514 Y86.114 E45.77370
G1 X113.486 Y86.114 E46.60169
G1 X113.486 Y87.114 E46.72045
G1 X116.714 Y87.114 E47.10387
G1 X116.714 Y86.114 E47.22263
G1 X123.686 Y86.114 E48.05062
G1 X123.686 Y86.428 E48.08785
G1 X124.059 Y86.737 E48.14546
G1 X123.854 Y87.020 E48.18701
G1 X124.085 Y86.758 E48.22849
G1 X124.515 Y87.114 E48.29479
G1 X126.914 Y87.114 E48.57977
G1 X126.914 Y86.114 E48.69853
G1 X133.886 Y86.114 E49.52653
G1 X133.886 Y91.751 E50.19599
G1 X132.528 Y93.109 E50.42411
G1 X131.820 Y92.402 E50.54288
G1 X129.538 Y94.685 E50.92628
G1 X130.245 Y95.392 E51.04505
G1 X125.315 Y100.322 E51.87304
G1 X124.608 Y99.614 E51.99182
G1 X122.325 Y101.897 E52.37525
G1 X123.032 Y102.604 E52.49401
G1 X118.103 Y107.534 E53.32199
G1 X117.395 Y106.827 E53.44076
G1 X115.113 Y109.110 E53.82417
G1 X115.820 Y109.817 E53.94293
G1 X110.890 Y114.747 E54.77092
G1 X110.183 Y114.040 E54.88968
G1 X107.900 Y116.322 E55.27310
G1 X108.607 Y117.029 E55.39189
G1 X103.678 Y121.959 E56.21987
G1 X102.971 Y121.252 E56.33864
G1 X100.688 Y123.535 E56.72205
G1 X101.395 Y124.242 E56.84081
G1 X96.465 Y129.172 E57.66881
G1 X95.758 Y128.465 E57.78757
G1 X93.475 Y130.747 E58.17098
G1 X94.182 Y131.454 E58.28975
G1 X91.751 Y133.886 E58.69813
G1 X86.114 Y133.886 E59.36759
G1 X86.114 Y126.914 E60.19558
G1 X87.114 Y126.914 E60.31435
G1 X87.114 Y124.515 E60.59932
G1 X86.428 Y123.686 E60.72714
G1 X86.114 Y123.686 E60.76437
G1 X86.114 Y116.714 E61.59236
G1 X87.054 Y116.714 E61.70400
G1 X86.400 Y116.000 F7800.000
G1 X86.400 Y114.200 E61.91778 F1200.000
G1 X85.400 Y114.200 E62.03654
G1 X85.400 Y105.800 E63.03417
G1 X86.400 Y105.800 E63.15294
G1 X86.400 Y104.000 E63.36671
G1 X85.400 Y104.000 E63.48548
G1 X85.400 Y95.600 E64.48311
G1 X86.092 Y95.600 E64.56527
G1 X86.400 Y95.228 E64.62265
G1 X86.400 Y93.800 E64.79224
G1 X85.400 Y93.800 E64.91100
G1 X85.400 Y85.400 E65.90863
G1 X93.800 Y85.400 E66.90626
G1 X93.800 Y86.400 E67.02502
G1 X95.228 Y86.400 E67.19462
G1 X95.600 Y86.092 E67.25199
G1 X95.600 Y85.400 E67.33416
G1 X104.000 Y85.400 E68.33178
G1 X104.000 Y86.400 E68.45055
G1 X105.800 Y86.400 E68.66433
G1 X105.800 Y85.400 E68.78309
G1 X114.200 Y85.400 E69.78072
G1 X114.200 Y86.400 E69.89948
G1 X116.000 Y86.400 E70.11326
G1 X116.000 Y85.400 E70.23203
G1 X124.400 Y85.400 E71.22965
G1 X124.400 Y86.092 E71.31182
G1 X124.772 Y86.400 E71.36919
G1 X126.200 Y86.400 E71.53879
G1 X126.200 Y85.400 E71.65755
G1 X134.600 Y85.400 E72.65518
G1 X134.600 Y92.047 E73.44459
G1 X132.528 Y94.119 E73.79266
G1 X131.820 Y93.412 E73.91143
G1 X130.548 Y94.685 E74.12520
G1 X131.255 Y95.392 E74.24397
G1 X125.315 Y101.332 E75.24160
G1 X124.608 Y100.624 E75.36038
G1 X123.335 Y101.897 E75.57416
G1 X124.042 Y102.604 E75.69292
G1 X118.103 Y108.544 E76.69055
G1 X117.395 Y107.837 E76.80931
G1 X116.123 Y109.110 E77.02309
G1 X116.830 Y109.817 E77.14185
G1 X110.890 Y115.757 E78.13947
G1 X110.183 Y115.050 E78.25823
G1 X108.910 Y116.322 E78.47202
G1 X109.617 Y117.029 E78.59080
G1 X103.678 Y122.969 E79.58842
G1 X102.971 Y122.262 E79.70719
G1 X101.698 Y123.535 E79.92096
G1 X102.405 Y124.242 E80.03973
G1 X96.465 Y130.182 E81.03736
G1 X95.758 Y129.475 E81.15612
G1 X94.485 Y130.747 E81.36990
G1 X95.192 Y131.454 E81.48866
G1 X92.047 Y134.600 E82.01700
G1 X85.400 Y134.600 E82.80641
G1 X85.400 Y126.200 E83.80403
G1 X86.400 Y126.200 E83.92280
G1 X86.400 Y124.772 E84.09239
G1 X86.092 Y124.400 E84.14977
G1 X85.400 Y124.400 E84.23193
G1 X85.400 Y116.000 E85.22956
G1 X86.340 Y116.000 E85.34120
G1 X86.800 Y116.000 F7800.000
G1 X87.477 Y114.548 F7800.000
G1 X91.073 Y118.143 E86.00117 F1097.906
G1 X91.073 Y119.163 E86.13354
G1 X87.477 Y115.568 E86.79351
G1 X87.477 Y116.588 E86.92588
G1 X91.073 Y120.183 E87.58585
G1 X91.073 Y121.202 E87.71822
G1 X86.948 Y117.077 E88.47545
G1 X86.477 Y117.627 E88.56934
G1 X88.990 Y120.140 E89.03058
G1 X88.057 Y120.226 E89.15227
G1 X86.477 Y118.647 E89.44216
G1 X86.477 Y119.666 E89.57453
G1 X87.359 Y120.548 E89.73644
G1 X86.816 Y121.025 E89.83024
G1 X86.477 Y120.686 E89.89245
G1 X86.791 Y123.790 F7800.000
G1 X87.740 Y124.996 F7800.000
G1 X88.719 Y126.117 F7800.000
G1 X89.460 Y126.776 F7800.000
G1 X89.691 Y126.261 F7800.000
G1 X89.188 Y124.309 F7800.000
G1 X89.218 Y124.751 F7800.000
G1 X94.132 Y129.665 E90.79450 F1097.906
G1 X93.624 Y130.172 E90.88769
G1 X88.320 Y124.868 E91.86144
G1 X87.478 Y125.042 E91.97298
G1 X93.116 Y130.680 E93.00804
G1 X93.302 Y131.881 E93.16573
G1 X87.478 Y126.057 E94.23481
G1 X87.478 Y127.072 E94.36660
G1 X92.794 Y132.388 E95.34249
G1 X92.287 Y132.896 E95.43568
G1 X86.669 Y127.278 E96.46693
G1 X86.478 Y128.103 E96.57677
G1 X91.779 Y133.403 E97.54987
G1 X90.882 Y133.522 E97.66730
G1 X86.478 Y129.118 E98.47575
G1 X86.478 Y130.133 E98.60754
G1 X89.867 Y133.522 E99.22962
G1 X88.852 Y133.522 E99.36140
G1 X86.478 Y131.148 E99.79711
G1 X86.478 Y132.164 E99.92889
