; generated by Slic3r 1.2.9 on 2016-04-09 at 08:55:08

; external perimeters extrusion width = 0.40mm
; perimeters extrusion width = 0.67mm
; infill extrusion width = 0.67mm
; solid infill extrusion width = 0.67mm
; top infill extrusion width = 0.67mm

M190 S60 ; set bed temperature
M104 S210 ; set temperature
G28 ; home all axes
G1 Z5 F5000 ; lift nozzle

M109 S210 ; wait for temperature to be reached
G21 ; set units to millimeters
G90 ; use absolute coordinates
M82 ; use absolute distances for extrusion
G92 E0
M106 S255
G1 E-2.00000 F2400.00000
G92 E0
G1 Z0.200 F7800.000
G1 Z0.400 F7800.000
G1 Z0.600 F7800.000
G1 X79.651 Y84.371 F7800.000
G1 Z0.400 F7800.000
G1 E2.00000 F2400.00000
G1 X81.949 Y83.087 E2.31268 F1200.000
G1 X85.000 Y82.536 E2.68087
G1 X135.000 Y82.536 E8.61913
G1 X137.603 Y82.934 E8.93180
G1 X139.968 Y84.090 E9.24448 F1200.000
G1 X141.879 Y85.901 E9.55716
G1 X143.163 Y88.199 E9.86984
G1 X143.714 Y91.250 E10.23803
G1 X143.714 Y128.750 E14.69172
G1 X143.316 Y131.353 E15.00440
G1 X142.160 Y133.718 E15.31708
G1 X140.349 Y135.629 E15.62976
G1 X138.051 Y136.913 E15.94243
G1 X135.000 Y137.464 E16.31062
G1 X97.500 Y137.464 E20.76432
G1 X94.897 Y137.066 E21.07700
G1 X92.532 Y135.910 E21.38967
G1 X91.338 Y134.912 E21.57451
G1 X78.838 Y122.412 E23.67400
G1 X77.279 Y120.290 E23.98668
G1 X76.425 Y117.800 E24.29935
G1 X76.286 Y116.250 E24.48419
G1 X76.286 Y91.250 E27.45332
G1 X76.684 Y88.647 E27.76600
G1 X77.840 Y86.282 E28.07867
G1 X79.609 Y84.415 E28.38423
G1 E26.38423 F2400.00000
G92 E0
G1 Z0.600 F7800.000
G1 X123.819 Y126.690 F7800.000
G1 Z0.400 F7800.000
G1 E2.00000 F2400.00000
G1 X123.391 Y126.961 E2.06010 F1200.000
G1 X123.091 Y127.081 E2.09854
G1 X122.627 Y127.169 E2.15459
G1 X122.157 Y127.139 E2.21057
G1 X121.843 Y127.059 E2.24904
G1 X121.448 Y126.873 E2.30082
G1 X121.215 Y126.704 E2.33508
G1 X121.004 Y126.506 E2.36937
G1 X120.727 Y126.125 E2.42540
G1 X120.541 Y125.653 E2.48562
G1 X120.481 Y125.185 E2.54162
G1 X120.502 Y124.862 E2.58007
G1 X120.610 Y124.440 E2.63185
G1 X120.748 Y124.147 E2.67030
G1 X121.004 Y123.794 E2.72212
G1 X121.240 Y123.572 E2.76058
G1 X121.609 Y123.339 E2.81235
G1 X121.909 Y123.219 E2.85079
G1 X122.373 Y123.131 E2.90684 F1200.000
G1 X122.843 Y123.161 E2.96282
G1 X123.157 Y123.241 E3.00130
G1 X123.552 Y123.427 E3.05308
G1 X123.785 Y123.596 E3.08733
G1 X123.996 Y123.794 E3.12163
G1 X124.273 Y124.175 E3.17765
G1 X124.459 Y124.647 E3.23787
G1 X124.519 Y125.115 E3.29387
G1 X124.498 Y125.438 E3.33232
G1 X124.390 Y125.860 E3.38411
G1 X124.252 Y126.153 E3.42255
G1 X123.996 Y126.506 E3.47437
G1 X123.844 Y126.648 E3.49904
G1 X123.321 Y126.160 F7800.000
G1 X123.066 Y126.322 E3.53494 F1200.000
G1 X122.890 Y126.392 E3.55735
G1 X122.582 Y126.451 E3.59464
G1 X122.269 Y126.431 E3.63191
G1 X122.086 Y126.384 E3.65433
G1 X121.813 Y126.256 E3.69010
G1 X121.543 Y126.032 E3.73184
G1 X121.358 Y125.778 E3.76912
G1 X121.238 Y125.474 E3.80792
G1 X121.198 Y125.163 E3.84520
G1 X121.210 Y124.974 E3.86760
G1 X121.285 Y124.683 E3.90337
G1 X121.365 Y124.512 E3.92578
G1 X121.543 Y124.268 E3.96155
G1 X121.680 Y124.139 E3.98397
G1 X121.934 Y123.978 E4.01973
G1 X122.110 Y123.908 E4.04214
G1 X122.418 Y123.849 E4.07943 F1200.000
G1 X122.731 Y123.869 E4.11670
G1 X122.914 Y123.916 E4.13912
G1 X123.187 Y124.044 E4.17488
G1 X123.329 Y124.148 E4.19579
G1 X123.457 Y124.268 E4.21670
G1 X123.642 Y124.522 E4.25399
G1 X123.762 Y124.826 E4.29279
G1 X123.802 Y125.137 E4.33006
G1 X123.790 Y125.326 E4.35247
G1 X123.715 Y125.617 E4.38824
G1 X123.635 Y125.788 E4.41064
G1 X123.457 Y126.032 E4.44642
G1 X123.365 Y126.119 E4.46157
G1 X123.352 Y126.461 F7800.000
G1 E2.46157 F2400.00000
G92 E0
G1 Z0.600 F7800.000
G1 X123.310 Y123.429 F7800.000
G1 X126.620 Y124.475 F7800.000
G1 X130.425 Y124.624 F7800.000
G1 X130.725 Y109.650 F7800.000
G1 X130.756 Y107.907 F7800.000
G1 X130.342 Y107.391 F7800.000
G1 X130.812 Y105.559 F7800.000
G1 X130.743 Y105.659 F7800.000
G1 Z0.400 F7800.000
G1 E2.00000 F2400.00000
G1 X130.348 Y105.473 E2.05178 F1200.000
G1 X130.115 Y105.304 E2.08603
G1 X129.904 Y105.106 E2.12033
G1 X129.627 Y104.725 E2.17635
G1 X129.441 Y104.253 E2.23658
G1 X129.381 Y103.785 E2.29258
G1 X129.402 Y103.462 E2.33102
G1 X129.510 Y103.040 E2.38281
G1 X129.648 Y102.747 E2.42125
G1 X129.904 Y102.394 E2.47307
G1 X130.140 Y102.172 E2.51154
G1 X130.509 Y101.939 E2.56331
G1 X130.809 Y101.819 E2.60175
G1 X131.273 Y101.731 E2.65779 F1200.000
G1 X131.743 Y101.761 E2.71378
G1 X132.057 Y101.841 E2.75225
G1 X132.452 Y102.027 E2.80403
G1 X132.685 Y102.196 E2.83829
G1 X132.922 Y102.418 E2.87683
G1 X133.173 Y102.775 E2.92869
G1 X133.359 Y103.247 E2.98891
G1 X133.419 Y103.715 E3.04491
G1 X133.398 Y104.038 E3.08336
G1 X133.290 Y104.460 E3.13514
G1 X133.152 Y104.753 E3.17359
G1 X132.896 Y105.106 E3.22541
G1 X132.660 Y105.328 E3.26387
G1 X132.291 Y105.561 E3.31564
G1 X131.991 Y105.681 E3.35408
G1 X131.527 Y105.769 E3.41013
G1 X131.057 Y105.739 E3.46611
G1 X130.801 Y105.674 E3.49746
G1 X130.986 Y104.984 F7800.000
G1 X130.713 Y104.856 E3.53322 F1200.000
G1 X130.571 Y104.752 E3.55413
G1 X130.443 Y104.632 E3.57505
G1 X130.258 Y104.378 E3.61233
G1 X130.138 Y104.074 E3.65113
G1 X130.098 Y103.763 E3.68841
G1 X130.110 Y103.574 E3.71081
G1 X130.185 Y103.283 E3.74658
G1 X130.265 Y103.112 E3.76899
G1 X130.443 Y102.868 E3.80476
G1 X130.580 Y102.739 E3.82718
G1 X130.834 Y102.578 E3.86294
G1 X131.010 Y102.508 E3.88535
G1 X131.318 Y102.449 E3.92264 F1200.000
G1 X131.631 Y102.469 E3.95991
G1 X131.814 Y102.516 E3.98233
G1 X132.087 Y102.644 E4.01809
G1 X132.229 Y102.748 E4.03899
G1 X132.357 Y102.868 E4.05991
G1 X132.542 Y103.122 E4.09720
G1 X132.662 Y103.426 E4.13600
G1 X132.702 Y103.737 E4.17327
G1 X132.690 Y103.926 E4.19568
G1 X132.615 Y104.217 E4.23145
G1 X132.535 Y104.388 E4.25385
G1 X132.357 Y104.632 E4.28963
G1 X132.220 Y104.761 E4.31205
G1 X131.966 Y104.922 E4.34780
G1 X131.790 Y104.992 E4.37021
G1 X131.482 Y105.051 E4.40751
G1 X131.169 Y105.031 E4.44478
G1 X131.044 Y104.999 E4.46007
G1 X130.750 Y105.171 F7800.000
G1 E2.46007 F2400.00000
G92 E0
G1 Z0.600 F7800.000
G1 X129.861 Y102.632 F7800.000
G1 X131.203 Y97.307 F7800.000
G1 X125.697 Y96.222 F7800.000
G1 X124.901 Y96.681 F7800.000
G1 X124.539 Y96.847 F7800.000
G1 X124.300 Y96.941 F7800.000
G1 X123.712 Y96.316 F7800.000
G1 X123.760 Y96.428 F7800.000
G1 Z0.400 F7800.000
G1 E2.00000 F2400.00000
G1 X123.391 Y96.662 E2.05181 F1200.000
G1 X123.090 Y96.781 E2.09025
G1 X122.627 Y96.869 E2.14626
G1 X122.121 Y96.837 E2.20648
G1 X121.639 Y96.680 E2.26671
G1 X121.240 Y96.428 E2.32273
G1 X121.004 Y96.206 E2.36117
G1 X120.748 Y95.853 E2.41300
G1 X120.610 Y95.560 E2.45144
G1 X120.502 Y95.138 E2.50323
G1 X120.484 Y94.850 E2.53749
G1 X120.502 Y94.562 E2.57174
G1 X120.610 Y94.140 E2.62354
G1 X120.748 Y93.847 E2.66198
G1 X121.004 Y93.494 E2.71381
G1 X121.240 Y93.272 E2.75225
G1 X121.609 Y93.038 E2.80406
G1 X121.910 Y92.919 E2.84250
G1 X122.373 Y92.831 E2.89851 F1200.000
G1 X122.879 Y92.863 E2.95873
G1 X123.361 Y93.020 E3.01896
G1 X123.819 Y93.310 E3.08329
G1 X123.810 Y93.320 E3.08484
G1 X123.996 Y93.494 E3.11508
G1 X124.252 Y93.847 E3.16690
G1 X124.390 Y94.140 E3.20534
G1 X124.498 Y94.562 E3.25714
G1 X124.516 Y94.850 E3.29140
G1 X124.498 Y95.138 E3.32565
G1 X124.390 Y95.560 E3.37745
G1 X124.252 Y95.853 E3.41589
G1 X123.996 Y96.206 E3.46771
G1 X123.803 Y96.387 E3.49903
G1 X123.320 Y95.861 F7800.000
G1 X123.066 Y96.022 E3.53481 F1200.000
G1 X122.890 Y96.092 E3.55721
G1 X122.582 Y96.151 E3.59450
G1 X122.256 Y96.130 E3.63328
G1 X121.945 Y96.029 E3.67208
G1 X121.680 Y95.861 E3.70937
G1 X121.543 Y95.732 E3.73178
G1 X121.365 Y95.488 E3.76756
G1 X121.285 Y95.317 E3.78996
G1 X121.210 Y95.026 E3.82573
G1 X121.210 Y94.674 E3.86745
G1 X121.285 Y94.383 E3.90322
G1 X121.365 Y94.212 E3.92563
G1 X121.543 Y93.968 E3.96141
G1 X121.680 Y93.839 E3.98381
G1 X121.934 Y93.678 E4.01959
G1 X122.110 Y93.608 E4.04200
G1 X122.418 Y93.549 E4.07928 F1200.000
G1 X122.744 Y93.570 E4.11807
G1 X123.055 Y93.671 E4.15687
G1 X123.320 Y93.839 E4.19415
G1 X123.457 Y93.968 E4.21656
G1 X123.635 Y94.212 E4.25234
G1 X123.715 Y94.383 E4.27475
G1 X123.790 Y94.674 E4.31051
G1 X123.790 Y95.026 E4.35224
G1 X123.715 Y95.317 E4.38801
G1 X123.635 Y95.488 E4.41041
G1 X123.457 Y95.732 E4.44619
G1 X123.364 Y95.820 E4.46147
G1 X123.351 Y96.161 F7800.000
G1 X99.516 Y94.850 F7800.000
G1 X99.498 Y95.138 E4.49573 F1200.000
G1 X99.390 Y95.560 E4.54752
G1 X99.252 Y95.853 E4.58596
G1 X98.996 Y96.206 E4.63779
G1 X98.760 Y96.428 E4.67623
G1 X98.391 Y96.662 E4.72804
G1 X98.090 Y96.781 E4.76648
G1 X97.627 Y96.869 E4.82250
G1 X97.121 Y96.837 E4.88271
G1 X96.639 Y96.680 E4.94294
G1 X96.240 Y96.428 E4.99896
G1 X96.004 Y96.206 E5.03740
G1 X95.748 Y95.853 E5.08923
G1 X95.610 Y95.560 E5.12767
G1 X95.502 Y95.138 E5.17946
G1 X95.484 Y94.850 E5.21372
G1 X95.502 Y94.562 E5.24798
G1 X95.610 Y94.140 E5.29977
G1 X95.748 Y93.847 E5.33821
G1 X96.004 Y93.494 E5.39004
G1 X96.190 Y93.320 E5.42027
G1 X96.181 Y93.310 E5.42183
G1 X96.609 Y93.038 E5.48195
G1 X96.910 Y92.919 E5.52039
G1 X97.373 Y92.831 E5.57640 F1200.000
G1 X97.879 Y92.863 E5.63662
G1 X98.361 Y93.020 E5.69685
G1 X98.760 Y93.272 E5.75287
G1 X98.996 Y93.494 E5.79131
G1 X99.252 Y93.847 E5.84314
G1 X99.390 Y94.140 E5.88158
G1 X99.498 Y94.562 E5.93337
G1 X99.513 Y94.790 E5.96050
G1 X98.801 Y94.850 F7800.000
G1 X98.790 Y95.026 E5.98141 F1200.000
G1 X98.715 Y95.317 E6.01717
G1 X98.635 Y95.488 E6.03958
G1 X98.457 Y95.732 E6.07536
G1 X98.320 Y95.861 E6.09777
G1 X98.066 Y96.022 E6.13354
G1 X97.890 Y96.092 E6.15595
G1 X97.582 Y96.151 E6.19323
G1 X97.256 Y96.130 E6.23202
G1 X96.945 Y96.029 E6.27082
G1 X96.680 Y95.861 E6.30811
G1 X96.543 Y95.732 E6.33051
G1 X96.365 Y95.488 E6.36629
G1 X96.285 Y95.317 E6.38870
G1 X96.210 Y95.026 E6.42447
G1 X96.210 Y94.674 E6.46619
G1 X96.285 Y94.383 E6.50196
G1 X96.365 Y94.212 E6.52436
G1 X96.543 Y93.968 E6.56014
G1 X96.680 Y93.839 E6.58255
G1 X96.934 Y93.678 E6.61832
G1 X97.110 Y93.608 E6.64073
G1 X97.418 Y93.549 E6.67801 F1200.000
G1 X97.744 Y93.570 E6.71680
G1 X98.055 Y93.671 E6.75560
G1 X98.320 Y93.839 E6.79289
G1 X98.457 Y93.968 E6.81530
G1 X98.635 Y94.212 E6.85108
G1 X98.715 Y94.383 E6.87348
G1 X98.790 Y94.674 E6.90925
G1 X98.797 Y94.790 E6.92303
G1 X98.951 Y94.941 F7800.000
G1 E4.92303 F2400.00000
G92 E0
G1 Z0.600 F7800.000
G1 X95.833 Y95.766 F7800.000
G1 X93.858 Y95.907 F7800.000
G1 X93.200 Y95.525 F7800.000
G1 X91.550 Y95.226 F7800.000
G1 X91.550 Y97.800 F7800.000
G1 X91.436 Y97.686 F7800.000
G1 Z0.400 F7800.000
G1 E2.00000 F2400.00000
G1 X128.564 Y97.686 E6.40955 F1200.000
G1 X128.564 Y122.314 E9.33454
G1 X103.936 Y122.314 E12.25952
G1 X103.936 Y109.814 E13.74409
G1 X91.436 Y109.814 E15.22865
G1 X91.436 Y97.746 E16.66195
G1 X92.150 Y98.400 F7800.000
G1 X127.850 Y98.400 E20.90187 F1200.000
G1 X127.850 Y121.600 E23.65722
G1 X104.650 Y121.600 E26.41257
G1 X104.650 Y109.100 E27.89714
G1 X92.150 Y109.100 E29.38170
G1 X92.150 Y98.460 E30.64536
G1 X92.150 Y98.000 F7800.000
G1 X89.652 Y102.027 F7800.000
G1 X89.885 Y102.196 E30.67962 F1200.000
G1 X90.096 Y102.394 E30.71389
G1 X90.373 Y102.775 E30.76990
G1 X90.559 Y103.247 E30.83013
G1 X90.619 Y103.715 E30.88614
G1 X90.598 Y104.038 E30.92458
G1 X90.490 Y104.460 E30.97638
G1 X90.352 Y104.753 E31.01483
G1 X90.096 Y105.106 E31.06663
G1 X89.860 Y105.328 E31.10509
G1 X89.491 Y105.561 E31.15686
G1 X89.191 Y105.681 E31.19530
G1 X88.727 Y105.769 E31.25135
G1 X88.256 Y105.739 E31.30734
G1 X87.943 Y105.659 E31.34581
G1 X87.548 Y105.473 E31.39762
G1 X87.315 Y105.304 E31.43187
G1 X87.104 Y105.106 E31.46614
G1 X86.827 Y104.725 E31.52215
G1 X86.641 Y104.253 E31.58238
G1 X86.577 Y103.750 E31.64260
G1 X86.636 Y103.282 E31.69862
G1 X86.725 Y103.008 E31.73287
G1 X86.848 Y102.747 E31.76713
G1 X87.077 Y102.419 E31.81463
G1 X87.340 Y102.172 E31.85748
G1 X87.709 Y101.939 E31.90924
G1 X88.009 Y101.819 E31.94769
G1 X88.473 Y101.731 E32.00374 F1200.000
G1 X88.944 Y101.761 E32.05973
G1 X89.257 Y101.841 E32.09820
G1 X89.598 Y102.001 E32.14287
G1 X89.287 Y102.644 F7800.000
G1 X89.557 Y102.868 E32.18460 F1200.000
G1 X89.742 Y103.122 E32.22188
G1 X89.862 Y103.426 E32.26068
G1 X89.902 Y103.737 E32.29796
G1 X89.890 Y103.926 E32.32037
G1 X89.815 Y104.217 E32.35614
G1 X89.735 Y104.388 E32.37855
G1 X89.557 Y104.632 E32.41432
G1 X89.420 Y104.761 E32.43673
G1 X89.166 Y104.922 E32.47249
G1 X88.990 Y104.992 E32.49490
G1 X88.682 Y105.051 E32.53219
G1 X88.369 Y105.031 E32.56947
G1 X88.186 Y104.984 E32.59188
G1 X87.913 Y104.856 E32.62766
G1 X87.643 Y104.632 E32.66938
G1 X87.458 Y104.378 E32.70667
G1 X87.338 Y104.074 E32.74547
G1 X87.297 Y103.750 E32.78426
G1 X87.336 Y103.439 E32.82154
G1 X87.391 Y103.271 E32.84244
G1 X87.465 Y103.112 E32.86335
G1 X87.643 Y102.868 E32.89912
G1 X87.780 Y102.739 E32.92154
G1 X88.034 Y102.578 E32.95729
G1 X88.210 Y102.508 E32.97970
G1 X88.518 Y102.449 E33.01700 F1200.000
G1 X88.831 Y102.469 E33.05427
G1 X89.014 Y102.516 E33.07669
G1 X89.232 Y102.619 E33.10533
G1 X89.605 Y102.495 F7800.000
G1 X87.114 Y99.336 F7800.000
G1 X86.114 Y99.336 E33.22410 F1200.000
G1 X86.114 Y92.364 E34.05209
G1 X93.086 Y92.364 E34.88008
G1 X93.086 Y93.364 E34.99885
G1 X95.485 Y93.364 E35.28382
G1 X95.915 Y93.008 E35.35013
G1 X96.146 Y93.270 E35.39164
G1 X95.941 Y92.987 E35.43321
G1 X96.314 Y92.678 E35.49082
G1 X96.314 Y92.364 E35.52804
G1 X103.286 Y92.364 E36.35604
G1 X103.286 Y93.364 E36.47480
G1 X106.514 Y93.364 E36.85821
G1 X106.514 Y92.364 E36.97698
G1 X113.486 Y92.364 E37.80497
G1 X113.486 Y93.364 E37.92374
G1 X116.714 Y93.364 E38.30715
G1 X116.714 Y92.364 E38.42591
G1 X123.686 Y92.364 E39.25391
G1 X123.686 Y92.678 E39.29113
G1 X124.059 Y92.987 E39.34874
G1 X123.854 Y93.270 E39.39029
G1 X124.085 Y93.008 E39.43178
G1 X124.515 Y93.364 E39.49808
G1 X126.914 Y93.364 E39.78305
G1 X126.914 Y92.364 E39.90182
G1 X133.886 Y92.364 E40.72981
G1 X133.886 Y99.336 E41.55780
G1 X132.886 Y99.336 E41.67657
G1 X132.886 Y101.735 E41.96156
G1 X133.573 Y102.564 E42.08939
G1 X133.886 Y102.564 E42.12659
G1 X133.886 Y109.536 E42.95458
G1 X132.886 Y109.536 E43.07334
G1 X132.886 Y112.764 E43.45676
G1 X133.886 Y112.764 E43.57552
G1 X133.886 Y119.736 E44.40351
G1 X132.886 Y119.736 E44.52228
G1 X132.886 Y122.964 E44.90569
G1 X133.886 Y122.964 E45.02446
G1 X133.886 Y127.636 E45.57929
G1 X126.914 Y127.636 E46.40728
G1 X126.914 Y126.636 E46.52605
G1 X124.515 Y126.636 E46.81104
G1 X124.085 Y126.992 E46.87731
G1 X123.857 Y126.734 E46.91823
G1 X124.060 Y127.013 E46.95921
G1 X123.686 Y127.323 E47.01690
G1 X123.686 Y127.636 E47.05410
G1 X116.714 Y127.636 E47.88209
G1 X116.714 Y126.636 E48.00086
G1 X113.486 Y126.636 E48.38427
G1 X113.486 Y127.636 E48.50303
G1 X106.514 Y127.636 E49.33103
G1 X106.514 Y126.636 E49.44979
G1 X103.286 Y126.636 E49.83320
G1 X103.286 Y127.636 E49.95197
G1 X98.614 Y127.636 E50.50680
G1 X98.614 Y122.964 E51.06163
G1 X99.614 Y122.964 E51.18040
G1 X99.614 Y119.736 E51.56381
G1 X98.614 Y119.736 E51.68258
G1 X98.614 Y115.136 E52.22890
G1 X96.314 Y115.136 E52.50206
G1 X96.314 Y114.136 E52.62082
G1 X93.086 Y114.136 E53.00423
G1 X93.086 Y115.136 E53.12300
G1 X86.114 Y115.136 E53.95099
G1 X86.114 Y112.764 E54.23266
G1 X87.114 Y112.764 E54.35143
G1 X87.114 Y109.536 E54.73484
G1 X86.114 Y109.536 E54.85361
G1 X86.114 Y102.564 E55.68160
G1 X86.428 Y102.564 E55.71883
G1 X87.114 Y101.735 E55.84665
G1 X87.114 Y99.396 E56.12450
G1 X86.400 Y100.050 F7800.000
G1 X85.400 Y100.050 E56.24326 F1200.000
G1 X85.400 Y91.650 E57.24089
G1 X93.800 Y91.650 E58.23852
G1 X93.800 Y92.650 E58.35728
G1 X95.228 Y92.650 E58.52687
G1 X95.600 Y92.342 E58.58425
G1 X95.600 Y91.650 E58.66641
G1 X104.000 Y91.650 E59.66404
G1 X104.000 Y92.650 E59.78281
G1 X105.800 Y92.650 E59.99658
G1 X105.800 Y91.650 E60.11535
G1 X114.200 Y91.650 E61.11298
G1 X114.200 Y92.650 E61.23174
G1 X116.000 Y92.650 E61.44552
G1 X116.000 Y91.650 E61.56428
G1 X124.400 Y91.650 E62.56191
G1 X124.400 Y92.342 E62.64408
G1 X124.772 Y92.650 E62.70145
G1 X126.200 Y92.650 E62.87104
G1 X126.200 Y91.650 E62.98981
G1 X134.600 Y91.650 E63.98744
G1 X134.600 Y100.050 E64.98506
G1 X133.600 Y100.050 E65.10383
G1 X133.600 Y101.478 E65.27343
G1 X133.908 Y101.850 E65.33081
