; generated by Slic3r 1.2.9 on 2016-04-03 at 13:00:58

; external perimeters extrusion width = 0.40mm
; perimeters extrusion width = 0.67mm
; infill extrusion width = 0.67mm
; solid infill extrusion width = 0.67mm
; top infill extrusion width = 0.67mm

M190 S60 ; set bed temperature
M104 S210 ; set temperature
G28 ; home all axes
G1 Z5 F5000 ; lift nozzle

M109 S210 ; wait for temperature to be reached
G21 ; set units to millimeters
G90 ; use absolute coordinates
M82 ; use absolute distances for extrusion
G92 E0
M106 S255
G1 E-2.00000 F2400.00000
G92 E0
G1 Z0.200 F7800.000
G1 Z0.400 F7800.000
G1 Z0.600 F7800.000
G1 X77.840 Y67.532 F7800.000
G1 Z0.400 F7800.000
G1 E2.00000 F2400.00000
G1 X79.651 Y65.621 E2.31268 F1200.000
G1 X81.949 Y64.337 E2.62536
G1 X85.000 Y63.786 E2.99355
G1 X135.000 Y63.786 E8.93180
G1 X137.603 Y64.184 E9.24448
G1 X139.968 Y65.340 E9.55716 F1200.000
G1 X141.879 Y67.151 E9.86984
G1 X143.163 Y69.449 E10.18252
G1 X143.714 Y72.500 E10.55071
G1 X143.714 Y147.500 E19.45809
G1 X143.316 Y150.103 E19.77077
G1 X142.160 Y152.468 E20.08345
G1 X140.349 Y154.379 E20.39613
G1 X138.051 Y155.663 E20.70881
G1 X135.000 Y156.214 E21.07700
G1 X85.000 Y156.214 E27.01525
G1 X82.397 Y155.816 E27.32793
G1 X80.032 Y154.660 E27.64061
G1 X78.121 Y152.849 E27.95329
G1 X76.837 Y150.551 E28.26597
G1 X76.286 Y147.500 E28.63416
G1 X76.286 Y72.500 E37.54154
G1 X76.684 Y69.897 E37.85422
G1 X77.814 Y67.586 E38.15977
G1 E36.15977 F2400.00000
G92 E0
G1 Z0.600 F7800.000
G1 X98.802 Y143.887 F7800.000
G1 Z0.400 F7800.000
G1 E2.00000 F2400.00000
G1 X98.790 Y144.076 E2.02241 F1200.000
G1 X98.715 Y144.367 E2.05817
G1 X98.635 Y144.538 E2.08058
G1 X98.457 Y144.782 E2.11636
G1 X98.320 Y144.911 E2.13877
G1 X98.066 Y145.072 E2.17453
G1 X97.890 Y145.142 E2.19694
G1 X97.582 Y145.201 E2.23423
G1 X97.269 Y145.181 E2.27150
G1 X97.086 Y145.134 E2.29392
G1 X96.813 Y145.006 E2.32968
G1 X96.671 Y144.902 E2.35059
G1 X96.543 Y144.782 E2.37151
G1 X96.358 Y144.528 E2.40879
G1 X96.238 Y144.224 E2.44759
G1 X96.198 Y143.913 E2.48487
G1 X96.210 Y143.724 E2.50727
G1 X96.285 Y143.433 E2.54304
G1 X96.365 Y143.262 E2.56545
G1 X96.543 Y143.018 E2.60122
G1 X96.680 Y142.889 E2.62364
G1 X96.934 Y142.728 E2.65940
G1 X97.110 Y142.658 E2.68181
G1 X97.418 Y142.599 E2.71910 F1200.000
G1 X97.731 Y142.619 E2.75637
G1 X97.914 Y142.666 E2.77879
G1 X98.187 Y142.794 E2.81455
G1 X98.457 Y143.018 E2.85629
G1 X98.642 Y143.272 E2.89358
G1 X98.762 Y143.576 E2.93237
G1 X98.794 Y143.828 E2.96253
G1 X96.912 Y142.091 F7800.000
G1 X93.380 Y143.225 F7800.000
G1 X89.374 Y141.900 F7800.000
G1 X88.775 Y127.173 F7800.000
G1 X89.660 Y126.139 F7800.000
G1 X89.985 Y125.676 F7800.000
G1 X89.410 Y124.221 F7800.000
G1 X89.155 Y123.679 F7800.000
G1 X88.856 Y123.776 E2.99982 F1200.000
G1 X88.669 Y123.800 E3.02223
G1 X88.368 Y123.781 E3.05801
G1 X88.186 Y123.734 E3.08041
G1 X87.913 Y123.606 E3.11616
G1 X87.643 Y123.382 E3.15790
G1 X87.458 Y123.128 E3.19518
G1 X87.338 Y122.824 E3.23398
G1 X87.297 Y122.500 E3.27277
G1 X87.336 Y122.189 E3.31006
G1 X87.465 Y121.862 E3.35178
G1 X87.643 Y121.618 E3.38756
G1 X87.780 Y121.489 E3.40997
G1 X88.045 Y121.321 E3.44724
G1 X88.344 Y121.224 E3.48454
G1 X88.531 Y121.200 E3.50694 F1200.000
G1 X88.832 Y121.219 E3.54272
G1 X89.014 Y121.266 E3.56513
G1 X89.287 Y121.394 E3.60088
G1 X89.557 Y121.618 E3.64262
G1 X89.742 Y121.872 E3.67990
G1 X89.862 Y122.176 E3.71870
G1 X89.902 Y122.487 E3.75598
G1 X89.890 Y122.676 E3.77839
G1 X89.815 Y122.967 E3.81416
G1 X89.735 Y123.138 E3.83656
G1 X89.557 Y123.382 E3.87234
G1 X89.420 Y123.511 E3.89475
G1 X89.206 Y123.647 E3.92490
G1 E1.92490 F2400.00000
G92 E0
G1 Z0.600 F7800.000
G1 X88.719 Y120.602 F7800.000
G1 X89.275 Y111.300 F7800.000
G1 X89.275 Y101.621 F7800.000
G1 X88.964 Y101.347 F7800.000
G1 X88.719 Y99.398 F7800.000
G1 X88.682 Y98.801 F7800.000
G1 Z0.400 F7800.000
G1 E2.00000 F2400.00000
G1 X88.369 Y98.781 E2.03727 F1200.000
G1 X88.186 Y98.734 E2.05969
G1 X87.913 Y98.606 E2.09547
G1 X87.771 Y98.502 E2.11637
G1 X87.643 Y98.382 E2.13727
G1 X87.458 Y98.128 E2.17456
G1 X87.338 Y97.824 E2.21336
G1 X87.297 Y97.500 E2.25215
G1 X87.336 Y97.189 E2.28943
G1 X87.465 Y96.862 E2.33116
G1 X87.643 Y96.618 E2.36693
G1 X87.780 Y96.489 E2.38934
G1 X88.034 Y96.328 E2.42510
G1 X88.210 Y96.258 E2.44751
G1 X88.518 Y96.199 E2.48480 F1200.000
G1 X88.831 Y96.219 E2.52208
G1 X89.014 Y96.266 E2.54449
G1 X89.287 Y96.394 E2.58027
G1 X89.557 Y96.618 E2.62199
G1 X89.742 Y96.872 E2.65928
G1 X89.863 Y97.177 E2.69820
G1 X89.902 Y97.488 E2.73538
G1 X89.890 Y97.676 E2.75777
G1 X89.815 Y97.967 E2.79353
G1 X89.735 Y98.138 E2.81594
G1 X89.557 Y98.382 E2.85172
G1 X89.420 Y98.511 E2.87413
G1 X89.166 Y98.672 E2.90989
G1 X88.990 Y98.742 E2.93230
G1 X88.741 Y98.789 E2.96246
G1 E0.96246 F2400.00000
G92 E0
G1 Z0.600 F7800.000
G1 X88.956 Y95.632 F7800.000
G1 X88.775 Y88.767 F7800.000
G1 X89.275 Y80.700 F7800.000
G1 X88.976 Y79.050 F7800.000
G1 X91.550 Y79.050 F7800.000
G1 X92.150 Y79.650 F7800.000
G1 Z0.400 F7800.000
G1 E2.00000 F2400.00000
G1 X127.850 Y79.650 E6.23992 F1200.000
G1 X127.850 Y140.350 E13.44896
G1 X92.150 Y140.350 E17.68888
G1 X92.150 Y79.710 E24.89080
G1 X96.365 Y76.738 F7800.000
G1 X96.285 Y76.567 E24.91320 F1200.000
G1 X96.210 Y76.276 E24.94897
G1 X96.210 Y75.924 E24.99070
G1 X96.285 Y75.633 E25.02647
G1 X96.365 Y75.462 E25.04887
G1 X96.543 Y75.218 E25.08465
G1 X96.680 Y75.089 E25.10706
G1 X96.934 Y74.928 E25.14283
G1 X97.110 Y74.858 E25.16524
G1 X97.418 Y74.799 E25.20252 F1200.000
G1 X97.731 Y74.819 E25.23980
G1 X97.914 Y74.866 E25.26221
G1 X98.198 Y75.000 E25.29949
G1 X98.450 Y75.208 E25.33829
G1 X98.635 Y75.462 E25.37558
G1 X98.715 Y75.633 E25.39799
G1 X98.790 Y75.924 E25.43376
G1 X98.790 Y76.276 E25.47548
G1 X98.715 Y76.567 E25.51125
G1 X98.635 Y76.738 E25.53365
G1 X98.457 Y76.982 E25.56943
G1 X98.320 Y77.111 E25.59184
G1 X98.055 Y77.279 E25.62913
G1 X97.756 Y77.376 E25.66641
G1 X97.569 Y77.400 E25.68881
G1 X97.256 Y77.380 E25.72609
G1 X96.945 Y77.279 E25.76489
G1 X96.680 Y77.111 E25.80218
G1 X96.543 Y76.982 E25.82459
G1 X96.401 Y76.787 E25.85324
G1 E23.85324 F2400.00000
G92 E0
G1 Z0.600 F7800.000
G1 X99.402 Y76.100 F7800.000
G1 X108.533 Y76.275 F7800.000
G1 X118.098 Y76.528 F7800.000
G1 X118.219 Y76.250 F7800.000
G1 X120.598 Y76.100 F7800.000
G1 X121.199 Y76.100 F7800.000
G1 Z0.400 F7800.000
G1 E2.00000 F2400.00000
G1 X121.210 Y75.924 E2.02090 F1200.000
G1 X121.285 Y75.633 E2.05667
G1 X121.365 Y75.462 E2.07908
G1 X121.543 Y75.218 E2.11486
G1 X121.680 Y75.089 E2.13726
G1 X121.934 Y74.928 E2.17304
G1 X122.110 Y74.858 E2.19544
G1 X122.418 Y74.799 E2.23273 F1200.000
G1 X122.744 Y74.820 E2.27152
G1 X123.055 Y74.921 E2.31032
G1 X123.320 Y75.089 E2.34760
G1 X123.457 Y75.218 E2.37001
G1 X123.635 Y75.462 E2.40579
G1 X123.715 Y75.633 E2.42819
G1 X123.790 Y75.924 E2.46396
G1 X123.790 Y76.276 E2.50569
G1 X123.715 Y76.567 E2.54145
G1 X123.635 Y76.738 E2.56386
G1 X123.457 Y76.982 E2.59964
G1 X123.320 Y77.111 E2.62205
G1 X123.066 Y77.272 E2.65782
G1 X122.890 Y77.342 E2.68023
G1 X122.582 Y77.401 E2.71751
G1 X122.256 Y77.380 E2.75630
G1 X121.945 Y77.279 E2.79510
G1 X121.680 Y77.111 E2.83239
G1 X121.543 Y76.982 E2.85479
G1 X121.365 Y76.738 E2.89057
G1 X121.285 Y76.567 E2.91298
G1 X121.210 Y76.276 E2.94875
G1 X121.203 Y76.160 E2.96252
G1 X123.088 Y77.909 F7800.000
G1 X126.391 Y76.964 F7800.000
G1 X128.943 Y76.297 F7800.000
G1 X131.225 Y88.767 F7800.000
G1 X130.342 Y93.859 F7800.000
G1 X130.013 Y94.326 F7800.000
G1 X130.590 Y95.779 F7800.000
G1 X130.834 Y96.328 F7800.000
G1 X131.010 Y96.258 E2.98493 F1200.000
G1 X131.318 Y96.199 E3.02223 F1200.000
G1 X131.631 Y96.219 E3.05949
G1 X131.814 Y96.266 E3.08191
G1 X132.087 Y96.394 E3.11768
G1 X132.229 Y96.498 E3.13858
G1 X132.357 Y96.618 E3.15950
G1 X132.542 Y96.872 E3.19679
G1 X132.662 Y97.176 E3.23558
G1 X132.702 Y97.487 E3.27286
G1 X132.690 Y97.676 E3.29527
G1 X132.615 Y97.967 E3.33103
G1 X132.535 Y98.138 E3.35344
G1 X132.357 Y98.382 E3.38922
G1 X132.220 Y98.511 E3.41163
G1 X131.966 Y98.672 E3.44739
G1 X131.790 Y98.742 E3.46980
G1 X131.482 Y98.801 E3.50709
G1 X131.169 Y98.781 E3.54436
G1 X130.986 Y98.734 E3.56678
G1 X130.713 Y98.606 E3.60255
G1 X130.571 Y98.502 E3.62345
G1 X130.443 Y98.382 E3.64437
G1 X130.258 Y98.128 E3.68166
G1 X130.138 Y97.824 E3.72045
G1 X130.098 Y97.513 E3.75773
G1 X130.110 Y97.324 E3.78014
G1 X130.185 Y97.033 E3.81590
G1 X130.265 Y96.862 E3.83831
G1 X130.443 Y96.618 E3.87409
G1 X130.580 Y96.489 E3.89650
G1 X130.784 Y96.360 E3.92513
G1 E1.92513 F2400.00000
G92 E0
G1 Z0.600 F7800.000
G1 X131.281 Y99.398 F7800.000
G1 X131.225 Y106.233 F7800.000
G1 X131.225 Y116.433 F7800.000
G1 X131.281 Y117.883 F7800.000
G1 X131.281 Y120.602 F7800.000
G1 X131.331 Y121.200 F7800.000
G1 Z0.400 F7800.000
G1 E2.00000 F2400.00000
G1 X131.632 Y121.219 E2.03577 F1200.000
G1 X131.802 Y121.263 E2.05669
G1 X131.966 Y121.328 E2.07756
G1 X132.220 Y121.489 E2.11334
G1 X132.357 Y121.618 E2.13576
G1 X132.542 Y121.872 E2.17304
G1 X132.662 Y122.176 E2.21184
G1 X132.702 Y122.487 E2.24912
G1 X132.690 Y122.676 E2.27152
G1 X132.615 Y122.967 E2.30729
G1 X132.535 Y123.138 E2.32970
G1 X132.357 Y123.382 E2.36547
G1 X132.220 Y123.511 E2.38789
G1 X131.955 Y123.679 E2.42517
G1 X131.656 Y123.776 E2.46247
G1 X131.469 Y123.800 E2.48487
G1 X131.168 Y123.781 E2.52064
G1 X130.998 Y123.737 E2.54155
G1 X130.834 Y123.672 E2.56243
G1 X130.580 Y123.511 E2.59821
G1 X130.443 Y123.382 E2.62062
G1 X130.258 Y123.128 E2.65791
G1 X130.138 Y122.824 E2.69671
G1 X130.098 Y122.513 E2.73398
G1 X130.110 Y122.324 E2.75639
G1 X130.185 Y122.033 E2.79216
G1 X130.265 Y121.862 E2.81456
G1 X130.443 Y121.618 E2.85034
G1 X130.580 Y121.489 E2.87276
G1 X130.845 Y121.321 E2.91003
G1 X131.144 Y121.224 E2.94733
G1 X131.271 Y121.208 E2.96261 F1200.000
G1 E0.96261 F2400.00000
G92 E0
G1 Z0.600 F7800.000
G1 X130.590 Y124.221 F7800.000
G1 X128.450 Y143.524 F7800.000
G1 X125.045 Y142.143 F7800.000
G1 X124.194 Y141.770 F7800.000
G1 X123.864 Y141.666 F7800.000
G1 X123.625 Y141.605 F7800.000
G1 X123.310 Y142.179 F7800.000
G1 X122.914 Y142.666 F7800.000
G1 Z0.400 F7800.000
G1 E2.00000 F2400.00000
G1 X123.187 Y142.794 E2.03576 F1200.000
G1 X123.329 Y142.898 E2.05667
G1 X123.457 Y143.018 E2.07759
G1 X123.642 Y143.272 E2.11487
G1 X123.762 Y143.576 E2.15367
G1 X123.802 Y143.887 E2.19095
G1 X123.790 Y144.076 E2.21335
G1 X123.715 Y144.367 E2.24912
G1 X123.635 Y144.538 E2.27153
G1 X123.457 Y144.782 E2.30730
G1 X123.320 Y144.911 E2.32972
G1 X123.066 Y145.072 E2.36548
G1 X122.890 Y145.142 E2.38789
G1 X122.582 Y145.201 E2.42518
G1 X122.269 Y145.181 E2.46245
G1 X122.086 Y145.134 E2.48487
G1 X121.813 Y145.006 E2.52063
G1 X121.671 Y144.902 E2.54154
G1 X121.543 Y144.782 E2.56245
G1 X121.358 Y144.528 E2.59974
G1 X121.238 Y144.224 E2.63854
G1 X121.198 Y143.913 E2.67581
G1 X121.210 Y143.724 E2.69822
G1 X121.285 Y143.433 E2.73399
G1 X121.365 Y143.262 E2.75640
G1 X121.543 Y143.018 E2.79217
G1 X121.680 Y142.889 E2.81459
G1 X121.934 Y142.728 E2.85034
G1 X122.110 Y142.658 E2.87275
G1 X122.418 Y142.599 E2.91005 F1200.000
G1 X122.731 Y142.619 E2.94732
G1 X122.856 Y142.651 E2.96261
G1 X126.200 Y146.100 F7800.000
G1 X124.772 Y146.100 E3.13221 F1200.000
G1 X124.400 Y146.408 E3.18959
G1 X124.400 Y147.100 E3.27174
G1 X116.000 Y147.100 E4.26937
G1 X116.000 Y146.100 E4.38813
G1 X114.200 Y146.100 E4.60191
G1 X114.200 Y147.100 E4.72067
G1 X105.800 Y147.100 E5.71830
G1 X105.800 Y146.100 E5.83707
G1 X104.000 Y146.100 E6.05084
G1 X104.000 Y147.100 E6.16961
G1 X95.600 Y147.100 E7.16724
G1 X95.600 Y146.408 E7.24939
G1 X95.228 Y146.100 E7.30677
G1 X93.800 Y146.100 E7.47637
G1 X93.800 Y147.100 E7.59513
G1 X85.400 Y147.100 E8.59276
G1 X85.400 Y144.300 E8.92530
G1 X86.400 Y144.300 E9.04407
G1 X86.400 Y142.500 E9.25784
G1 X85.400 Y142.500 E9.37661
G1 X85.400 Y134.100 E10.37424
G1 X86.400 Y134.100 E10.49300
G1 X86.400 Y132.300 E10.70678
G1 X85.400 Y132.300 E10.82554
G1 X85.400 Y123.900 E11.82317
G1 X85.730 Y123.900 E11.86237
G1 X85.527 Y122.911 E11.98233
G1 X85.476 Y122.100 E12.07879
G1 X85.400 Y122.100 E12.08778
G1 X85.400 Y113.700 E13.08540
G1 X86.400 Y113.700 E13.20417
G1 X86.400 Y111.900 E13.41795
G1 X85.400 Y111.900 E13.53671
G1 X85.400 Y103.500 E14.53434
G1 X86.400 Y103.500 E14.65310
G1 X86.400 Y101.700 E14.86688
G1 X85.400 Y101.700 E14.98565
G1 X85.400 Y93.300 E15.98327
G1 X86.400 Y93.300 E16.10204
G1 X86.400 Y91.500 E16.31582
G1 X85.400 Y91.500 E16.43458
G1 X85.400 Y83.100 E17.43221
G1 X86.400 Y83.100 E17.55097
G1 X86.400 Y81.300 E17.76475
G1 X85.400 Y81.300 E17.88352
G1 X85.400 Y72.900 E18.88114
G1 X93.800 Y72.900 E19.87877
G1 X93.800 Y73.900 E19.99754
G1 X95.228 Y73.900 E20.16713
G1 X95.600 Y73.592 E20.22451
G1 X95.600 Y72.900 E20.30667
G1 X104.000 Y72.900 E21.30429
G1 X104.000 Y73.900 E21.42306
G1 X105.800 Y73.900 E21.63684
G1 X105.800 Y72.900 E21.75560
G1 X114.200 Y72.900 E22.75323
G1 X114.200 Y73.900 E22.87199
G1 X116.000 Y73.900 E23.08577
G1 X116.000 Y72.900 E23.20454
G1 X124.400 Y72.900 E24.20216
G1 X124.400 Y73.592 E24.28432
G1 X124.772 Y73.900 E24.34170
G1 X126.200 Y73.900 E24.51129
G1 X126.200 Y72.900 E24.63006
G1 X134.600 Y72.900 E25.62769
G1 X134.600 Y81.300 E26.62531
G1 X133.600 Y81.300 E26.74408
G1 X133.600 Y83.100 E26.95786
G1 X134.600 Y83.100 E27.07662
G1 X134.600 Y91.500 E28.07425
G1 X133.600 Y91.500 E28.19301
G1 X133.600 Y93.300 E28.40679
G1 X134.600 Y93.300 E28.52556
G1 X134.600 Y101.700 E29.52318
G1 X133.600 Y101.700 E29.64195
G1 X133.600 Y103.500 E29.85573
G1 X134.600 Y103.500 E29.97449
G1 X134.600 Y111.900 E30.97212
G1 X133.600 Y111.900 E31.09088
G1 X133.600 Y113.700 E31.30466
G1 X134.600 Y113.700 E31.42343
G1 X134.600 Y122.100 E32.42105
G1 X134.524 Y122.100 E32.43003
G1 X134.473 Y122.911 E32.52650
G1 X134.270 Y123.900 E32.64646
G1 X134.600 Y123.900 E32.68564
G1 X134.600 Y132.300 E33.68327
G1 X133.600 Y132.300 E33.80203
G1 X133.600 Y134.100 E34.01581
G1 X134.600 Y134.100 E34.13458
G1 X134.600 Y142.500 E35.13220
G1 X133.600 Y142.500 E35.25097
G1 X133.600 Y144.300 E35.46475
G1 X134.600 Y144.300 E35.58351
G1 X134.600 Y147.100 E35.91605
G1 X126.200 Y147.100 E36.91368
G1 X126.200 Y146.160 E37.02532
G1 X124.215 Y144.038 F7800.000
G1 X125.841 Y145.664 E37.30026 F1192.212
G1 X124.825 Y145.664 E37.42178
G1 X123.930 Y144.770 E37.57302
G1 X123.431 Y145.288 E37.65896
G1 X124.218 Y146.074 E37.79188
G1 X123.792 Y146.664 E37.87892
G1 X122.719 Y145.592 E38.06028
G1 E36.06028 F2400.00000
G92 E0
G1 Z0.600 F7800.000
G1 X120.658 Y144.373 F7800.000
G1 X118.219 Y143.750 F7800.000
G1 X113.600 Y143.225 F7800.000
G1 X112.600 Y145.500 F7800.000
G1 X113.600 Y146.500 F7800.000
G1 X102.444 Y146.664 F7800.000
G1 Z0.400 F7800.000
G1 E2.00000 F2400.00000
G1 X99.202 Y143.423 E2.54798 F1192.212
G1 X99.130 Y144.368 E2.66124
G1 X101.427 Y146.664 E3.04950
G1 X100.410 Y146.664 E3.17102
G1 X98.756 Y145.010 E3.45075
G1 X98.177 Y145.448 E3.53750
G1 X99.394 Y146.664 E3.74317
G1 X98.377 Y146.664 E3.86469
G1 X97.345 Y145.632 E4.03926
G1 X96.036 Y146.356 F7800.000
G1 X96.344 Y146.664 E4.09144 F1192.212
G1 X97.361 Y146.664 E4.21297
G1 X85.836 Y135.139 E6.16138
G1 X85.836 Y136.156 E6.28290
G1 X95.344 Y145.664 E7.89040
G1 X94.328 Y145.664 F7800.000
G1 X85.836 Y137.172 E9.32605 F1192.212
G1 X85.836 Y138.189 E9.44757
G1 X93.364 Y145.718 E10.72039
G1 X93.294 Y146.664 E10.83385
G1 X85.836 Y139.206 E12.09483
G1 X85.836 Y140.222 E12.21636
G1 X92.278 Y146.664 E13.30548
G1 X91.261 Y146.664 E13.42700
G1 X85.836 Y141.239 E14.34427
G1 X86.836 Y143.255 F7800.000
G1 X90.245 Y146.664 E14.92062 F1192.212
G1 X89.228 Y146.664 E15.04215
G1 X86.836 Y144.272 E15.44664
G1 X86.283 Y144.736 F7800.000
G1 X88.212 Y146.664 E15.77275 F1192.212
G1 X87.195 Y146.664 E15.89427
G1 X85.836 Y145.305 E16.12410
G1 X85.836 Y146.322 E16.24563
G1 X86.178 Y146.664 E16.30360
G1 X91.714 Y140.002 F7800.000
G1 X86.248 Y134.536 E17.22769 F1192.212
G1 X86.836 Y134.106 F7800.000
G1 X91.714 Y138.985 E18.05251 F1192.212
G1 X91.714 Y137.968 E18.17403
G1 X86.836 Y133.090 E18.99885
G1 X86.836 Y132.073 E19.12037
G1 X91.714 Y136.952 E19.94519
G1 X91.714 Y135.935 E20.06671
G1 X85.836 Y130.056 E21.06059
G1 X85.836 Y131.073 E21.18211
G1 X86.627 Y131.864 E21.31592
