; generated by Slic3r 1.2.9 on 2016-04-09 at 08:55:20

; external perimeters extrusion width = 0.40mm
; perimeters extrusion width = 0.67mm
; infill extrusion width = 0.67mm
; solid infill extrusion width = 0.67mm
; top infill extrusion width = 0.67mm

M190 S60 ; set bed temperature
M104 S210 ; set temperature
G28 ; home all axes
G1 Z5 F5000 ; lift nozzle

M109 S210 ; wait for temperature to be reached
G21 ; set units to millimeters
G90 ; use absolute coordinates
M82 ; use absolute distances for extrusion
G92 E0
M106 S255
G1 E-2.00000 F2400.00000
G92 E0
G1 Z0.200 F7800.000
G1 Z0.400 F7800.000
G1 Z0.600 F7800.000
G1 X79.651 Y84.371 F7800.000
G1 Z0.400 F7800.000
G1 E2.00000 F2400.00000
G1 X81.949 Y83.087 E2.31268 F1200.000
G1 X85.000 Y82.536 E2.68087
G1 X135.000 Y82.536 E8.61913
G1 X137.603 Y82.934 E8.93180
G1 X139.968 Y84.090 E9.24448 F1200.000
G1 X141.879 Y85.901 E9.55716
G1 X143.163 Y88.199 E9.86984
G1 X143.714 Y91.250 E10.23803
G1 X143.714 Y116.250 E13.20716
G1 X143.316 Y118.853 E13.51984
G1 X142.160 Y121.218 E13.83251
G1 X141.162 Y122.412 E14.01735
G1 X128.662 Y134.912 E16.11684
G1 X126.540 Y136.471 E16.42952
G1 X124.050 Y137.325 E16.74219
G1 X122.500 Y137.464 E16.92703
G1 X85.000 Y137.464 E21.38072
G1 X82.397 Y137.066 E21.69340
G1 X80.032 Y135.910 E22.00608
G1 X78.121 Y134.099 E22.31876
G1 X76.837 Y131.801 E22.63143
G1 X76.286 Y128.750 E22.99962
G1 X76.286 Y91.250 E27.45332
G1 X76.684 Y88.647 E27.76600
G1 X77.840 Y86.282 E28.07867
G1 X79.609 Y84.415 E28.38423
G1 E26.38423 F2400.00000
G92 E0
G1 Z0.600 F7800.000
G1 X98.457 Y126.032 F7800.000
G1 Z0.400 F7800.000
G1 E2.00000 F2400.00000
G1 X98.320 Y126.161 E2.02242 F1200.000
G1 X98.066 Y126.322 E2.05817
G1 X97.890 Y126.392 E2.08058
G1 X97.582 Y126.451 E2.11788
G1 X97.269 Y126.431 E2.15514
G1 X97.086 Y126.384 E2.17756
G1 X96.813 Y126.256 E2.21333
G1 X96.543 Y126.032 E2.25507
G1 X96.358 Y125.778 E2.29235
G1 X96.238 Y125.474 E2.33115
G1 X96.198 Y125.163 E2.36843
G1 X96.210 Y124.974 E2.39084
G1 X96.285 Y124.683 E2.42660
G1 X96.365 Y124.512 E2.44901
G1 X96.543 Y124.268 E2.48478
G1 X96.680 Y124.139 E2.50720
G1 X96.934 Y123.978 E2.54296
G1 X97.110 Y123.908 E2.56537
G1 X97.418 Y123.849 E2.60266 F1200.000
G1 X97.731 Y123.869 E2.63993
G1 X97.914 Y123.916 E2.66235
G1 X98.187 Y124.044 E2.69811
G1 X98.329 Y124.148 E2.71902
G1 X98.457 Y124.268 E2.73994
G1 X98.642 Y124.522 E2.77722
G1 X98.762 Y124.826 E2.81602
G1 X98.802 Y125.137 E2.85330
G1 X98.790 Y125.326 E2.87570
G1 X98.715 Y125.617 E2.91147
G1 X98.635 Y125.788 E2.93388
G1 X98.493 Y125.983 E2.96253
G1 X98.512 Y126.212 F7800.000
G1 E0.96253 F2400.00000
G92 E0
G1 Z0.600 F7800.000
G1 X95.731 Y124.450 F7800.000
G1 X93.609 Y124.286 F7800.000
G1 X93.200 Y124.475 F7800.000
G1 X91.550 Y124.774 F7800.000
G1 X91.550 Y122.200 F7800.000
G1 X91.436 Y122.314 F7800.000
G1 Z0.400 F7800.000
G1 E2.00000 F2400.00000
G1 X91.436 Y97.686 E4.92499 F1200.000
G1 X128.564 Y97.686 E9.33454
G1 X128.564 Y109.814 E10.77496
G1 X116.064 Y109.814 E12.25952
G1 X116.064 Y122.314 E13.74409
G1 X91.496 Y122.314 E16.66195
G1 X92.150 Y121.600 F7800.000
G1 X92.150 Y98.400 E19.41730 F1200.000
G1 X127.850 Y98.400 E23.65722
G1 X127.850 Y109.100 E24.92801
G1 X115.350 Y109.100 E26.41257
G1 X115.350 Y121.600 E27.89714
G1 X92.210 Y121.600 E30.64536
G1 X91.750 Y121.600 F7800.000
G1 X89.121 Y105.694 F7800.000
G1 X88.727 Y105.769 E30.69299 F1200.000
G1 X88.256 Y105.739 E30.74898
G1 X87.943 Y105.659 E30.78745
G1 X87.548 Y105.473 E30.83925
G1 X87.315 Y105.304 E30.87351
G1 X87.104 Y105.106 E30.90777
G1 X86.827 Y104.725 E30.96378
G1 X86.641 Y104.253 E31.02402
G1 X86.577 Y103.750 E31.08424
G1 X86.636 Y103.282 E31.14025
G1 X86.725 Y103.008 E31.17450
G1 X86.848 Y102.747 E31.20876
G1 X87.077 Y102.419 E31.25626
G1 X87.340 Y102.172 E31.29911
G1 X87.709 Y101.939 E31.35088
G1 X88.009 Y101.819 E31.38932
G1 X88.473 Y101.731 E31.44537 F1200.000
G1 X88.944 Y101.761 E31.50136
G1 X89.257 Y101.841 E31.53983
G1 X89.652 Y102.027 E31.59163
G1 X89.885 Y102.196 E31.62589
G1 X90.096 Y102.394 E31.66016
G1 X90.373 Y102.775 E31.71617
G1 X90.559 Y103.247 E31.77640
G1 X90.619 Y103.715 E31.83241
G1 X90.598 Y104.038 E31.87085
G1 X90.490 Y104.460 E31.92265
G1 X90.352 Y104.753 E31.96110
G1 X90.096 Y105.106 E32.01290
G1 X89.860 Y105.328 E32.05136
G1 X89.491 Y105.561 E32.10313
G1 X89.180 Y105.683 E32.14285
G1 X88.987 Y104.992 F7800.000
G1 X88.682 Y105.051 E32.17978 F1200.000
G1 X88.369 Y105.031 E32.21706
G1 X88.186 Y104.984 E32.23948
G1 X87.913 Y104.856 E32.27525
G1 X87.643 Y104.632 E32.31698
G1 X87.458 Y104.378 E32.35426
G1 X87.338 Y104.074 E32.39306
G1 X87.297 Y103.750 E32.43185
G1 X87.336 Y103.439 E32.46913
G1 X87.465 Y103.112 E32.51086
G1 X87.643 Y102.868 E32.54663
G1 X87.780 Y102.739 E32.56905
G1 X88.034 Y102.578 E32.60480
G1 X88.210 Y102.508 E32.62721
G1 X88.518 Y102.449 E32.66451 F1200.000
G1 X88.831 Y102.469 E32.70178
G1 X89.014 Y102.516 E32.72420
G1 X89.287 Y102.644 E32.75997
G1 X89.557 Y102.868 E32.80170
G1 X89.742 Y103.122 E32.83898
G1 X89.862 Y103.426 E32.87778
G1 X89.902 Y103.737 E32.91506
G1 X89.890 Y103.926 E32.93747
G1 X89.815 Y104.217 E32.97324
G1 X89.735 Y104.388 E32.99564
G1 X89.557 Y104.632 E33.03142
G1 X89.420 Y104.761 E33.05383
G1 X89.166 Y104.922 E33.08959
G1 X89.043 Y104.971 E33.10523
G1 X88.903 Y105.292 F7800.000
G1 X90.139 Y102.632 F7800.000
G1 X88.797 Y97.307 F7800.000
G1 X94.303 Y96.222 F7800.000
G1 X95.099 Y96.681 F7800.000
G1 X95.461 Y96.847 F7800.000
G1 X95.700 Y96.941 F7800.000
G1 X96.288 Y96.316 F7800.000
G1 X96.240 Y96.428 F7800.000
G1 X96.004 Y96.206 E33.14367 F1200.000
G1 X95.748 Y95.853 E33.19550
G1 X95.610 Y95.560 E33.23394
G1 X95.502 Y95.138 E33.28573
G1 X95.484 Y94.850 E33.31999
G1 X95.502 Y94.562 E33.35425
G1 X95.610 Y94.140 E33.40604
G1 X95.748 Y93.847 E33.44448
G1 X96.004 Y93.494 E33.49631
G1 X96.190 Y93.320 E33.52654
G1 X96.181 Y93.310 E33.52810
G1 X96.609 Y93.038 E33.58822
G1 X96.910 Y92.919 E33.62666
G1 X97.373 Y92.831 E33.68267 F1200.000
G1 X97.879 Y92.863 E33.74289
G1 X98.361 Y93.020 E33.80312
G1 X98.760 Y93.272 E33.85914
G1 X98.996 Y93.494 E33.89758
G1 X99.252 Y93.847 E33.94941
G1 X99.390 Y94.140 E33.98785
G1 X99.498 Y94.562 E34.03964
G1 X99.516 Y94.850 E34.07390
G1 X99.498 Y95.138 E34.10816
G1 X99.390 Y95.560 E34.15995
G1 X99.252 Y95.853 E34.19839
G1 X98.996 Y96.206 E34.25022
G1 X98.760 Y96.428 E34.28866
G1 X98.391 Y96.662 E34.34047
G1 X98.090 Y96.781 E34.37891
G1 X97.627 Y96.869 E34.43492
G1 X97.121 Y96.837 E34.49514
G1 X96.639 Y96.680 E34.55537
G1 X96.291 Y96.460 E34.60426
G1 X96.680 Y95.861 F7800.000
G1 X96.543 Y95.732 E34.62667 F1200.000
G1 X96.365 Y95.488 E34.66245
G1 X96.285 Y95.317 E34.68485
G1 X96.210 Y95.026 E34.72062
G1 X96.210 Y94.674 E34.76234
G1 X96.285 Y94.383 E34.79811
G1 X96.365 Y94.212 E34.82052
G1 X96.543 Y93.968 E34.85630
G1 X96.680 Y93.839 E34.87870
G1 X96.934 Y93.678 E34.91448
G1 X97.110 Y93.608 E34.93688
G1 X97.418 Y93.549 E34.97417 F1200.000
G1 X97.744 Y93.570 E35.01296
G1 X98.055 Y93.671 E35.05176
G1 X98.320 Y93.839 E35.08904
G1 X98.457 Y93.968 E35.11145
G1 X98.635 Y94.212 E35.14723
G1 X98.715 Y94.383 E35.16963
G1 X98.790 Y94.674 E35.20540
G1 X98.790 Y95.026 E35.24713
G1 X98.715 Y95.317 E35.28290
G1 X98.635 Y95.488 E35.30530
G1 X98.457 Y95.732 E35.34108
G1 X98.320 Y95.861 E35.36349
G1 X98.066 Y96.022 E35.39926
G1 X97.890 Y96.092 E35.42167
G1 X97.582 Y96.151 E35.45895
G1 X97.256 Y96.130 E35.49774
G1 X96.945 Y96.029 E35.53654
G1 X96.731 Y95.893 E35.56670
G1 X96.503 Y95.927 F7800.000
G1 X120.484 Y94.850 F7800.000
G1 X120.502 Y94.562 E35.60096 F1200.000
G1 X120.610 Y94.140 E35.65275
G1 X120.748 Y93.847 E35.69119
G1 X121.004 Y93.494 E35.74302
G1 X121.240 Y93.272 E35.78146
G1 X121.609 Y93.038 E35.83327
G1 X121.910 Y92.919 E35.87171
G1 X122.373 Y92.831 E35.92773 F1200.000
G1 X122.879 Y92.863 E35.98794
G1 X123.361 Y93.020 E36.04817
G1 X123.819 Y93.310 E36.11250
G1 X123.810 Y93.320 E36.11406
G1 X123.996 Y93.494 E36.14429
G1 X124.252 Y93.847 E36.19612
G1 X124.390 Y94.140 E36.23456
G1 X124.498 Y94.562 E36.28635
G1 X124.516 Y94.850 E36.32061
G1 X124.498 Y95.138 E36.35487
G1 X124.390 Y95.560 E36.40666
G1 X124.252 Y95.853 E36.44510
G1 X123.996 Y96.206 E36.49693
G1 X123.760 Y96.428 E36.53537
G1 X123.391 Y96.662 E36.58718
G1 X123.090 Y96.781 E36.62562
G1 X122.627 Y96.869 E36.68163
G1 X122.121 Y96.837 E36.74185
G1 X121.639 Y96.680 E36.80208
G1 X121.240 Y96.428 E36.85810
G1 X121.004 Y96.206 E36.89654
G1 X120.748 Y95.853 E36.94837
G1 X120.610 Y95.560 E36.98681
G1 X120.502 Y95.138 E37.03860
G1 X120.487 Y94.910 E37.06573
G1 X121.199 Y94.850 F7800.000
G1 X121.210 Y94.674 E37.08664 F1200.000
G1 X121.285 Y94.383 E37.12240
G1 X121.365 Y94.212 E37.14481
G1 X121.543 Y93.968 E37.18059
G1 X121.680 Y93.839 E37.20300
G1 X121.934 Y93.678 E37.23877
G1 X122.110 Y93.608 E37.26118
G1 X122.418 Y93.549 E37.29846 F1200.000
G1 X122.744 Y93.570 E37.33725
G1 X123.055 Y93.671 E37.37605
G1 X123.320 Y93.839 E37.41334
G1 X123.457 Y93.968 E37.43574
G1 X123.635 Y94.212 E37.47152
G1 X123.715 Y94.383 E37.49393
G1 X123.790 Y94.674 E37.52970
G1 X123.790 Y95.026 E37.57142
G1 X123.715 Y95.317 E37.60719
G1 X123.635 Y95.488 E37.62959
G1 X123.457 Y95.732 E37.66537
G1 X123.320 Y95.861 E37.68778
G1 X123.066 Y96.022 E37.72355
G1 X122.890 Y96.092 E37.74596
G1 X122.582 Y96.151 E37.78324
G1 X122.256 Y96.130 E37.82203
G1 X121.945 Y96.029 E37.86083
G1 X121.680 Y95.861 E37.89812
G1 X121.543 Y95.732 E37.92053
G1 X121.365 Y95.488 E37.95631
G1 X121.285 Y95.317 E37.97871
G1 X121.210 Y95.026 E38.01448
G1 X121.203 Y94.910 E38.02826
G1 X121.049 Y94.759 F7800.000
G1 E36.02826 F2400.00000
G92 E0
G1 Z0.600 F7800.000
G1 X123.712 Y96.316 F7800.000
G1 X128.943 Y95.047 F7800.000
G1 X130.176 Y100.337 F7800.000
G1 X129.667 Y101.159 F7800.000
G1 X129.482 Y101.532 F7800.000
G1 X129.378 Y101.772 F7800.000
G1 X130.013 Y102.448 F7800.000
G1 X129.904 Y102.394 F7800.000
G1 Z0.400 F7800.000
G1 E2.00000 F2400.00000
G1 X130.140 Y102.172 E2.03847 F1200.000
G1 X130.509 Y101.939 E2.09023
G1 X130.809 Y101.819 E2.12868
G1 X131.273 Y101.731 E2.18472 F1200.000
G1 X131.743 Y101.761 E2.24070
G1 X132.057 Y101.841 E2.27918
G1 X132.452 Y102.027 E2.33096
G1 X132.685 Y102.196 E2.36521
G1 X132.922 Y102.418 E2.40376
G1 X133.173 Y102.775 E2.45561
G1 X133.359 Y103.247 E2.51584
G1 X133.419 Y103.715 E2.57184
G1 X133.398 Y104.038 E2.61028
G1 X133.290 Y104.460 E2.66207
G1 X133.152 Y104.753 E2.70051
G1 X132.896 Y105.106 E2.75233
G1 X132.660 Y105.328 E2.79080
G1 X132.291 Y105.561 E2.84257
G1 X131.991 Y105.681 E2.88101
G1 X131.527 Y105.769 E2.93705
G1 X131.057 Y105.739 E2.99304
G1 X130.743 Y105.659 E3.03151
G1 X130.348 Y105.473 E3.08329
G1 X130.115 Y105.304 E3.11754
G1 X129.904 Y105.106 E3.15184
G1 X129.627 Y104.725 E3.20787
G1 X129.441 Y104.253 E3.26809
G1 X129.381 Y103.785 E3.32409
G1 X129.402 Y103.462 E3.36253
G1 X129.510 Y103.040 E3.41432
G1 X129.648 Y102.747 E3.45276
G1 X129.869 Y102.442 E3.49746
G1 X130.443 Y102.868 F7800.000
G1 X130.580 Y102.739 E3.51987 F1200.000
G1 X130.834 Y102.578 E3.55563
G1 X131.010 Y102.508 E3.57804
G1 X131.318 Y102.449 E3.61533 F1200.000
G1 X131.631 Y102.469 E3.65260
G1 X131.814 Y102.516 E3.67502
G1 X132.087 Y102.644 E3.71079
G1 X132.229 Y102.748 E3.73169
G1 X132.357 Y102.868 E3.75261
G1 X132.542 Y103.122 E3.78990
G1 X132.662 Y103.426 E3.82869
G1 X132.702 Y103.737 E3.86597
G1 X132.690 Y103.926 E3.88838
G1 X132.615 Y104.217 E3.92414
G1 X132.535 Y104.388 E3.94655
G1 X132.357 Y104.632 E3.98233
G1 X132.220 Y104.761 E4.00474
G1 X131.966 Y104.922 E4.04050
G1 X131.790 Y104.992 E4.06291
G1 X131.482 Y105.051 E4.10020
G1 X131.169 Y105.031 E4.13747
G1 X130.986 Y104.984 E4.15989
G1 X130.713 Y104.856 E4.19565
G1 X130.443 Y104.632 E4.23739
G1 X130.258 Y104.378 E4.27468
G1 X130.138 Y104.074 E4.31348
G1 X130.098 Y103.763 E4.35075
G1 X130.110 Y103.574 E4.37316
G1 X130.185 Y103.283 E4.40893
G1 X130.265 Y103.112 E4.43133
G1 X130.407 Y102.917 E4.45999
G1 X130.388 Y102.688 F7800.000
G1 X132.886 Y99.336 F7800.000
G1 X132.886 Y101.735 E4.74498 F1200.000
G1 X133.573 Y102.564 E4.87280
G1 X133.886 Y102.564 E4.91000
G1 X133.886 Y109.536 E5.73800
G1 X132.886 Y109.536 E5.85676
G1 X132.886 Y112.764 E6.24017
G1 X133.886 Y112.764 E6.35894
G1 X133.886 Y115.136 E6.64061
G1 X126.914 Y115.136 E7.46860
G1 X126.914 Y114.136 E7.58737
G1 X123.686 Y114.136 E7.97078
G1 X123.686 Y115.136 E8.08955
G1 X121.386 Y115.136 E8.36271
G1 X121.386 Y119.736 E8.90903
G1 X120.386 Y119.736 E9.02779
G1 X120.386 Y122.964 E9.41120
G1 X121.386 Y122.964 E9.52997
G1 X121.386 Y127.636 E10.08480
G1 X116.714 Y127.636 E10.63963
G1 X116.714 Y126.636 E10.75840
G1 X113.486 Y126.636 E11.14181
G1 X113.486 Y127.636 E11.26058
G1 X106.514 Y127.636 E12.08857
G1 X106.514 Y126.636 E12.20734
G1 X103.286 Y126.636 E12.59075
G1 X103.286 Y127.636 E12.70951
G1 X96.314 Y127.636 E13.53751
G1 X96.314 Y127.323 E13.57471
G1 X95.981 Y127.047 E13.62604
G1 X96.236 Y126.719 E13.67532
G1 X96.448 Y126.873 E13.70651
G1 X96.843 Y127.059 E13.75829
G1 X97.157 Y127.139 E13.79676
G1 X97.627 Y127.169 E13.85274
G1 X98.091 Y127.081 E13.90879
G1 X98.391 Y126.961 E13.94723
G1 X98.760 Y126.728 E13.99900
G1 X98.996 Y126.506 E14.03747
G1 X99.252 Y126.153 E14.08928
G1 X99.390 Y125.860 E14.12773
G1 X99.498 Y125.438 E14.17951
G1 X99.519 Y125.115 E14.21796
G1 X99.459 Y124.647 E14.27396
G1 X99.273 Y124.175 E14.33418
G1 X98.996 Y123.794 E14.39021
G1 X98.785 Y123.596 E14.42450
G1 X98.552 Y123.427 E14.45876
G1 X98.157 Y123.241 E14.51054
G1 X97.843 Y123.161 E14.54902
G1 X97.373 Y123.131 E14.60499
G1 X96.909 Y123.219 E14.66104
G1 X96.609 Y123.339 E14.69948
G1 X96.240 Y123.572 E14.75125
G1 X96.004 Y123.794 E14.78972
G1 X95.748 Y124.147 E14.84154
G1 X95.610 Y124.440 E14.87998
G1 X95.502 Y124.862 E14.93177
G1 X95.481 Y125.185 E14.97021
G1 X95.541 Y125.653 E15.02621
G1 X95.727 Y126.125 E15.08643
G1 X96.004 Y126.506 E15.14246
G1 X96.190 Y126.680 E15.17269
G1 X95.915 Y126.992 E15.22203
G1 X95.485 Y126.636 E15.28829
G1 X93.086 Y126.636 E15.57329
G1 X93.086 Y127.636 E15.69205
G1 X86.114 Y127.636 E16.52005
G1 X86.114 Y122.964 E17.07488
G1 X87.114 Y122.964 E17.19364
G1 X87.114 Y119.736 E17.57706
G1 X86.114 Y119.736 E17.69582
G1 X86.114 Y112.764 E18.52381
G1 X87.114 Y112.764 E18.64258
G1 X87.114 Y109.536 E19.02599
G1 X86.114 Y109.536 E19.14476
G1 X86.114 Y102.564 E19.97275
G1 X86.428 Y102.564 E20.00998
G1 X87.114 Y101.735 E20.13780
G1 X87.114 Y99.336 E20.42277
G1 X86.114 Y99.336 E20.54154
G1 X86.114 Y92.364 E21.36953
G1 X93.086 Y92.364 E22.19752
G1 X93.086 Y93.364 E22.31629
G1 X95.485 Y93.364 E22.60126
G1 X95.915 Y93.008 E22.66756
G1 X96.146 Y93.270 E22.70907
G1 X95.941 Y92.987 E22.75065
G1 X96.314 Y92.678 E22.80825
G1 X96.314 Y92.364 E22.84548
G1 X103.286 Y92.364 E23.67347
G1 X103.286 Y93.364 E23.79224
G1 X106.514 Y93.364 E24.17565
G1 X106.514 Y92.364 E24.29442
G1 X113.486 Y92.364 E25.12241
G1 X113.486 Y93.364 E25.24117
G1 X116.714 Y93.364 E25.62459
G1 X116.714 Y92.364 E25.74335
G1 X123.686 Y92.364 E26.57134
G1 X123.686 Y92.678 E26.60857
G1 X124.059 Y92.987 E26.66618
G1 X123.854 Y93.270 E26.70773
G1 X124.085 Y93.008 E26.74921
G1 X124.515 Y93.364 E26.81552
G1 X126.914 Y93.364 E27.10049
G1 X126.914 Y92.364 E27.21926
G1 X133.886 Y92.364 E28.04725
G1 X133.886 Y99.336 E28.87524
G1 X132.946 Y99.336 E28.98688
G1 X133.600 Y100.050 F7800.000
G1 X133.600 Y101.478 E29.15648 F1200.000
G1 X133.908 Y101.850 E29.21386
G1 X134.600 Y101.850 E29.29601
G1 X134.600 Y110.250 E30.29364
G1 X133.600 Y110.250 E30.41240
G1 X133.600 Y112.050 E30.62618
G1 X134.600 Y112.050 E30.74494
G1 X134.600 Y115.850 E31.19625
G1 X126.200 Y115.850 E32.19388
G1 X126.200 Y114.850 E32.31264
G1 X124.400 Y114.850 E32.52642
G1 X124.400 Y115.850 E32.64519
G1 X122.100 Y115.850 E32.91835
G1 X122.100 Y120.450 E33.46467
G1 X121.100 Y120.450 E33.58343
G1 X121.100 Y122.250 E33.79721
G1 X122.100 Y122.250 E33.91597
G1 X122.100 Y128.350 E34.64044
G1 X116.000 Y128.350 E35.36491
G1 X116.000 Y127.350 E35.48368
G1 X114.200 Y127.350 E35.69745
G1 X114.200 Y128.350 E35.81622
G1 X105.800 Y128.350 E36.81385
G1 X105.800 Y127.350 E36.93261
G1 X104.000 Y127.350 E37.14639
G1 X104.000 Y128.350 E37.26515
G1 X95.600 Y128.350 E38.26278
G1 X95.600 Y127.658 E38.34493
G1 X95.228 Y127.350 E38.40231
