; generated by Slic3r 1.2.9 on 2016-03-09 at 21:21:00

; external perimeters extrusion width = 0.40mm
; perimeters extrusion width = 0.67mm
; infill extrusion width = 0.67mm
; solid infill extrusion width = 0.67mm
; top infill extrusion width = 0.67mm

M190 S60 ; set bed temperature
M104 S210 ; set temperature
G28 ; home all axes
G1 Z5 F5000 ; lift nozzle

M109 S210 ; wait for temperature to be reached
G21 ; set units to millimeters
G90 ; use absolute coordinates
M82 ; use absolute distances for extrusion
G92 E0
M106 S255
G1 E-2.00000 F2400.00000
G92 E0
G1 Z0.200 F7800.000
G1 Z0.400 F7800.000
G1 Z0.600 F7800.000
G1 X79.651 Y78.121 F7800.000
G1 Z0.400 F7800.000
G1 E2.00000 F2400.00000
G1 X81.949 Y76.837 E2.31268 F1200.000
G1 X85.000 Y76.286 E2.68087
G1 X135.000 Y76.286 E8.61913
G1 X137.603 Y76.684 E8.93180
G1 X139.968 Y77.840 E9.24448 F1200.000
G1 X141.879 Y79.651 E9.55716
G1 X143.163 Y81.949 E9.86984
G1 X143.710 Y85.274 E10.26999
G1 X143.611 Y88.413 E10.64304
G1 X143.577 Y88.960 E10.70804
G1 X143.281 Y92.087 E11.08109
G1 X143.213 Y92.630 E11.14609
G1 X142.721 Y95.732 E11.51914
G1 X142.619 Y96.270 E11.58417
G1 X141.933 Y99.335 E11.95723
G1 X141.797 Y99.866 E12.02224
G1 X140.878 Y103.010 E12.41127
G1 X140.722 Y103.485 E12.47063
G1 X139.688 Y106.358 E12.83335
G1 X139.486 Y106.867 E12.89833
G1 X138.239 Y109.750 E13.27138
G1 X138.006 Y110.245 E13.33645
G1 X136.580 Y113.044 E13.70952
G1 X136.316 Y113.524 E13.77451
G1 X134.526 Y116.521 E14.18911
G1 X132.658 Y119.287 E14.58555
G1 X132.336 Y119.730 E14.65058
G1 X130.411 Y122.212 E15.02364
G1 X130.062 Y122.634 E15.08864
G1 X127.985 Y124.990 E15.46172
G1 X127.610 Y125.389 E15.52671
G1 X125.818 Y127.182 E15.82776
G1 X124.694 Y128.246 E16.01154
G1 X122.634 Y130.062 E16.33777
G1 X122.212 Y130.411 E16.40277
G1 X119.730 Y132.336 E16.77582
G1 X119.287 Y132.658 E16.84087
G1 X116.689 Y134.424 E17.21393
G1 X116.227 Y134.717 E17.27892
G1 X113.605 Y136.261 E17.64031
G1 X112.524 Y136.845 E17.78620
G1 X110.245 Y138.006 E18.08996
G1 X109.750 Y138.239 E18.15502
G1 X106.867 Y139.486 E18.52808
G1 X106.358 Y139.688 E18.59306
G1 X103.403 Y140.752 E18.96612
G1 X102.882 Y140.921 E19.03110
G1 X100.070 Y141.738 E19.37891
G1 X98.567 Y142.105 E19.56269
G1 X96.270 Y142.619 E19.84216
G1 X95.732 Y142.721 E19.90724
G1 X92.630 Y143.213 E20.28029
G1 X92.087 Y143.281 E20.34528
G1 X88.960 Y143.577 E20.71833
G1 X88.413 Y143.611 E20.78334
G1 X85.274 Y143.710 E21.15639
G1 X82.660 Y143.394 E21.46906
G1 X80.260 Y142.312 E21.78174
G1 X78.292 Y140.563 E22.09442
G1 X76.937 Y138.306 E22.40710
G1 X76.286 Y135.000 E22.80725
G1 X76.286 Y85.000 E28.74551
G1 X76.684 Y82.397 E29.05818
G1 X77.840 Y80.032 E29.37086
G1 X79.609 Y78.165 E29.67641
G1 E27.67641 F2400.00000
G92 E0
G1 Z0.600 F7800.000
G1 X126.480 Y91.436 F7800.000
G1 Z0.400 F7800.000
G1 E2.00000 F2400.00000
G1 X125.598 Y95.422 E2.48492 F1200.000
G1 X124.863 Y97.953 E2.79793
G1 X123.937 Y100.509 E3.12079
G1 X122.926 Y102.846 E3.42324
G1 X121.730 Y105.193 E3.73595
G1 X120.389 Y107.460 E4.04881
G1 X118.857 Y109.705 E4.37167
G1 X117.296 Y111.717 E4.67412
G1 X115.554 Y113.693 E4.98684
G1 X113.693 Y115.554 E5.29957
G1 X111.717 Y117.296 E5.61229
G1 X109.637 Y118.910 E5.92502
G1 X107.459 Y120.390 E6.23775
G1 X105.193 Y121.730 E6.55048
G1 X102.846 Y122.926 E6.86319
G1 X100.430 Y123.971 E7.17592
G1 X97.952 Y124.863 E7.48865
G1 X95.422 Y125.598 E7.80153
G1 X91.436 Y126.480 E8.28645
G1 X91.436 Y91.436 E12.44846
G1 X126.420 Y91.436 E16.60334
G1 X125.591 Y92.150 F7800.000
G1 X124.906 Y95.246 E16.97987 F1200.000
G1 X124.184 Y97.732 E17.28737
G1 X123.273 Y100.246 E17.60490
G1 X122.279 Y102.542 E17.90210
G1 X121.104 Y104.848 E18.20949
G1 X119.786 Y107.076 E18.51693
G1 X118.279 Y109.285 E18.83445
G1 X116.745 Y111.262 E19.13166
G1 X115.034 Y113.203 E19.43905
G1 X113.203 Y115.034 E19.74645
G1 X111.262 Y116.745 E20.05384
G1 X109.217 Y118.332 E20.36124
G1 X107.076 Y119.786 E20.66863
G1 X104.848 Y121.104 E20.97603
G1 X102.542 Y122.279 E21.28342
G1 X100.167 Y123.307 E21.59081
G1 X97.732 Y124.184 E21.89821
G1 X95.246 Y124.906 E22.20566
G1 X92.150 Y125.591 E22.58219
G1 X92.150 Y92.150 E26.55376
G1 X125.531 Y92.150 E30.51821
G1 X125.986 Y92.208 F7800.000
G1 X91.550 Y91.550 F7800.000
G1 X90.455 Y95.149 F7800.000
G1 X90.854 Y96.211 F7800.000
G1 X90.944 Y96.613 F7800.000
G1 X90.982 Y96.852 F7800.000
G1 X90.442 Y97.027 F7800.000
G1 X90.559 Y96.997 F7800.000
G1 X90.619 Y97.465 E30.57422 F1200.000
G1 X90.598 Y97.788 E30.61266
G1 X90.490 Y98.210 E30.66446
G1 X90.352 Y98.503 E30.70290
G1 X90.096 Y98.856 E30.75471
G1 X89.860 Y99.078 E30.79317
G1 X89.491 Y99.311 E30.84494
G1 X89.191 Y99.431 E30.88338
G1 X88.727 Y99.519 E30.93943
G1 X88.256 Y99.489 E30.99542
G1 X87.943 Y99.409 E31.03389
G1 X87.548 Y99.223 E31.08569
G1 X87.315 Y99.054 E31.11995
G1 X87.104 Y98.856 E31.15422
G1 X86.827 Y98.475 E31.21022
G1 X86.641 Y98.003 E31.27046
G1 X86.577 Y97.500 E31.33068
G1 X86.636 Y97.032 E31.38669
G1 X86.725 Y96.758 E31.42094
G1 X86.848 Y96.497 E31.45520
G1 X87.077 Y96.169 E31.50271
G1 X87.340 Y95.922 E31.54555
G1 X87.709 Y95.689 E31.59732
G1 X88.009 Y95.569 E31.63576
G1 X88.473 Y95.481 E31.69181 F1200.000
G1 X88.944 Y95.511 E31.74780
G1 X89.257 Y95.591 E31.78627
G1 X89.652 Y95.777 E31.83807
G1 X89.885 Y95.946 E31.87233
G1 X90.096 Y96.144 E31.90660
G1 X90.373 Y96.525 E31.96261
G1 X90.537 Y96.941 E32.01572
G1 X89.862 Y97.176 F7800.000
G1 X89.902 Y97.487 E32.05300 F1200.000
G1 X89.890 Y97.676 E32.07540
G1 X89.815 Y97.967 E32.11117
G1 X89.735 Y98.138 E32.13358
G1 X89.557 Y98.382 E32.16936
G1 X89.420 Y98.511 E32.19177
G1 X89.166 Y98.672 E32.22752
G1 X88.990 Y98.742 E32.24993
G1 X88.682 Y98.801 E32.28723
G1 X88.369 Y98.781 E32.32450
G1 X88.186 Y98.734 E32.34692
G1 X87.913 Y98.606 E32.38269
G1 X87.643 Y98.382 E32.42442
G1 X87.458 Y98.128 E32.46170
G1 X87.338 Y97.824 E32.50050
G1 X87.297 Y97.500 E32.53930
G1 X87.336 Y97.189 E32.57658
G1 X87.391 Y97.021 E32.59748
G1 X87.465 Y96.862 E32.61839
G1 X87.643 Y96.618 E32.65416
G1 X87.780 Y96.489 E32.67657
G1 X88.034 Y96.328 E32.71233
G1 X88.210 Y96.258 E32.73474
G1 X88.518 Y96.199 E32.77203 F1200.000
G1 X88.831 Y96.219 E32.80931
G1 X89.014 Y96.266 E32.83172
G1 X89.287 Y96.394 E32.86749
G1 X89.557 Y96.618 E32.90922
G1 X89.742 Y96.872 E32.94650
G1 X89.840 Y97.120 E32.97818
G1 X90.161 Y97.273 F7800.000
G1 X89.987 Y96.198 F7800.000
G1 X89.251 Y89.251 F7800.000
G1 X94.303 Y89.972 F7800.000
G1 X95.099 Y90.431 F7800.000
G1 X95.461 Y90.597 F7800.000
G1 X95.700 Y90.691 F7800.000
G1 X96.288 Y90.066 F7800.000
G1 X96.240 Y90.178 F7800.000
G1 X96.004 Y89.956 E33.01662 F1200.000
G1 X95.748 Y89.603 E33.06845
G1 X95.610 Y89.310 E33.10689
G1 X95.502 Y88.888 E33.15868
G1 X95.484 Y88.600 E33.19294
G1 X95.502 Y88.312 E33.22720
G1 X95.610 Y87.890 E33.27899
G1 X95.748 Y87.597 E33.31743
G1 X96.004 Y87.244 E33.36926
G1 X96.190 Y87.070 E33.39949
G1 X96.181 Y87.060 E33.40105
G1 X96.609 Y86.788 E33.46117
G1 X96.910 Y86.669 E33.49961
G1 X97.373 Y86.581 E33.55562 F1200.000
G1 X97.844 Y86.611 E33.61163
G1 X98.123 Y86.682 E33.64589
G1 X98.391 Y86.788 E33.68015
G1 X98.760 Y87.022 E33.73196
G1 X98.996 Y87.244 E33.77040
G1 X99.273 Y87.625 E33.82644
G1 X99.458 Y88.093 E33.88619
G1 X99.519 Y88.553 E33.94127
G1 X99.498 Y88.888 E33.98112
G1 X99.390 Y89.310 E34.03291
G1 X99.252 Y89.603 E34.07135
G1 X98.996 Y89.956 E34.12318
G1 X98.760 Y90.178 E34.16162
G1 X98.391 Y90.412 E34.21343
G1 X98.090 Y90.531 E34.25187
G1 X97.627 Y90.619 E34.30788
G1 X97.121 Y90.587 E34.36810
G1 X96.639 Y90.430 E34.42833
G1 X96.291 Y90.210 E34.47722
G1 X96.680 Y89.611 F7800.000
G1 X96.543 Y89.482 E34.49963 F1200.000
G1 X96.365 Y89.238 E34.53541
G1 X96.285 Y89.067 E34.55781
G1 X96.210 Y88.776 E34.59358
G1 X96.210 Y88.424 E34.63530
G1 X96.285 Y88.133 E34.67107
G1 X96.365 Y87.962 E34.69348
G1 X96.543 Y87.718 E34.72926
G1 X96.680 Y87.589 E34.75166
G1 X96.934 Y87.428 E34.78744
G1 X97.110 Y87.358 E34.80985
G1 X97.418 Y87.299 E34.84713 F1200.000
G1 X97.731 Y87.319 E34.88441
G1 X98.066 Y87.428 E34.92613
G1 X98.320 Y87.589 E34.96191
G1 X98.457 Y87.718 E34.98432
G1 X98.642 Y87.972 E35.02161
G1 X98.762 Y88.275 E35.06023
G1 X98.802 Y88.578 E35.09659
G1 X98.790 Y88.776 E35.12010
G1 X98.715 Y89.067 E35.15587
G1 X98.635 Y89.238 E35.17828
G1 X98.457 Y89.482 E35.21406
G1 X98.320 Y89.611 E35.23646
G1 X98.066 Y89.772 E35.27224
G1 X97.890 Y89.842 E35.29464
G1 X97.582 Y89.901 E35.33193
G1 X97.256 Y89.880 E35.37072
G1 X96.945 Y89.779 E35.40952
G1 X96.731 Y89.643 E35.43968
G1 X96.503 Y89.677 F7800.000
G1 X120.484 Y88.600 F7800.000
G1 X120.502 Y88.312 E35.47393 F1200.000
G1 X120.610 Y87.890 E35.52573
G1 X120.748 Y87.597 E35.56417
G1 X121.004 Y87.244 E35.61600
G1 X121.240 Y87.022 E35.65444
G1 X121.609 Y86.788 E35.70625
G1 X121.910 Y86.669 E35.74469
G1 X122.373 Y86.581 E35.80070 F1200.000
G1 X122.844 Y86.611 E35.85671
G1 X123.123 Y86.682 E35.89097
G1 X123.391 Y86.788 E35.92523
G1 X123.819 Y87.060 E35.98535
G1 X123.810 Y87.070 E35.98691
G1 X123.996 Y87.244 E36.01714
G1 X124.273 Y87.625 E36.07317
G1 X124.458 Y88.093 E36.13293
G1 X124.519 Y88.553 E36.18801
G1 X124.498 Y88.888 E36.22785
G1 X124.390 Y89.310 E36.27965
G1 X124.252 Y89.603 E36.31809
G1 X123.996 Y89.956 E36.36991
G1 X123.760 Y90.178 E36.40836
G1 X123.391 Y90.412 E36.46017
G1 X123.090 Y90.531 E36.49861
G1 X122.627 Y90.619 E36.55462
G1 X122.121 Y90.587 E36.61484
G1 X121.639 Y90.430 E36.67507
G1 X121.240 Y90.178 E36.73108
G1 X121.004 Y89.956 E36.76953
G1 X120.748 Y89.603 E36.82135
G1 X120.610 Y89.310 E36.85979
G1 X120.502 Y88.888 E36.91159
G1 X120.487 Y88.660 E36.93872
G1 X121.199 Y88.600 F7800.000
G1 X121.210 Y88.424 E36.95962 F1200.000
G1 X121.285 Y88.133 E36.99539
G1 X121.365 Y87.962 E37.01780
G1 X121.543 Y87.718 E37.05358
G1 X121.680 Y87.589 E37.07598
G1 X121.934 Y87.428 E37.11176
G1 X122.110 Y87.358 E37.13416
G1 X122.418 Y87.299 E37.17145 F1200.000
G1 X122.731 Y87.319 E37.20873
G1 X122.902 Y87.363 E37.22963
G1 X123.066 Y87.428 E37.25054
G1 X123.320 Y87.589 E37.28631
G1 X123.457 Y87.718 E37.30872
G1 X123.642 Y87.972 E37.34601
G1 X123.762 Y88.275 E37.38464
G1 X123.802 Y88.578 E37.42099
G1 X123.790 Y88.776 E37.44450
G1 X123.715 Y89.067 E37.48027
G1 X123.635 Y89.238 E37.50268
G1 X123.457 Y89.482 E37.53846
G1 X123.320 Y89.611 E37.56086
G1 X123.066 Y89.772 E37.59664
G1 X122.890 Y89.842 E37.61904
G1 X122.582 Y89.901 E37.65633
G1 X122.256 Y89.880 E37.69512
G1 X121.945 Y89.779 E37.73392
G1 X121.680 Y89.611 E37.77120
G1 X121.543 Y89.482 E37.79361
G1 X121.365 Y89.238 E37.82939
G1 X121.285 Y89.067 E37.85180
G1 X121.210 Y88.776 E37.88756
G1 X121.203 Y88.660 E37.90134
G1 X121.049 Y88.509 F7800.000
G1 X121.113 Y89.902 F7800.000
G1 X88.797 Y91.057 F7800.000
G1 X90.854 Y96.211 F7800.000
G1 X89.987 Y100.674 F7800.000
G1 X89.028 Y118.099 F7800.000
G1 X90.105 Y119.513 F7800.000
G1 X90.455 Y120.149 F7800.000
G1 X90.622 Y120.522 F7800.000
G1 X89.987 Y121.198 F7800.000
G1 X90.096 Y121.144 F7800.000
G1 X90.373 Y121.525 E37.95735 F1200.000
G1 X90.559 Y121.997 E38.01758
G1 X90.619 Y122.465 E38.07359
G1 X90.598 Y122.788 E38.11203
G1 X90.490 Y123.210 E38.16383
G1 X90.352 Y123.503 E38.20228
G1 X90.096 Y123.856 E38.25409
G1 X89.860 Y124.078 E38.29254
G1 X89.461 Y124.330 E38.34855
G1 X89.013 Y124.476 E38.40458
G1 X88.692 Y124.517 E38.44303
G1 X88.256 Y124.489 E38.49485
G1 X87.943 Y124.409 E38.53330
G1 X87.548 Y124.223 E38.58504
G1 X87.315 Y124.054 E38.61932
G1 X87.078 Y123.831 E38.65797
G1 X86.827 Y123.475 E38.70968
G1 X86.641 Y123.003 E38.76992
G1 X86.577 Y122.500 E38.83014
G1 X86.636 Y122.032 E38.88615
G1 X86.725 Y121.758 E38.92040
G1 X86.848 Y121.497 E38.95466
G1 X87.104 Y121.144 E39.00647
G1 X87.340 Y120.922 E39.04493
G1 X87.739 Y120.670 E39.10093
G1 X88.187 Y120.524 E39.15697
G1 X88.508 Y120.483 E39.19541 F1200.000
G1 X88.944 Y120.511 E39.24723
G1 X89.257 Y120.591 E39.28568
G1 X89.652 Y120.777 E39.33742
G1 X89.885 Y120.946 E39.37170
G1 X90.052 Y121.103 E39.39885
G1 X89.557 Y121.618 F7800.000
G1 X89.742 Y121.872 E39.43613 F1200.000
G1 X89.862 Y122.176 E39.47493
G1 X89.902 Y122.487 E39.51221
G1 X89.890 Y122.676 E39.53462
G1 X89.815 Y122.967 E39.57039
G1 X89.735 Y123.138 E39.59279
G1 X89.557 Y123.382 E39.62857
G1 X89.420 Y123.511 E39.65098
G1 X89.155 Y123.679 E39.68826
G1 X88.856 Y123.776 E39.72555
G1 X88.669 Y123.800 E39.74796
G1 X88.368 Y123.781 E39.78373
G1 X88.186 Y123.734 E39.80614
G1 X87.913 Y123.606 E39.84189
G1 X87.771 Y123.502 E39.86280
G1 X87.643 Y123.382 E39.88371
G1 X87.458 Y123.128 E39.92099
G1 X87.338 Y122.824 E39.95980
G1 X87.297 Y122.500 E39.99859
G1 X87.336 Y122.189 E40.03587
G1 X87.391 Y122.021 E40.05677
G1 X87.465 Y121.862 E40.07768
G1 X87.643 Y121.618 E40.11345
G1 X87.780 Y121.489 E40.13586
G1 X88.045 Y121.321 E40.17314
G1 X88.344 Y121.224 E40.21043
G1 X88.531 Y121.200 E40.23284 F1200.000
G1 X88.832 Y121.219 E40.26862
G1 X89.014 Y121.266 E40.29103
G1 X89.287 Y121.394 E40.32677
G1 X89.514 Y121.577 E40.36140
G1 X89.866 Y121.559 F7800.000
G1 X87.114 Y116.714 F7800.000
G1 X87.114 Y113.486 E40.74481 F1200.000
G1 X86.114 Y113.486 E40.86358
G1 X86.114 Y106.514 E41.69157
G1 X87.114 Y106.514 E41.81034
G1 X87.114 Y103.286 E42.19375
G1 X86.114 Y103.286 E42.31251
G1 X86.114 Y96.314 E43.14051
G1 X86.428 Y96.314 E43.17773
G1 X87.114 Y95.485 E43.30556
G1 X87.114 Y93.086 E43.59053
G1 X86.114 Y93.086 E43.70930
G1 X86.114 Y86.114 E44.53729
G1 X93.086 Y86.114 E45.36528
G1 X93.086 Y87.114 E45.48405
G1 X95.485 Y87.114 E45.76902
G1 X95.915 Y86.758 E45.83532
G1 X96.146 Y87.020 E45.87682
G1 X95.941 Y86.737 E45.91838
G1 X96.314 Y86.428 E45.97598
G1 X96.314 Y86.114 E46.01321
G1 X103.286 Y86.114 E46.84120
G1 X103.286 Y87.114 E46.95997
G1 X106.514 Y87.114 E47.34338
G1 X106.514 Y86.114 E47.46214
G1 X113.486 Y86.114 E48.29014
G1 X113.486 Y87.114 E48.40890
G1 X116.714 Y87.114 E48.79231
G1 X116.714 Y86.114 E48.91108
G1 X123.686 Y86.114 E49.73907
G1 X123.686 Y86.428 E49.77630
G1 X124.059 Y86.737 E49.83391
G1 X123.854 Y87.020 E49.87546
G1 X124.085 Y86.758 E49.91694
G1 X124.515 Y87.114 E49.98324
G1 X126.914 Y87.114 E50.26822
G1 X126.914 Y86.114 E50.38698
G1 X133.850 Y86.114 E51.21075
G1 X133.789 Y88.070 E51.44310
G1 X133.500 Y91.127 E51.80783
G1 X133.019 Y94.160 E52.17256
G1 X132.350 Y97.157 E52.53730
G1 X132.056 Y98.168 E52.66235
G1 X131.109 Y97.870 E52.78027
G1 X130.189 Y100.965 E53.16373
G1 X131.082 Y101.246 E53.27492
G1 X130.452 Y102.996 E53.49575
G1 X129.233 Y105.814 E53.86048
G1 X127.838 Y108.551 E54.22522
G1 X127.232 Y109.576 E54.36667
G1 X126.399 Y109.055 E54.48342
G1 X124.714 Y111.809 E54.86685
G1 X125.517 Y112.311 E54.97919
G1 X124.549 Y113.734 E55.18361
G1 X122.667 Y116.161 E55.54834
G1 X120.636 Y118.464 E55.91309
G1 X119.677 Y119.423 E56.07415
G1 X118.988 Y118.698 E56.19292
G1 X117.780 Y119.907 E56.39597
G1 X116.639 Y120.912 E56.57652
G1 X117.328 Y121.638 E56.69532
G1 X116.161 Y122.667 E56.88012
G1 X113.734 Y124.549 E57.24485
G1 X111.194 Y126.275 E57.60958
G1 X109.866 Y127.061 E57.79287
G1 X109.381 Y126.186 E57.91161
G1 X108.069 Y126.962 E58.09264
G1 X106.549 Y127.737 E58.29521
G1 X107.034 Y128.611 E58.41398
G1 X105.814 Y129.233 E58.57655
G1 X102.996 Y130.452 E58.94129
G1 X100.106 Y131.493 E59.30603
G1 X98.430 Y131.980 E59.51337
G1 X98.193 Y131.066 E59.62552
G1 X95.052 Y131.811 E60.00900
G1 X95.298 Y132.765 E60.12598
G1 X94.160 Y133.019 E60.26451
G1 X91.127 Y133.500 E60.62924
G1 X88.070 Y133.789 E60.99397
G1 X86.114 Y133.850 E61.22632
G1 X86.114 Y126.914 E62.05009
G1 X87.114 Y126.914 E62.16885
G1 X87.114 Y124.515 E62.45383
G1 X86.428 Y123.686 E62.58165
G1 X86.114 Y123.686 E62.61887
G1 X86.114 Y116.714 E63.44687
G1 X87.054 Y116.714 E63.55851
G1 X86.400 Y116.000 F7800.000
G1 X86.400 Y114.200 E63.77228 F1200.000
G1 X85.400 Y114.200 E63.89105
G1 X85.400 Y105.800 E64.88868
G1 X86.400 Y105.800 E65.00744
G1 X86.400 Y104.000 E65.22122
G1 X85.400 Y104.000 E65.33998
G1 X85.400 Y95.600 E66.33761
G1 X86.092 Y95.600 E66.41978
G1 X86.400 Y95.228 E66.47715
G1 X86.400 Y93.800 E66.64674
G1 X85.400 Y93.800 E66.76551
G1 X85.400 Y85.400 E67.76314
G1 X93.800 Y85.400 E68.76076
G1 X93.800 Y86.400 E68.87953
G1 X95.228 Y86.400 E69.04912
G1 X95.600 Y86.092 E69.10650
G1 X95.600 Y85.400 E69.18866
G1 X104.000 Y85.400 E70.18629
