; generated by Slic3r 1.31.6-prusa3d-win64 on 2016-12-26 at 15:50:35

; external perimeters extrusion width = 0.40mm
; perimeters extrusion width = 0.67mm
; infill extrusion width = 0.67mm
; solid infill extrusion width = 0.67mm
; top infill extrusion width = 0.67mm

M190 S60 ; set bed temperature and wait for it to be reached
M104 S210 ; set temperature
G28 ; home all axes
G1 Z5 F5000 ; lift nozzle

M109 S210 ; set temperature and wait for it to be reached
G21 ; set units to millimeters
G90 ; use absolute coordinates
M82 ; use absolute distances for extrusion
G92 E0
M106 S255
G1 E-2.00000 F2400.00000
G92 E0
G1 Z1.000 F7800.000
G1 X91.549 Y76.437 F7800.000
G1 Z0.400 F7800.000
G1 E2.00000 F2400.00000
G1 F1080
G1 X94.600 Y75.886 E2.36819
G1 X145.400 Y75.886 E8.40146
G1 X148.003 Y76.284 E8.71414
G1 X150.368 Y77.440 E9.02682
G1 X152.279 Y79.251 E9.33949
G1 X153.563 Y81.549 E9.65217
G1 X154.114 Y84.600 E10.02036
G1 X154.114 Y135.400 E16.05363
G1 X153.716 Y138.003 E16.36631
G1 X152.560 Y140.368 E16.67899
G1 X150.749 Y142.279 E16.99167
G1 X148.451 Y143.563 E17.30435
G1 X145.400 Y144.114 E17.67253
G1 X94.600 Y144.114 E23.70581
G1 X91.997 Y143.716 E24.01848
G1 X89.632 Y142.560 E24.33116
G1 X87.721 Y140.749 E24.64384
G1 X86.437 Y138.451 E24.95652
G1 X85.886 Y135.400 E25.32471
G1 X85.886 Y84.600 E31.35798
G1 X86.284 Y81.997 E31.67066
G1 X87.440 Y79.632 E31.98333
G1 X89.251 Y77.721 E32.29601
G1 X91.497 Y76.467 E32.60156
G1 E30.60156 F2400.00000
G92 E0
G1 Z1.400 F7800.000
G1 X94.156 Y83.529 F7800.000
G1 Z0.400 F7800.000
G1 E2.00000 F2400.00000
G1 F1080
G1 X145.844 Y83.529 E8.13867
G1 X146.471 Y84.156 E8.24407
G1 X146.471 Y135.844 E14.38273
G1 X145.844 Y136.471 E14.48813
G1 X94.156 Y136.471 E20.62680
G1 X93.529 Y135.844 E20.73220
G1 X93.529 Y84.156 E26.87087
G1 X94.114 Y83.571 E26.96914
G1 X94.452 Y84.243 F7800.000
G1 F1080
G1 X103.948 Y84.243 E28.09691
G1 X104.004 Y84.299 E28.10636
G1 X104.596 Y84.299 E28.17663
G1 X104.652 Y84.243 E28.18608
G1 X134.548 Y84.243 E31.73666
G1 X134.604 Y84.299 E31.74611
G1 X135.196 Y84.299 E31.81638
G1 X135.252 Y84.243 E31.82583
G1 X145.548 Y84.243 E33.04861
G1 X145.757 Y84.452 E33.08375
G1 X145.757 Y93.948 E34.21152
G1 X145.701 Y94.004 E34.22097
G1 X145.701 Y94.596 E34.29124
G1 X145.757 Y94.652 E34.30069
G1 X145.757 Y124.548 E37.85127
G1 X145.701 Y124.604 E37.86072
G1 X145.701 Y125.196 E37.93099
G1 X145.757 Y125.252 E37.94044
G1 X145.757 Y135.548 E39.16322
G1 X145.548 Y135.757 E39.19836
G1 X135.252 Y135.757 E40.42114
G1 X135.196 Y135.701 E40.43059
G1 X134.604 Y135.701 E40.50086
G1 X134.548 Y135.757 E40.51031
G1 X104.652 Y135.757 E44.06089
G1 X104.596 Y135.701 E44.07035
G1 X104.004 Y135.701 E44.14061
G1 X103.948 Y135.757 E44.15006
G1 X94.452 Y135.757 E45.27783
G1 X94.243 Y135.548 E45.31297
G1 X94.243 Y125.252 E46.53575
G1 X94.299 Y125.196 E46.54520
G1 X94.299 Y124.604 E46.61547
G1 X94.243 Y124.548 E46.62492
G1 X94.243 Y94.652 E50.17550
G1 X94.299 Y94.596 E50.18496
G1 X94.299 Y94.004 E50.25522
G1 X94.243 Y93.948 E50.26467
G1 X94.243 Y84.452 E51.39244
G1 X94.410 Y84.285 E51.42045
G1 E49.42045 F2400.00000
G92 E0
G1 Z1.400 F7800.000
G1 X103.400 Y86.000 F7800.000
G1 Z0.400 F7800.000
G1 E2.00000 F2400.00000
G1 F378
G1 X105.200 Y86.000 E2.21378
G1 X105.200 Y85.000 E2.33254
G1 X134.000 Y85.000 E5.75298
G1 X134.000 Y85.240 E5.78144
G1 X134.642 Y85.633 E5.87082
G1 X135.086 Y86.000 E5.93924
G1 X135.800 Y86.000 E6.02408
G1 X135.800 Y85.000 E6.14285
G1 X145.000 Y85.000 E7.23549
G1 X145.000 Y93.400 E8.23311
G1 X144.000 Y93.400 E8.35188
G1 X144.000 Y95.200 E8.56566
G1 X145.000 Y95.200 E8.68442
G1 X145.000 Y124.000 E12.10486
G1 X144.760 Y124.000 E12.13331
G1 X144.367 Y124.642 E12.22270
G1 X144.000 Y125.086 E12.29112
G1 X144.000 Y125.800 E12.37596
G1 X145.000 Y125.800 E12.49472
G1 X145.000 Y135.000 E13.58736
G1 X135.800 Y135.000 E14.68000
G1 X135.800 Y134.000 E14.79877
G1 X135.086 Y134.000 E14.88361
G1 X134.642 Y134.367 E14.95203
G1 X134.000 Y134.760 E15.04141
G1 X134.000 Y135.000 E15.06987
G1 X105.200 Y135.000 E18.49031
G1 X105.200 Y134.000 E18.60907
G1 X103.400 Y134.000 E18.82285
G1 X103.400 Y135.000 E18.94161
G1 X95.000 Y135.000 E19.93924
G1 X95.000 Y125.800 E21.03188
G1 X96.000 Y125.800 E21.15065
G1 X96.000 Y125.086 E21.23549
G1 X95.633 Y124.642 E21.30390
G1 X95.240 Y124.000 E21.39329
G1 X95.000 Y124.000 E21.42175
G1 X95.000 Y95.200 E24.84218
G1 X96.000 Y95.200 E24.96095
G1 X96.000 Y93.400 E25.17473
G1 X95.000 Y93.400 E25.29349
G1 X95.000 Y85.000 E26.29112
G1 X103.400 Y85.000 E27.28875
G1 X103.400 Y85.940 E27.40039
G1 X103.586 Y86.354 F7800.000
G1 X102.686 Y86.714 F7800.000
G1 F540
G1 X105.914 Y86.714 E27.78380
G1 X105.914 Y85.714 E27.90256
G1 X133.408 Y85.714 E31.16782
G1 X134.225 Y86.215 E31.28175
G1 X134.829 Y86.714 E31.37470
G1 X136.514 Y86.714 E31.57489
G1 X136.514 Y85.714 E31.69365
G1 X144.286 Y85.714 E32.61666
G1 X144.286 Y92.686 E33.44465
G1 X143.286 Y92.686 E33.56341
G1 X143.286 Y95.914 E33.94683
G1 X144.286 Y95.914 E34.06559
G1 X144.286 Y123.408 E37.33086
G1 X143.785 Y124.225 E37.44478
G1 X143.286 Y124.829 E37.53773
G1 X143.286 Y126.514 E37.73792
G1 X144.286 Y126.514 E37.85668
G1 X144.286 Y134.286 E38.77969
G1 X136.514 Y134.286 E39.70269
G1 X136.514 Y133.286 E39.82146
G1 X134.829 Y133.286 E40.02164
G1 X134.225 Y133.785 E40.11459
G1 X133.408 Y134.286 E40.22851
G1 X105.914 Y134.286 E43.49378
G1 X105.914 Y133.286 E43.61255
G1 X102.686 Y133.286 E43.99596
G1 X102.686 Y134.286 E44.11472
G1 X95.714 Y134.286 E44.94272
G1 X95.714 Y126.514 E45.86572
G1 X96.714 Y126.514 E45.98449
G1 X96.714 Y124.829 E46.18467
G1 X96.215 Y124.225 E46.27762
G1 X95.714 Y123.408 E46.39155
G1 X95.714 Y95.914 E49.65681
G1 X96.714 Y95.914 E49.77558
G1 X96.714 Y92.686 E50.15899
G1 X95.714 Y92.686 E50.27775
G1 X95.714 Y85.714 E51.10575
G1 X102.686 Y85.714 E51.93374
G1 X102.686 Y86.654 E52.04538
G1 E50.04538 F2400.00000
G92 E0
G1 Z1.400 F7800.000
G1 X107.451 Y130.407 F7800.000
G1 Z0.400 F7800.000
G1 E2.00000 F2400.00000
G1 F540
G1 X107.636 Y130.442 E2.02240
G1 X107.916 Y130.553 E2.05818
G1 X108.075 Y130.654 E2.08058
G1 X108.295 Y130.861 E2.11636
G1 X108.406 Y131.013 E2.13877
G1 X108.534 Y131.286 E2.17453
G1 X108.581 Y131.469 E2.19695
G1 X108.601 Y131.782 E2.23422
G1 X108.539 Y132.103 E2.27301
G1 X108.406 Y132.387 E2.31029
G1 X108.182 Y132.657 E2.35203
G1 X107.938 Y132.835 E2.38781
G1 X107.767 Y132.915 E2.41022
G1 X107.463 Y132.993 E2.44749
G1 X107.149 Y132.993 E2.48478
G1 X106.964 Y132.958 E2.50718
G1 X106.684 Y132.847 E2.54296
G1 X106.525 Y132.746 E2.56537
G1 X106.305 Y132.539 E2.60115
G1 X106.194 Y132.387 E2.62356
G1 X106.066 Y132.114 E2.65932
G1 X106.019 Y131.931 E2.68174
G1 X105.999 Y131.618 E2.71901
G1 X106.061 Y131.297 E2.75780
G1 X106.194 Y131.013 E2.79508
G1 X106.418 Y130.743 E2.83682
G1 X106.662 Y130.565 E2.87259
G1 X106.833 Y130.485 E2.89500
G1 X107.137 Y130.407 E2.93228
G1 X107.391 Y130.407 E2.96244
G1 X107.558 Y130.252 F7800.000
G1 E0.96244 F2400.00000
G92 E0
G1 Z1.400 F7800.000
G1 X105.914 Y133.217 F7800.000
G1 Z0.400 F7800.000
G1 E2.00000 F2400.00000
G1 F540
G1 X105.577 Y132.752 E2.06823
G1 X105.391 Y132.357 E2.12001
G1 X105.311 Y132.043 E2.15848
G1 X105.281 Y131.573 E2.21446
G1 X105.376 Y131.075 E2.27468
G1 X105.577 Y130.648 E2.33069
G1 X105.746 Y130.415 E2.36494
G1 X105.944 Y130.204 E2.39923
G1 X106.297 Y129.948 E2.45105
G1 X106.590 Y129.810 E2.48950
G1 X107.046 Y129.693 E2.54549
G1 X107.518 Y129.693 E2.60153
G1 X107.836 Y129.754 E2.63995
G1 X108.242 Y129.914 E2.69177
G1 X108.515 Y130.088 E2.73021
G1 X108.833 Y130.386 E2.78203
G1 X109.023 Y130.648 E2.82048
G1 X109.209 Y131.043 E2.87226
G1 X109.289 Y131.357 E2.91073
G1 X109.319 Y131.827 E2.96671
G1 X109.224 Y132.325 E3.02694
G1 X109.023 Y132.752 E3.08294
G1 X108.854 Y132.985 E3.11719
G1 X108.656 Y133.196 E3.15149
G1 X108.303 Y133.452 E3.20331
G1 X108.010 Y133.590 E3.24175
G1 X107.554 Y133.707 E3.29775
G1 X107.082 Y133.707 E3.35378
G1 X106.764 Y133.646 E3.39220
G1 X106.358 Y133.486 E3.44402
G1 X105.954 Y133.229 E3.50091
G1 X100.322 Y129.678 F7800.000
G1 F540
G1 X105.398 Y129.678 E4.10383
G1 X104.959 Y130.283 E4.19260
G1 X104.691 Y130.852 E4.26732
G1 X104.563 Y131.528 E4.34897
G1 X104.602 Y132.156 E4.42367
G1 X104.709 Y132.572 E4.47469
G1 X101.972 Y132.572 E4.79976
G1 X101.972 Y133.572 E4.91853
G1 X96.428 Y133.572 E5.57689
G1 X96.428 Y127.228 E6.33026
G1 X97.428 Y127.228 E6.44902
G1 X97.428 Y125.291 E6.67908
G1 X97.844 Y125.398 E6.73010
G1 X98.472 Y125.437 E6.80481
G1 X99.091 Y125.320 E6.87961
G1 X99.517 Y125.150 E6.93409
G1 X100.322 Y124.640 E7.04722
G1 X100.322 Y129.618 E7.63845
G1 X100.322 Y120.798 F7800.000
G1 F540
G1 X99.717 Y120.359 E7.72720
G1 X99.200 Y120.116 E7.79502
G1 X98.756 Y120.002 E7.84955
G1 X98.128 Y119.963 E7.92426
G1 X97.509 Y120.080 E7.99906
G1 X97.083 Y120.250 E8.05354
G1 X96.428 Y120.665 E8.14557
G1 X96.428 Y99.310 E10.68171
G1 X96.883 Y99.641 E10.74844
G1 X97.400 Y99.884 E10.81627
G1 X97.844 Y99.998 E10.87080
G1 X98.472 Y100.037 E10.94550
G1 X99.091 Y99.920 E11.02031
G1 X99.517 Y99.750 E11.07479
G1 X100.322 Y99.240 E11.18791
G1 X100.322 Y120.738 E13.74116
G1 X99.129 Y121.698 F7800.000
G1 F540
G1 X99.257 Y121.818 E13.76207
G1 X99.442 Y122.072 E13.79935
G1 X99.562 Y122.376 E13.83815
G1 X99.602 Y122.687 E13.87544
G1 X99.590 Y122.876 E13.89784
G1 X99.515 Y123.167 E13.93361
G1 X99.435 Y123.338 E13.95602
G1 X99.257 Y123.582 E13.99179
G1 X99.120 Y123.711 E14.01421
G1 X98.866 Y123.872 E14.04996
G1 X98.690 Y123.942 E14.07237
G1 X98.382 Y124.001 E14.10967
G1 X98.069 Y123.981 E14.14694
G1 X97.886 Y123.934 E14.16936
G1 X97.613 Y123.806 E14.20513
G1 X97.471 Y123.702 E14.22603
G1 X97.343 Y123.582 E14.24694
G1 X97.158 Y123.328 E14.28422
G1 X97.038 Y123.024 E14.32302
G1 X96.997 Y122.700 E14.36181
G1 X97.036 Y122.389 E14.39910
G1 X97.091 Y122.221 E14.42000
G1 X97.165 Y122.062 E14.44091
G1 X97.343 Y121.818 E14.47668
G1 X97.480 Y121.689 E14.49909
G1 X97.734 Y121.528 E14.53485
G1 X97.910 Y121.458 E14.55725
G1 X98.218 Y121.399 E14.59455
G1 X98.531 Y121.419 E14.63183
G1 X98.714 Y121.466 E14.65424
G1 X98.987 Y121.594 E14.69001
G1 X99.081 Y121.662 E14.70379
G1 X99.293 Y121.633 F7800.000
G1 X99.500 Y121.085 F7800.000
G1 F540
G1 X99.796 Y121.344 E14.75047
G1 X100.073 Y121.725 E14.80648
G1 X100.259 Y122.197 E14.86671
G1 X100.319 Y122.665 E14.92272
G1 X100.298 Y122.988 E14.96116
G1 X100.190 Y123.410 E15.01296
G1 X100.052 Y123.703 E15.05141
G1 X99.796 Y124.056 E15.10321
G1 X99.560 Y124.278 E15.14167
G1 X99.191 Y124.511 E15.19344
G1 X98.891 Y124.631 E15.23188
G1 X98.427 Y124.719 E15.28793
G1 X97.956 Y124.689 E15.34392
G1 X97.643 Y124.609 E15.38239
G1 X97.248 Y124.423 E15.43419
G1 X97.015 Y124.254 E15.46845
G1 X96.804 Y124.056 E15.50272
G1 X96.527 Y123.675 E15.55873
G1 X96.341 Y123.203 E15.61896
G1 X96.277 Y122.700 E15.67918
G1 X96.336 Y122.232 E15.73520
G1 X96.425 Y121.958 E15.76944
G1 X96.548 Y121.697 E15.80371
G1 X96.804 Y121.344 E15.85552
G1 X97.040 Y121.122 E15.89397
G1 X97.409 Y120.889 E15.94574
G1 X97.709 Y120.769 E15.98418
G1 X98.173 Y120.681 E16.04023
G1 X98.644 Y120.711 E16.09622
G1 X98.957 Y120.791 E16.13470
G1 X99.352 Y120.977 E16.18649
G1 X99.452 Y121.049 E16.20114
G1 X98.690 Y98.542 F7800.000
G1 F540
G1 X98.382 Y98.601 E16.23844
G1 X98.069 Y98.581 E16.27571
G1 X97.886 Y98.534 E16.29813
G1 X97.613 Y98.406 E16.33390
G1 X97.343 Y98.182 E16.37563
G1 X97.158 Y97.928 E16.41291
G1 X97.038 Y97.624 E16.45171
G1 X96.997 Y97.300 E16.49051
G1 X97.036 Y96.989 E16.52779
G1 X97.165 Y96.662 E16.56951
G1 X97.343 Y96.418 E16.60529
G1 X97.480 Y96.289 E16.62770
G1 X97.734 Y96.128 E16.66345
G1 X97.910 Y96.058 E16.68586
G1 X98.218 Y95.999 E16.72316
G1 X98.531 Y96.019 E16.76043
G1 X98.714 Y96.066 E16.78285
G1 X98.987 Y96.194 E16.81862
G1 X99.257 Y96.418 E16.86035
G1 X99.442 Y96.672 E16.89763
G1 X99.562 Y96.976 E16.93643
G1 X99.602 Y97.287 E16.97371
G1 X99.590 Y97.476 E16.99612
G1 X99.515 Y97.767 E17.03189
G1 X99.435 Y97.938 E17.05430
G1 X99.257 Y98.182 E17.09007
G1 X99.120 Y98.311 E17.11248
G1 X98.866 Y98.472 E17.14824
G1 X98.746 Y98.520 E17.16352
G1 X98.618 Y98.847 F7800.000
G1 E15.16352 F2400.00000
G92 E0
G1 Z1.400 F7800.000
G1 X96.738 Y95.914 F7800.000
G1 Z0.400 F7800.000
G1 E2.00000 F2400.00000
G1 F540
G1 X97.409 Y95.489 E2.09434
G1 X97.709 Y95.369 E2.13279
G1 X98.173 Y95.281 E2.18884
G1 X98.644 Y95.311 E2.24483
G1 X98.957 Y95.391 E2.28330
G1 X99.352 Y95.577 E2.33510
G1 X99.585 Y95.746 E2.36935
G1 X99.796 Y95.944 E2.40363
G1 X100.073 Y96.325 E2.45964
G1 X100.259 Y96.797 E2.51987
G1 X100.319 Y97.265 E2.57588
G1 X100.298 Y97.588 E2.61432
G1 X100.190 Y98.010 E2.66612
G1 X100.052 Y98.303 E2.70456
G1 X99.796 Y98.656 E2.75637
G1 X99.560 Y98.878 E2.79483
G1 X99.191 Y99.111 E2.84659
G1 X98.891 Y99.231 E2.88504
G1 X98.427 Y99.319 E2.94109
G1 X97.956 Y99.289 E2.99708
G1 X97.643 Y99.209 E3.03555
G1 X97.248 Y99.023 E3.08735
G1 X97.015 Y98.854 E3.12160
G1 X96.804 Y98.656 E3.15588
G1 X96.527 Y98.275 E3.21189
G1 X96.341 Y97.803 E3.27212
G1 X96.277 Y97.300 E3.33234
G1 X96.336 Y96.832 E3.38835
G1 X96.425 Y96.558 E3.42260
G1 X96.548 Y96.297 E3.45687
G1 X96.826 Y95.914 E3.51303
G1 X96.798 Y95.914 E3.51640
G1 X101.750 Y91.750 F7800.000
G1 F378
G1 X138.250 Y91.750 E7.85133
G1 X138.250 Y128.250 E12.18626
G1 X101.750 Y128.250 E16.52119
G1 X101.750 Y91.810 E20.84899
G1 X101.646 Y91.364 F7800.000
G1 X101.036 Y91.036 F7800.000
G1 F540
G1 X138.964 Y91.036 E25.35355
G1 X138.964 Y128.964 E29.85811
G1 X101.036 Y128.964 E34.36268
G1 X101.036 Y91.096 E38.86012
G1 X101.972 Y87.428 F7800.000
G1 F540
G1 X104.709 Y87.428 E39.18519
G1 X104.602 Y87.844 E39.23620
G1 X104.563 Y88.472 E39.31091
G1 X104.680 Y89.091 E39.38571
G1 X104.850 Y89.517 E39.44019
G1 X105.360 Y90.322 E39.55332
G1 X100.322 Y90.322 E40.15167
G1 X100.322 Y95.398 E40.75462
G1 X99.717 Y94.959 E40.84337
G1 X99.200 Y94.716 E40.91120
G1 X98.756 Y94.602 E40.96573
G1 X98.128 Y94.563 E41.04043
G1 X97.428 Y94.696 E41.12500
G1 X97.428 Y91.972 E41.44854
G1 X96.428 Y91.972 E41.56730
G1 X96.428 Y86.428 E42.22566
G1 X101.972 Y86.428 E42.88402
G1 X101.972 Y87.368 E42.99566
G1 X106.298 Y87.471 F7800.000
G1 F540
G1 X106.418 Y87.343 E43.01657
G1 X106.672 Y87.158 E43.05385
G1 X106.975 Y87.038 E43.09248
G1 X107.259 Y87.000 E43.12658
G1 X107.472 Y87.009 E43.15182
G1 X107.767 Y87.085 E43.18809
G1 X107.938 Y87.165 E43.21050
G1 X108.182 Y87.343 E43.24628
G1 X108.311 Y87.480 E43.26869
G1 X108.472 Y87.734 E43.30444
G1 X108.542 Y87.910 E43.32685
G1 X108.601 Y88.218 E43.36415
G1 X108.581 Y88.531 E43.40142
G1 X108.534 Y88.714 E43.42384
G1 X108.406 Y88.987 E43.45961
G1 X108.302 Y89.129 E43.48051
G1 X108.182 Y89.257 E43.50142
G1 X107.928 Y89.442 E43.53870
G1 X107.624 Y89.562 E43.57751
G1 X107.313 Y89.602 E43.61479
G1 X107.124 Y89.590 E43.63719
G1 X106.833 Y89.515 E43.67296
G1 X106.662 Y89.435 E43.69537
G1 X106.418 Y89.257 E43.73114
G1 X106.289 Y89.120 E43.75356
G1 X106.128 Y88.866 E43.78931
G1 X106.058 Y88.690 E43.81172
G1 X105.999 Y88.382 E43.84902
G1 X106.019 Y88.069 E43.88629
G1 X106.066 Y87.886 E43.90871
G1 X106.194 Y87.613 E43.94448
G1 X106.262 Y87.519 E43.95825
G1 X106.233 Y87.307 F7800.000
G1 X105.914 Y86.784 F7800.000
G1 F540
G1 X105.914 Y86.826 E43.96329
G1 X106.325 Y86.527 E44.02367
G1 X106.793 Y86.342 E44.08343
G1 X107.227 Y86.284 E44.13537
G1 X107.576 Y86.299 E44.17694
G1 X108.010 Y86.410 E44.23013
G1 X108.303 Y86.548 E44.26858
G1 X108.656 Y86.804 E44.32039
G1 X108.878 Y87.040 E44.35885
G1 X109.111 Y87.409 E44.41061
G1 X109.231 Y87.709 E44.44906
G1 X109.319 Y88.173 E44.50511
G1 X109.289 Y88.644 E44.56110
G1 X109.209 Y88.957 E44.59957
G1 X109.023 Y89.352 E44.65137
G1 X108.854 Y89.585 E44.68562
G1 X108.656 Y89.796 E44.71989
